; generated by Slic3r 1.3.0 on 2023-06-16 at 21:32:59

; external perimeters extrusion width = 0.44mm (2.38mm^3/s)
; perimeters extrusion width = 0.56mm (6.20mm^3/s)
; infill extrusion width = 0.50mm (8.23mm^3/s)
; solid infill extrusion width = 0.56mm (2.07mm^3/s)
; top infill extrusion width = 0.56mm (1.55mm^3/s)

M190 S100 ; set bed temperature and wait for it to be reached
M104 S240 ; set temperature
G28 ; home all axes
G29 ; auto-bed-level
G1 Z5 F5000 ; lift nozzle

; Filament gcode

M109 S240 ; set temperature and wait for it to be reached
G21 ; set units to millimeters
G90 ; use absolute coordinates
M82 ; use absolute distances for extrusion
G92 E0
G1 Z0.350 F10200.000
G1 E-2.00000 F2400.00000
G92 E0
G1 X97.878 Y64.451 F10200.000
G1 E2.00000 F2400.00000
G1 F1800
G1 X97.878 Y55.922 E2.77563
G1 X100.251 Y51.917 E3.19902
G1 X124.790 Y38.472 E5.74381
G1 X133.122 Y43.408 E6.62457
G1 X133.122 Y65.770 E8.65828
G1 X128.145 Y70.747 E9.29846
G1 X119.064 Y70.747 E10.12428
G1 X118.872 Y70.939 E10.14900
G1 X118.872 Y77.689 E10.76282
G1 X114.089 Y82.630 E11.38825
G1 X108.843 Y82.802 E11.86560
G1 X107.313 Y82.952 E12.00544
G1 X105.785 Y83.204 E12.14626
G1 X104.298 Y83.551 E12.28514
G1 X102.827 Y83.997 E12.42497
G1 X101.378 Y84.542 E12.56580
G1 X99.987 Y85.173 E12.70467
G1 X98.631 Y85.897 E12.84451
G1 X97.316 Y86.715 E12.98534
G1 X96.074 Y87.604 E13.12421
G1 X94.886 Y88.579 E13.26405
G1 X93.755 Y89.638 E13.40487
G1 X92.705 Y90.760 E13.54471
G1 X91.736 Y91.941 E13.68359
G1 X90.834 Y93.199 E13.82441
G1 X90.028 Y94.496 E13.96328
G1 X89.302 Y95.852 E14.10313
G1 X88.663 Y97.263 E14.24395
G1 X88.125 Y98.692 E14.38281
G1 X87.679 Y100.163 E14.52266
G1 X87.327 Y101.671 E14.66348
G1 X87.077 Y103.188 E14.80333
G1 X86.927 Y104.719 E14.94318
G1 X86.877 Y106.245 E15.08205
G1 X86.927 Y107.781 E15.22189
G1 X87.077 Y109.312 E15.36175
G1 X87.327 Y110.829 E15.50159
G1 X87.676 Y112.327 E15.64143
G1 X88.122 Y113.798 E15.78128
G1 X88.667 Y115.247 E15.92209
G1 X89.298 Y116.638 E16.06096
G1 X90.022 Y117.994 E16.20081
G1 X90.834 Y119.300 E16.34066
G1 X91.729 Y120.551 E16.48050
G1 X92.705 Y121.739 E16.62035
G1 X93.755 Y122.862 E16.76019
G1 X94.878 Y123.913 E16.90005
G1 X96.066 Y124.889 E17.03989
G1 X97.324 Y125.791 E17.18071
G1 X98.621 Y126.597 E17.31958
G1 X99.977 Y127.323 E17.45943
G1 X101.388 Y127.962 E17.60024
G1 X102.827 Y128.503 E17.74009
G1 X104.288 Y128.946 E17.87896
G1 X105.796 Y129.298 E18.01979
G1 X107.303 Y129.547 E18.15865
G1 X108.833 Y129.698 E18.29851
G1 X114.090 Y129.870 E18.77685
G1 X118.872 Y134.812 E19.40226
G1 X118.872 Y136.561 E19.56133
G1 X119.064 Y136.753 E19.58606
G1 X128.145 Y136.753 E20.41188
G1 X133.122 Y141.730 E21.05206
G1 X133.122 Y153.770 E22.14696
G1 X128.145 Y158.747 E22.78714
G1 X114.197 Y158.747 E24.05565
G1 X114.113 Y158.769 E24.06351
G1 X113.389 Y159.187 E24.13955
G1 X112.002 Y159.761 E24.27604
G1 X110.930 Y160.049 E24.37701
G1 X109.430 Y160.247 E24.51459
G1 X108.313 Y160.247 E24.61622
G1 X106.826 Y160.051 E24.75261
G1 X105.751 Y159.763 E24.85380
G1 X104.356 Y159.185 E24.99112
G1 X103.388 Y158.625 E25.09282
G1 X102.200 Y157.713 E25.22905
G1 X101.412 Y156.925 E25.33036
G1 X100.494 Y155.728 E25.46762
G1 X99.938 Y154.765 E25.56871
G1 X99.361 Y153.370 E25.70598
G1 X99.074 Y152.297 E25.80698
G1 X98.914 Y151.083 E25.91834
G1 X98.878 Y150.528 E25.96895
G1 X98.878 Y148.335 E26.16837
G1 X98.746 Y148.160 E26.18836
G1 X97.682 Y147.854 E26.28903
G1 X96.327 Y147.416 E26.41848
G1 X94.988 Y146.935 E26.54792
G1 X93.665 Y146.409 E26.67738
G1 X92.487 Y145.898 E26.79419
G1 X91.199 Y145.292 E26.92363
G1 X89.932 Y144.644 E27.05308
G1 X88.687 Y143.954 E27.18252
G1 X87.465 Y143.224 E27.31197
G1 X86.267 Y142.455 E27.44144
G1 X85.096 Y141.647 E27.57087
G1 X83.951 Y140.801 E27.70032
G1 X82.834 Y139.918 E27.82978
G1 X81.954 Y139.173 E27.93467
G1 X80.590 Y137.949 E28.10132
G1 X79.569 Y136.958 E28.23076
G1 X78.581 Y135.934 E28.36020
G1 X77.718 Y134.982 E28.47701
G1 X76.795 Y133.898 E28.60647
G1 X75.909 Y132.784 E28.73593
G1 X75.059 Y131.643 E28.86535
G1 X74.247 Y130.474 E28.99480
G1 X73.474 Y129.278 E29.12427
G1 X72.740 Y128.059 E29.25370
G1 X72.047 Y126.816 E29.38316
G1 X71.394 Y125.550 E29.51264
G1 X70.899 Y124.509 E29.61752
G1 X70.163 Y122.832 E29.78413
G1 X69.641 Y121.507 E29.91361
G1 X69.164 Y120.166 E30.04306
G1 X68.771 Y118.943 E30.15986
G1 X68.378 Y117.575 E30.28929
G1 X67.998 Y116.059 E30.43140
G1 X67.727 Y114.804 E30.54821
G1 X67.470 Y113.404 E30.67765
G1 X67.241 Y111.858 E30.81975
G1 X67.094 Y110.582 E30.93656
G1 X66.976 Y109.164 E31.06598
G1 X66.899 Y107.604 E31.20809
G1 X66.878 Y106.319 E31.32490
G1 X66.899 Y104.896 E31.45435
G1 X66.976 Y103.336 E31.59646
G1 X67.094 Y101.917 E31.72587
G1 X67.241 Y100.642 E31.84268
G1 X67.470 Y99.096 E31.98479
G1 X67.700 Y97.832 E32.10158
G1 X67.998 Y96.441 E32.23104
G1 X68.378 Y94.925 E32.37315
G1 X68.731 Y93.690 E32.48995
G1 X69.164 Y92.334 E32.61937
G1 X69.690 Y90.863 E32.76149
G1 X70.163 Y89.668 E32.87831
G1 X70.727 Y88.362 E33.00775
G1 X71.333 Y87.074 E33.13719
G1 X71.981 Y85.807 E33.26662
G1 X72.740 Y84.441 E33.40873
G1 X73.474 Y83.222 E33.53816
G1 X74.170 Y82.142 E33.65498
G1 X75.059 Y80.857 E33.79708
G1 X75.824 Y79.826 E33.91387
G1 X76.707 Y78.710 E34.04333
G1 X77.718 Y77.518 E34.18543
G1 X78.581 Y76.566 E34.30224
G1 X79.569 Y75.542 E34.43169
G1 X80.692 Y74.456 E34.57379
G1 X81.643 Y73.593 E34.69059
G1 X82.727 Y72.670 E34.82003
G1 X83.951 Y71.699 E34.96213
G1 X84.982 Y70.934 E35.07893
G1 X86.152 Y70.122 E35.20838
G1 X87.465 Y69.276 E35.35047
G1 X88.566 Y68.615 E35.46728
G1 X89.809 Y67.922 E35.59674
G1 X91.199 Y67.208 E35.73882
G1 X92.360 Y66.659 E35.85563
G1 X93.665 Y66.091 E35.98509
G1 X95.118 Y65.516 E36.12716
G1 X96.459 Y65.039 E36.25663
G1 X97.752 Y64.624 E36.38012
G1 X97.843 Y64.499 E36.39411
G1 X98.503 Y64.922 F10200.000
G1 F1800
G1 X98.503 Y56.094 E37.19699
G1 X100.701 Y52.383 E37.58923
G1 X124.778 Y39.191 E40.08606
G1 X132.497 Y43.764 E40.90203
G1 X132.497 Y65.511 E42.87980
G1 X127.886 Y70.122 E43.47289
G1 X118.439 Y70.122 E44.33201
G1 X118.247 Y70.314 E44.35673
G1 X118.247 Y77.436 E45.00439
G1 X113.816 Y82.014 E45.58382
G1 X108.803 Y82.178 E46.04003
G1 X107.232 Y82.332 E46.18359
G1 X105.663 Y82.591 E46.32813
G1 X104.136 Y82.947 E46.47073
G1 X102.626 Y83.405 E46.61429
G1 X101.138 Y83.965 E46.75884
G1 X99.710 Y84.612 E46.90143
G1 X98.318 Y85.356 E47.04499
G1 X96.968 Y86.195 E47.18954
G1 X95.694 Y87.108 E47.33213
G1 X94.473 Y88.109 E47.47569
G1 X93.313 Y89.196 E47.62024
G1 X92.241 Y90.340 E47.76282
G1 X91.240 Y91.560 E47.90640
G1 X90.314 Y92.852 E48.05094
G1 X89.486 Y94.184 E48.19353
G1 X88.742 Y95.576 E48.33711
G1 X88.086 Y97.023 E48.48165
G1 X87.533 Y98.491 E48.62423
G1 X87.075 Y100.001 E48.76780
G1 X86.714 Y101.549 E48.91234
G1 X86.457 Y103.106 E49.05591
G1 X86.303 Y104.678 E49.19949
G1 X86.251 Y106.245 E49.34207
G1 X86.303 Y107.822 E49.48563
G1 X86.457 Y109.393 E49.62921
G1 X86.714 Y110.951 E49.77278
G1 X87.072 Y112.488 E49.91634
G1 X87.530 Y113.999 E50.05991
G1 X88.090 Y115.487 E50.20445
G1 X88.737 Y116.915 E50.34704
G1 X89.481 Y118.307 E50.49061
G1 X90.314 Y119.648 E50.63418
G1 X91.233 Y120.931 E50.77774
G1 X92.234 Y122.152 E50.92131
G1 X93.313 Y123.304 E51.06488
G1 X94.465 Y124.384 E51.20845
G1 X95.685 Y125.385 E51.35201
G1 X96.977 Y126.311 E51.49656
G1 X98.309 Y127.139 E51.63915
G1 X99.701 Y127.883 E51.78272
G1 X101.148 Y128.539 E51.92726
G1 X102.616 Y129.092 E52.06985
G1 X104.126 Y129.550 E52.21342
G1 X105.674 Y129.911 E52.35796
G1 X107.221 Y130.167 E52.50055
G1 X108.792 Y130.322 E52.64413
G1 X113.816 Y130.487 E53.10133
G1 X118.247 Y135.065 E53.68073
G1 X118.247 Y137.186 E53.87365
G1 X118.439 Y137.378 E53.89837
G1 X127.886 Y137.378 E54.75749
G1 X132.497 Y141.989 E55.35058
G1 X132.497 Y153.511 E56.39840
G1 X127.886 Y158.122 E56.99149
G1 X114.029 Y158.122 E58.25168
G1 X113.946 Y158.144 E58.25954
G1 X113.112 Y158.625 E58.34707
G1 X111.801 Y159.168 E58.47614
G1 X110.807 Y159.435 E58.56969
G1 X109.389 Y159.622 E58.69976
G1 X108.354 Y159.622 E58.79392
G1 X106.948 Y159.436 E58.92290
G1 X105.952 Y159.170 E59.01665
G1 X104.633 Y158.623 E59.14648
G1 X103.737 Y158.105 E59.24070
G1 X102.613 Y157.242 E59.36953
G1 X101.883 Y156.512 E59.46338
G1 X101.015 Y155.380 E59.59317
G1 X100.500 Y154.488 E59.68683
G1 X99.954 Y153.169 E59.81662
G1 X99.689 Y152.175 E59.91018
G1 X99.537 Y151.022 E60.01598
G1 X99.503 Y150.508 E60.06286
G1 X99.503 Y147.862 E60.30352
G1 X99.367 Y147.685 E60.32377
G1 X97.991 Y147.295 E60.45385
G1 X96.655 Y146.867 E60.58143
G1 X95.213 Y146.351 E60.72072
G1 X93.909 Y145.834 E60.84833
G1 X92.623 Y145.274 E60.97592
G1 X91.355 Y144.672 E61.10351
G1 X90.222 Y144.090 E61.21938
G1 X88.995 Y143.410 E61.34696
G1 X87.790 Y142.691 E61.47455
G1 X86.610 Y141.932 E61.60216
G1 X85.351 Y141.061 E61.74143
G1 X84.225 Y140.223 E61.86904
G1 X83.227 Y139.431 E61.98492
G1 X82.358 Y138.697 E62.08841
G1 X81.115 Y137.585 E62.24009
G1 X80.105 Y136.611 E62.36767
G1 X79.040 Y135.510 E62.50697
G1 X78.100 Y134.469 E62.63456
G1 X77.275 Y133.497 E62.75045
G1 X76.401 Y132.400 E62.87805
G1 X75.564 Y131.274 E63.00561
G1 X74.764 Y130.122 E63.13320
G1 X73.934 Y128.835 E63.27252
G1 X73.279 Y127.742 E63.38838
G1 X72.596 Y126.517 E63.51598
G1 X71.896 Y125.154 E63.65529
G1 X71.351 Y124.002 E63.77116
G1 X70.791 Y122.716 E63.89874
G1 X70.228 Y121.291 E64.03807
G1 X69.757 Y119.970 E64.16565
G1 X69.368 Y118.757 E64.28152
G1 X68.947 Y117.284 E64.42080
G1 X68.638 Y116.048 E64.53669
G1 X68.339 Y114.677 E64.66430
G1 X68.065 Y113.170 E64.80358
G1 X67.878 Y111.910 E64.91945
G1 X67.716 Y110.516 E65.04707
G1 X67.591 Y108.990 E65.18635
G1 X67.528 Y107.717 E65.30223
G1 X67.503 Y106.314 E65.42983
G1 X67.528 Y104.783 E65.56913
G1 X67.591 Y103.510 E65.68502
G1 X67.703 Y102.112 E65.81260
G1 X67.878 Y100.590 E65.95190
G1 X68.086 Y99.203 E66.07948
G1 X68.314 Y97.949 E66.19535
G1 X68.638 Y96.452 E66.33467
G1 X68.947 Y95.216 E66.45056
G1 X69.330 Y93.866 E66.57814
G1 X69.799 Y92.408 E66.71741
G1 X70.228 Y91.209 E66.83329
G1 X70.742 Y89.903 E66.96091
G1 X71.351 Y88.498 E67.10021
G1 X71.953 Y87.231 E67.22777
G1 X72.596 Y85.983 E67.35539
G1 X73.215 Y84.870 E67.47128
G1 X73.934 Y83.665 E67.59883
G1 X74.764 Y82.378 E67.73817
G1 X75.489 Y81.330 E67.85405
G1 X76.323 Y80.202 E67.98160
G1 X77.275 Y79.003 E68.12091
G1 X78.100 Y78.031 E68.23679
G1 X79.040 Y76.990 E68.36439
G1 X80.105 Y75.889 E68.50368
G1 X81.021 Y75.003 E68.61956
G1 X82.059 Y74.060 E68.74716
G1 X83.227 Y73.069 E68.88646
G1 X84.225 Y72.277 E69.00233
G1 X85.351 Y71.439 E69.12992
G1 X86.610 Y70.567 E69.26922
G1 X87.790 Y69.809 E69.39681
G1 X88.883 Y69.154 E69.51269
G1 X90.222 Y68.410 E69.65199
G1 X91.471 Y67.771 E69.77958
G1 X92.623 Y67.226 E69.89546
G1 X93.909 Y66.666 E70.02306
G1 X95.213 Y66.149 E70.15063
G1 X96.533 Y65.674 E70.27822
G1 X98.371 Y65.097 E70.45337
G1 X98.467 Y64.970 E70.46790
G1 X99.128 Y65.393 F10200.000
G1 F1800
G1 X99.128 Y56.265 E71.29809
G1 X101.152 Y52.849 E71.65919
G1 X124.766 Y39.910 E74.10804
G1 X131.872 Y44.120 E74.85923
G1 X131.872 Y65.252 E76.78106
G1 X127.627 Y69.497 E77.32706
G1 X117.814 Y69.497 E78.21948
G1 X117.622 Y69.689 E78.24420
G1 X117.622 Y77.183 E78.92570
G1 X113.543 Y81.397 E79.45913
G1 X108.762 Y81.554 E79.89419
G1 X107.150 Y81.712 E80.04148
G1 X105.541 Y81.978 E80.18974
G1 X103.964 Y82.346 E80.33704
G1 X102.425 Y82.813 E80.48334
G1 X100.899 Y83.387 E80.63161
G1 X99.434 Y84.051 E80.77792
G1 X98.005 Y84.814 E80.92521
G1 X96.621 Y85.675 E81.07348
G1 X95.305 Y86.619 E81.22076
G1 X94.061 Y87.639 E81.36707
G1 X92.871 Y88.754 E81.51534
G1 X91.771 Y89.928 E81.66165
G1 X90.744 Y91.180 E81.80894
G1 X89.794 Y92.505 E81.95721
G1 X88.939 Y93.880 E82.10450
G1 X88.176 Y95.309 E82.25179
G1 X87.508 Y96.784 E82.39908
G1 X86.941 Y98.290 E82.54538
G1 X86.468 Y99.850 E82.69365
G1 X86.103 Y101.416 E82.83996
G1 X85.838 Y103.014 E82.98725
G1 X85.679 Y104.637 E83.13552
G1 X85.626 Y106.245 E83.28183
G1 X85.679 Y107.863 E83.42912
G1 X85.837 Y109.475 E83.57642
G1 X86.101 Y111.073 E83.72370
G1 X86.468 Y112.650 E83.87098
G1 X86.938 Y114.200 E84.01828
G1 X87.512 Y115.726 E84.16654
G1 X88.181 Y117.201 E84.31383
G1 X88.939 Y118.620 E84.46015
G1 X89.794 Y119.995 E84.60743
G1 X90.737 Y121.312 E84.75472
G1 X91.764 Y122.564 E84.90201
G1 X92.871 Y123.746 E85.04930
G1 X94.053 Y124.854 E85.19660
G1 X95.305 Y125.881 E85.34388
G1 X96.630 Y126.831 E85.49214
G1 X97.996 Y127.681 E85.63846
G1 X99.424 Y128.444 E85.78574
G1 X100.909 Y129.117 E85.93401
G1 X102.415 Y129.684 E86.08032
G1 X103.964 Y130.154 E86.22761
G1 X105.541 Y130.522 E86.37490
G1 X107.150 Y130.788 E86.52316
G1 X108.762 Y130.946 E86.67046
G1 X113.543 Y131.103 E87.10555
G1 X117.622 Y135.317 E87.63895
G1 X117.622 Y137.811 E87.86571
G1 X117.814 Y138.003 E87.89043
G1 X127.627 Y138.003 E88.78284
G1 X131.872 Y142.248 E89.32884
G1 X131.872 Y153.252 E90.32957
G1 X127.627 Y157.497 E90.87557
G1 X113.835 Y157.497 E92.12987
G1 X113.733 Y157.532 E92.13972
G1 X112.835 Y158.064 E92.23458
G1 X111.599 Y158.575 E92.35623
G1 X110.685 Y158.821 E92.44235
G1 X109.349 Y158.997 E92.56493
G1 X108.396 Y158.997 E92.65161
G1 X107.070 Y158.822 E92.77317
G1 X106.154 Y158.576 E92.85948
G1 X104.911 Y158.062 E92.98183
G1 X104.085 Y157.584 E93.06857
G1 X103.026 Y156.771 E93.19000
G1 X102.354 Y156.099 E93.27640
G1 X101.536 Y155.032 E93.39871
G1 X101.062 Y154.211 E93.48493
G1 X100.548 Y152.968 E93.60725
G1 X100.303 Y152.053 E93.69338
G1 X100.159 Y150.961 E93.79361
G1 X100.128 Y150.487 E93.83676
G1 X100.128 Y147.374 E94.11992
G1 X99.989 Y147.196 E94.14045
G1 X99.383 Y147.042 E94.19730
G1 X98.055 Y146.661 E94.32302
G1 X96.739 Y146.236 E94.44875
G1 X95.438 Y145.768 E94.57447
G1 X94.153 Y145.258 E94.70021
G1 X92.885 Y144.707 E94.82594
G1 X91.636 Y144.114 E94.95167
G1 X90.408 Y143.481 E95.07739
G1 X89.200 Y142.807 E95.20311
G1 X88.015 Y142.095 E95.32886
G1 X86.854 Y141.344 E95.45459
G1 X85.719 Y140.556 E95.58030
G1 X84.610 Y139.731 E95.70604
G1 X83.528 Y138.870 E95.83177
G1 X82.475 Y137.974 E95.95751
G1 X81.452 Y137.044 E96.08324
G1 X80.460 Y136.081 E96.20896
G1 X79.500 Y135.086 E96.33468
G1 X78.651 Y134.150 E96.44964
G1 X77.755 Y133.097 E96.57537
G1 X76.894 Y132.015 E96.70111
G1 X76.069 Y130.906 E96.82682
G1 X75.281 Y129.771 E96.95254
G1 X74.530 Y128.610 E97.07829
G1 X73.818 Y127.425 E97.20401
G1 X73.144 Y126.217 E97.32974
G1 X72.511 Y124.988 E97.45549
G1 X71.918 Y123.740 E97.58121
G1 X71.367 Y122.472 E97.70692
G1 X70.857 Y121.187 E97.83266
G1 X70.389 Y119.886 E97.95841
G1 X69.964 Y118.570 E98.08413
G1 X69.552 Y117.127 E98.22062
G1 X69.245 Y115.901 E98.33557
G1 X68.951 Y114.550 E98.46132
G1 X68.683 Y113.073 E98.59781
G1 X68.497 Y111.823 E98.71276
G1 X68.337 Y110.450 E98.83851
G1 X68.215 Y108.954 E98.97500
G1 X68.153 Y107.692 E99.08995
G1 X68.128 Y106.309 E99.21569
G1 X68.153 Y104.808 E99.35220
G1 X68.222 Y103.428 E99.47795
G1 X68.337 Y102.050 E99.60365
G1 X68.482 Y100.795 E99.71859
G1 X68.683 Y99.426 E99.84435
G1 X68.951 Y97.950 E99.98083
G1 X69.218 Y96.714 E100.09579
G1 X69.552 Y95.373 E100.22154
G1 X69.964 Y93.930 E100.35803
G1 X70.389 Y92.614 E100.48374
G1 X70.815 Y91.424 E100.59870
G1 X71.367 Y90.028 E100.73523
G1 X71.869 Y88.868 E100.85018
G1 X72.459 Y87.618 E100.97590
G1 X73.144 Y86.282 E101.11242
G1 X73.759 Y85.178 E101.22738
G1 X74.467 Y83.991 E101.35308
G1 X75.281 Y82.729 E101.48962
G1 X76.000 Y81.690 E101.60457
G1 X76.822 Y80.579 E101.73027
G1 X77.755 Y79.403 E101.86678
G1 X78.573 Y78.439 E101.98173
G1 X79.500 Y77.414 E102.10747
G1 X80.544 Y76.335 E102.24397
G1 X81.539 Y75.375 E102.36971
G1 X82.475 Y74.526 E102.48466
G1 X83.620 Y73.555 E102.62117
G1 X84.610 Y72.769 E102.73611
G1 X85.719 Y71.944 E102.86184
G1 X86.953 Y71.090 E102.99835
G1 X88.015 Y70.405 E103.11330
G1 X89.200 Y69.693 E103.23903
G1 X90.512 Y68.964 E103.37554
G1 X91.636 Y68.386 E103.49049
G1 X92.885 Y67.793 E103.61622
G1 X94.263 Y67.196 E103.75273
G1 X95.438 Y66.732 E103.86767
G1 X96.739 Y66.264 E103.99340
G1 X98.055 Y65.839 E104.11915
G1 X98.996 Y65.569 E104.20819
G1 X99.092 Y65.441 E104.22272
G1 X99.753 Y65.865 F10200.000
G1 F1800
G1 X99.753 Y56.436 E105.08022
G1 X101.602 Y53.314 E105.41018
G1 X124.754 Y40.629 E107.81106
G1 X131.247 Y44.476 E108.49746
