; generated by Slic3r 1.3.0 on 2023-06-16 at 18:44:21

; external perimeters extrusion width = 0.44mm (2.38mm^3/s)
; perimeters extrusion width = 0.56mm (6.20mm^3/s)
; infill extrusion width = 0.50mm (8.23mm^3/s)
; solid infill extrusion width = 0.56mm (2.07mm^3/s)
; top infill extrusion width = 0.56mm (1.55mm^3/s)

M190 S100 ; set bed temperature and wait for it to be reached
M104 S240 ; set temperature
G28 ; home all axes
G29 ; auto-bed-level
G1 Z5 F5000 ; lift nozzle

; Filament gcode

M109 S240 ; set temperature and wait for it to be reached
G21 ; set units to millimeters
G90 ; use absolute coordinates
M82 ; use absolute distances for extrusion
G92 E0
G1 Z0.350 F10200.000
G1 E-2.00000 F2400.00000
G92 E0
G1 X61.253 Y59.980 F10200.000
G1 E2.00000 F2400.00000
G1 F1800
G1 X66.230 Y55.003 E2.64018
G1 X75.410 Y55.003 E3.47500
G1 X75.530 Y54.953 E3.48687
G1 X80.480 Y50.003 E4.12353
G1 X119.520 Y50.003 E7.67397
G1 X124.470 Y54.953 E8.31063
G1 X124.590 Y55.003 E8.32250
G1 X133.770 Y55.003 E9.15732
G1 X138.747 Y59.980 E9.79750
G1 X138.747 Y90.698 E12.59114
G1 X134.530 Y95.507 E13.17283
G1 X128.566 Y96.298 E13.71997
G1 X127.055 Y96.923 E13.86868
G1 X125.721 Y97.940 E14.02126
G1 X124.673 Y99.305 E14.17773
G1 X124.048 Y100.816 E14.32643
G1 X123.823 Y102.478 E14.47902
G1 X124.048 Y104.184 E14.63548
G1 X124.695 Y105.732 E14.78806
G1 X125.721 Y107.060 E14.94065
G1 X127.018 Y108.055 E15.08935
G1 X128.566 Y108.702 E15.24194
G1 X134.530 Y109.493 E15.78908
G1 X138.747 Y114.302 E16.37077
G1 X138.747 Y145.020 E19.16441
G1 X133.770 Y149.997 E19.80459
G1 X112.480 Y149.997 E21.74074
G1 X107.503 Y145.020 E22.38092
G1 X107.503 Y138.340 E22.98838
G1 X107.453 Y138.220 E23.00025
G1 X105.280 Y136.047 E23.27969
G1 X105.160 Y135.997 E23.29156
G1 X94.840 Y135.997 E24.23008
G1 X94.720 Y136.047 E24.24196
G1 X92.547 Y138.220 E24.52140
G1 X92.497 Y138.340 E24.53327
G1 X92.497 Y145.020 E25.14073
G1 X87.520 Y149.997 E25.78091
G1 X66.230 Y149.997 E27.71706
G1 X61.253 Y145.020 E28.35724
G1 X61.253 Y114.302 E31.15087
G1 X65.470 Y109.493 E31.73257
G1 X71.434 Y108.702 E32.27971
G1 X72.982 Y108.055 E32.43230
G1 X74.279 Y107.060 E32.58100
G1 X75.327 Y105.695 E32.73746
G1 X75.952 Y104.184 E32.88617
G1 X76.177 Y102.522 E33.03875
G1 X75.963 Y100.857 E33.19134
G1 X75.327 Y99.305 E33.34392
G1 X74.279 Y97.940 E33.50038
G1 X72.982 Y96.945 E33.64909
G1 X71.434 Y96.298 E33.80168
G1 X65.470 Y95.507 E34.34882
G1 X61.253 Y90.698 E34.93051
G1 X61.253 Y60.040 E37.71869
G1 X61.878 Y60.239 F10200.000
G1 F1800
G1 X66.489 Y55.628 E38.31178
G1 X75.936 Y55.628 E39.17090
G1 X76.128 Y55.436 E39.19562
G1 X76.128 Y55.239 E39.21349
G1 X80.739 Y50.628 E39.80658
G1 X119.261 Y50.628 E43.30993
G1 X123.872 Y55.239 E43.90302
G1 X123.872 Y55.436 E43.92089
G1 X124.064 Y55.628 E43.94561
G1 X133.511 Y55.628 E44.80473
G1 X138.122 Y60.239 E45.39782
G1 X138.122 Y90.463 E48.14651
G1 X134.215 Y94.918 E48.68542
G1 X128.403 Y95.689 E49.21865
G1 X126.740 Y96.378 E49.38233
G1 X125.275 Y97.495 E49.54988
G1 X124.127 Y98.990 E49.72130
G1 X123.439 Y100.653 E49.88498
G1 X123.193 Y102.478 E50.05253
G1 X123.439 Y104.347 E50.22396
G1 X124.149 Y106.047 E50.39151
G1 X125.275 Y107.505 E50.55906
G1 X126.703 Y108.601 E50.72273
G1 X128.403 Y109.311 E50.89028
G1 X134.215 Y110.082 E51.42351
G1 X138.122 Y114.537 E51.96242
G1 X138.122 Y144.761 E54.71112
G1 X133.511 Y149.372 E55.30421
G1 X112.739 Y149.372 E57.19327
G1 X108.128 Y144.761 E57.78636
G1 X108.128 Y138.081 E58.39382
G1 X108.078 Y137.961 E58.40569
G1 X105.539 Y135.422 E58.73222
G1 X105.419 Y135.372 E58.74410
G1 X94.581 Y135.372 E59.72971
G1 X94.461 Y135.422 E59.74158
G1 X91.922 Y137.961 E60.06811
G1 X91.872 Y138.081 E60.07998
G1 X91.872 Y144.761 E60.68744
G1 X87.261 Y149.372 E61.28053
G1 X66.489 Y149.372 E63.16959
G1 X61.878 Y144.761 E63.76268
G1 X61.878 Y114.537 E66.51138
G1 X65.785 Y110.082 E67.05029
G1 X71.597 Y109.311 E67.58352
G1 X73.260 Y108.623 E67.74719
G1 X74.725 Y107.505 E67.91474
G1 X75.873 Y106.010 E68.08617
G1 X76.561 Y104.347 E68.24984
G1 X76.807 Y102.522 E68.41740
G1 X76.572 Y100.694 E68.58495
G1 X75.873 Y98.990 E68.75250
G1 X74.725 Y97.495 E68.92393
G1 X73.260 Y96.378 E69.09148
G1 X71.597 Y95.689 E69.25515
G1 X65.785 Y94.918 E69.78838
G1 X61.878 Y90.463 E70.32729
G1 X61.878 Y60.299 E73.07053
G1 E71.07053 F2400.00000
G92 E0
G1 X76.561 Y56.253 F10200.000
G1 E2.00000 F2400.00000
G1 F1800
G1 X76.753 Y56.061 E2.02472
G1 X76.753 Y55.498 E2.07589
G1 X80.998 Y51.253 E2.62189
G1 X119.002 Y51.253 E6.07815
G1 X123.247 Y55.498 E6.62415
G1 X123.247 Y56.061 E6.67532
G1 X123.439 Y56.253 E6.70004
G1 X133.252 Y56.253 E7.59246
G1 X137.497 Y60.498 E8.13846
G1 X137.497 Y90.228 E10.84221
G1 X133.900 Y94.329 E11.33834
G1 X128.240 Y95.080 E11.85766
G1 X126.425 Y95.832 E12.03630
G1 X124.829 Y97.049 E12.21881
G1 X123.582 Y98.675 E12.40521
G1 X122.830 Y100.490 E12.58385
G1 X122.562 Y102.478 E12.76636
G1 X122.830 Y104.510 E12.95276
G1 X123.603 Y106.362 E13.13528
G1 X124.829 Y107.951 E13.31780
G1 X126.388 Y109.147 E13.49643
G1 X128.240 Y109.920 E13.67895
G1 X133.900 Y110.671 E14.19827
G1 X137.497 Y114.772 E14.69439
G1 X137.497 Y144.502 E17.39815
G1 X133.252 Y148.747 E17.94415
G1 X112.998 Y148.747 E19.78613
G1 X108.753 Y144.502 E20.33213
G1 X108.753 Y137.822 E20.93959
G1 X108.703 Y137.702 E20.95146
G1 X105.798 Y134.797 E21.32508
G1 X105.678 Y134.747 E21.33695
G1 X94.322 Y134.747 E22.36965
G1 X94.202 Y134.797 E22.38152
G1 X91.297 Y137.702 E22.75514
G1 X91.247 Y137.822 E22.76701
G1 X91.247 Y144.502 E23.37447
G1 X87.002 Y148.747 E23.92047
G1 X66.748 Y148.747 E25.76245
G1 X62.503 Y144.502 E26.30845
G1 X62.503 Y114.772 E29.01221
G1 X66.100 Y110.671 E29.50833
G1 X71.760 Y109.920 E30.02765
G1 X73.575 Y109.168 E30.20629
G1 X75.171 Y107.951 E30.38881
G1 X76.418 Y106.325 E30.57521
G1 X77.181 Y104.469 E30.75772
G1 X77.438 Y102.522 E30.93636
G1 X77.181 Y100.531 E31.11888
G1 X76.418 Y98.675 E31.30140
G1 X75.171 Y97.049 E31.48779
G1 X73.612 Y95.853 E31.66643
G1 X71.760 Y95.080 E31.84895
G1 X66.100 Y94.329 E32.36827
G1 X62.503 Y90.228 E32.86439
G1 X62.503 Y60.498 E35.56815
G1 X66.748 Y56.253 E36.11415
G1 X76.501 Y56.253 E37.00111
G1 X77.186 Y56.878 F10200.000
G1 F1800
G1 X77.378 Y56.686 E37.02583
G1 X77.378 Y55.757 E37.11029
G1 X81.257 Y51.878 E37.60920
G1 X118.743 Y51.878 E41.01838
G1 X122.622 Y55.757 E41.51729
G1 X122.622 Y56.686 E41.60175
G1 X122.814 Y56.878 E41.62648
G1 X132.993 Y56.878 E42.55219
G1 X136.872 Y60.757 E43.05110
G1 X136.872 Y89.992 E45.70992
G1 X133.585 Y93.740 E46.16325
G1 X128.076 Y94.471 E46.66866
G1 X126.110 Y95.286 E46.86227
G1 X124.383 Y96.603 E47.05975
G1 X123.036 Y98.360 E47.26112
G1 X122.221 Y100.326 E47.45472
G1 X121.932 Y102.478 E47.65220
G1 X122.221 Y104.674 E47.85357
G1 X123.057 Y106.678 E48.05105
G1 X124.383 Y108.397 E48.24854
G1 X126.072 Y109.693 E48.44214
G1 X128.076 Y110.529 E48.63962
G1 X133.585 Y111.260 E49.14504
G1 X136.872 Y115.008 E49.59837
G1 X136.872 Y144.243 E52.25719
G1 X132.993 Y148.122 E52.75610
G1 X113.257 Y148.122 E54.55099
G1 X109.378 Y144.243 E55.04990
G1 X109.378 Y137.564 E55.65736
G1 X109.328 Y137.443 E55.66923
G1 X106.057 Y134.172 E56.08994
G1 X105.936 Y134.122 E56.10181
G1 X94.064 Y134.122 E57.18160
G1 X93.943 Y134.172 E57.19347
G1 X90.672 Y137.443 E57.61418
G1 X90.622 Y137.564 E57.62605
G1 X90.622 Y144.243 E58.23351
G1 X86.743 Y148.122 E58.73242
G1 X67.007 Y148.122 E60.52731
G1 X63.128 Y144.243 E61.02622
G1 X63.128 Y115.008 E63.68504
G1 X66.415 Y111.260 E64.13838
G1 X71.924 Y110.529 E64.64379
G1 X73.890 Y109.714 E64.83740
G1 X75.617 Y108.397 E65.03488
G1 X76.964 Y106.640 E65.23624
G1 X77.779 Y104.674 E65.42985
G1 X78.068 Y102.522 E65.62733
G1 X77.790 Y100.368 E65.82481
G1 X76.964 Y98.360 E66.02230
G1 X75.617 Y96.603 E66.22366
G1 X73.928 Y95.307 E66.41727
G1 X71.924 Y94.471 E66.61475
G1 X66.415 Y93.740 E67.12016
G1 X63.128 Y89.992 E67.57350
G1 X63.128 Y60.757 E70.23232
G1 X67.007 Y56.878 E70.73123
G1 X77.126 Y56.878 E71.65148
G1 X77.811 Y57.503 F10200.000
G1 F1800
G1 X78.003 Y57.311 E71.67620
G1 X78.003 Y56.016 E71.79396
G1 X81.516 Y52.503 E72.24579
G1 X118.484 Y52.503 E75.60787
G1 X121.997 Y56.016 E76.05970
G1 X121.997 Y57.311 E76.17746
G1 X122.189 Y57.503 E76.20218
G1 X132.734 Y57.503 E77.16119
G1 X136.247 Y61.016 E77.61301
G1 X136.247 Y89.757 E80.22689
G1 X133.271 Y93.151 E80.63744
G1 X127.913 Y93.862 E81.12894
G1 X125.794 Y94.740 E81.33751
G1 X123.938 Y96.157 E81.54996
G1 X122.490 Y98.044 E81.76629
G1 X121.601 Y100.205 E81.97874
G1 X121.302 Y102.478 E82.18731
G1 X121.612 Y104.837 E82.40364
G1 X122.511 Y106.993 E82.61609
G1 X123.938 Y108.843 E82.82854
G1 X125.757 Y110.239 E83.03711
G1 X127.913 Y111.138 E83.24956
G1 X133.271 Y111.849 E83.74107
G1 X136.247 Y115.243 E84.15161
G1 X136.247 Y143.984 E86.76550
G1 X132.734 Y147.497 E87.21732
G1 X113.516 Y147.497 E88.96512
G1 X110.003 Y143.984 E89.41694
G1 X110.003 Y137.305 E90.02440
G1 X109.953 Y137.184 E90.03627
G1 X106.316 Y133.547 E90.50407
G1 X106.195 Y133.497 E90.51594
G1 X93.805 Y133.497 E91.64282
G1 X93.684 Y133.547 E91.65469
G1 X90.047 Y137.184 E92.12249
G1 X89.997 Y137.305 E92.13436
G1 X89.997 Y143.984 E92.74182
G1 X86.484 Y147.497 E93.19364
G1 X67.266 Y147.497 E94.94144
G1 X63.753 Y143.984 E95.39326
G1 X63.753 Y115.243 E98.00715
G1 X66.729 Y111.849 E98.41770
G1 X72.087 Y111.138 E98.90920
G1 X74.206 Y110.260 E99.11777
G1 X76.062 Y108.843 E99.33022
G1 X77.510 Y106.956 E99.54655
G1 X78.388 Y104.837 E99.75512
G1 X78.698 Y102.522 E99.96757
G1 X78.399 Y100.205 E100.18002
G1 X77.510 Y98.044 E100.39247
G1 X76.062 Y96.157 E100.60880
G1 X74.243 Y94.761 E100.81737
G1 X72.087 Y93.862 E101.02982
G1 X66.729 Y93.151 E101.52132
G1 X63.753 Y89.757 E101.93187
G1 X63.753 Y61.016 E104.54575
G1 X67.266 Y57.503 E104.99757
G1 X77.751 Y57.503 E105.95113
G1 X78.436 Y58.128 F10200.000
G1 F1800
G1 X78.628 Y57.936 E105.97585
G1 X78.628 Y56.275 E106.12690
G1 X81.775 Y53.128 E106.53164
G1 X118.225 Y53.128 E109.84664
G1 X121.372 Y56.275 E110.25137
G1 X121.372 Y57.936 E110.40243
G1 X121.564 Y58.128 E110.42715
G1 X132.475 Y58.128 E111.41945
G1 X135.622 Y61.275 E111.82419
G1 X135.622 Y89.522 E114.39313
G1 X132.956 Y92.562 E114.76089
G1 X127.750 Y93.253 E115.23848
G1 X125.479 Y94.194 E115.46202
G1 X123.492 Y95.712 E115.68944
G1 X121.944 Y97.729 E115.92073
G1 X120.992 Y100.042 E116.14815
G1 X120.671 Y102.478 E116.37169
G1 X121.003 Y105.000 E116.60299
G1 X121.965 Y107.308 E116.83040
G1 X123.492 Y109.288 E117.05782
G1 X125.442 Y110.785 E117.28136
G1 X127.750 Y111.747 E117.50877
G1 X132.956 Y112.438 E117.98636
G1 X135.622 Y115.478 E118.35413
G1 X135.622 Y143.725 E120.92307
G1 X132.475 Y146.872 E121.32781
G1 X113.775 Y146.872 E123.02852
G1 X110.628 Y143.725 E123.43325
G1 X110.628 Y137.046 E124.04071
G1 X110.578 Y136.925 E124.05258
G1 X106.575 Y132.922 E124.56747
G1 X106.454 Y132.872 E124.57934
G1 X93.546 Y132.872 E125.75330
G1 X93.425 Y132.922 E125.76518
G1 X89.422 Y136.925 E126.28006
G1 X89.372 Y137.046 E126.29193
G1 X89.372 Y143.725 E126.89939
G1 X86.225 Y146.872 E127.30413
G1 X67.525 Y146.872 E129.00484
G1 X64.378 Y143.725 E129.40957
G1 X64.378 Y115.478 E131.97852
G1 X67.044 Y112.438 E132.34628
G1 X72.250 Y111.747 E132.82387
G1 X74.521 Y110.806 E133.04741
G1 X76.508 Y109.288 E133.27482
G1 X78.056 Y107.271 E133.50612
G1 X78.997 Y105.000 E133.72966
G1 X79.329 Y102.522 E133.95708
G1 X79.008 Y100.042 E134.18449
G1 X78.056 Y97.729 E134.41191
G1 X76.508 Y95.712 E134.64320
G1 X74.558 Y94.215 E134.86674
G1 X72.250 Y93.253 E135.09416
G1 X67.044 Y92.562 E135.57175
G1 X64.378 Y89.522 E135.93951
G1 X64.378 Y61.275 E138.50845
G1 X67.525 Y58.128 E138.91319
G1 X78.376 Y58.128 E139.90004
G1 X79.061 Y58.753 F10200.000
G1 F1800
G1 X79.253 Y58.561 E139.92476
G1 X79.253 Y56.534 E140.10911
G1 X82.034 Y53.753 E140.46676
G1 X117.966 Y53.753 E143.73467
G1 X120.747 Y56.534 E144.09231
G1 X120.747 Y58.561 E144.27667
G1 X120.939 Y58.753 E144.30139
G1 X132.216 Y58.753 E145.32699
G1 X134.997 Y61.534 E145.68464
G1 X134.997 Y89.287 E148.20864
G1 X132.641 Y91.973 E148.53362
G1 X127.587 Y92.644 E148.99730
G1 X125.127 Y93.669 E149.23968
G1 X123.046 Y95.266 E149.47819
G1 X121.398 Y97.414 E149.72445
G1 X120.394 Y99.837 E149.96295
G1 X120.041 Y102.478 E150.20533
G1 X120.394 Y105.163 E150.45160
G1 X121.419 Y107.623 E150.69398
G1 X123.046 Y109.734 E150.93637
G1 X125.127 Y111.331 E151.17487
G1 X127.587 Y112.356 E151.41725
G1 X132.641 Y113.027 E151.88093
G1 X134.997 Y115.713 E152.20591
G1 X134.997 Y143.466 E154.72991
G1 X132.216 Y146.247 E155.08756
G1 X114.034 Y146.247 E156.74118
G1 X111.253 Y143.466 E157.09883
G1 X111.253 Y136.787 E157.70629
G1 X111.203 Y136.666 E157.71816
G1 X106.834 Y132.297 E158.28013
G1 X106.713 Y132.247 E158.29201
G1 X93.287 Y132.247 E159.51306
G1 X93.166 Y132.297 E159.52493
G1 X88.797 Y136.666 E160.08690
G1 X88.747 Y136.787 E160.09878
G1 X88.747 Y143.466 E160.70623
G1 X85.966 Y146.247 E161.06388
G1 X67.784 Y146.247 E162.71750
G1 X65.003 Y143.466 E163.07515
G1 X65.003 Y115.713 E165.59916
G1 X67.359 Y113.027 E165.92413
G1 X72.413 Y112.356 E166.38781
G1 X74.873 Y111.331 E166.63019
G1 X76.954 Y109.734 E166.86870
G1 X78.602 Y107.586 E167.11496
G1 X79.617 Y105.122 E167.35734
G1 X79.959 Y102.522 E167.59585
G1 X79.617 Y99.878 E167.83823
G1 X78.602 Y97.414 E168.08062
G1 X76.954 Y95.266 E168.32688
G1 X74.873 Y93.669 E168.56538
G1 X72.413 Y92.644 E168.80777
G1 X67.359 Y91.973 E169.27145
G1 X65.003 Y89.287 E169.59642
G1 X65.003 Y61.534 E172.12043
G1 X67.784 Y58.753 E172.47807
G1 X79.001 Y58.753 E173.49822
G1 X79.686 Y59.378 F10200.000
G1 F1800
G1 X79.878 Y59.186 E173.52294
G1 X79.878 Y56.793 E173.74059
G1 X82.293 Y54.378 E174.05115
G1 X117.707 Y54.378 E177.27197
G1 X120.122 Y56.793 E177.58252
G1 X120.122 Y59.186 E177.80017
G1 X120.314 Y59.378 E177.82490
G1 X131.957 Y59.378 E178.88379
G1 X134.372 Y61.793 E179.19435
G1 X134.372 Y89.051 E181.67342
G1 X132.326 Y91.384 E181.95561
G1 X127.424 Y92.035 E182.40538
G1 X124.849 Y93.102 E182.65885
G1 X122.600 Y94.820 E182.91620
G1 X120.852 Y97.099 E183.17743
G1 X119.774 Y99.715 E183.43478
G1 X119.410 Y102.478 E183.68825
G1 X119.785 Y105.326 E183.94948
G1 X120.873 Y107.938 E184.20683
G1 X122.600 Y110.180 E184.46418
G1 X124.812 Y111.877 E184.71765
G1 X127.424 Y112.965 E184.97500
G1 X132.326 Y113.616 E185.42477
G1 X134.372 Y115.949 E185.70695
G1 X134.372 Y143.207 E188.18602
G1 X131.957 Y145.622 E188.49658
G1 X114.293 Y145.622 E190.10312
G1 X111.878 Y143.207 E190.41367
G1 X111.878 Y136.528 E191.02113
G1 X111.828 Y136.407 E191.03300
G1 X107.093 Y131.672 E191.64207
G1 X106.972 Y131.622 E191.65394
G1 X93.028 Y131.622 E192.92208
G1 X92.907 Y131.672 E192.93395
G1 X88.172 Y136.407 E193.54301
G1 X88.122 Y136.528 E193.55489
G1 X88.122 Y143.207 E194.16234
G1 X85.707 Y145.622 E194.47290
G1 X68.043 Y145.622 E196.07944
G1 X65.628 Y143.207 E196.38999
G1 X65.628 Y115.949 E198.86906
G1 X67.674 Y113.616 E199.15125
G1 X72.576 Y112.965 E199.60102
G1 X75.151 Y111.898 E199.85449
G1 X77.400 Y110.180 E200.11184
G1 X79.148 Y107.901 E200.37307
G1 X80.226 Y105.285 E200.63042
G1 X80.590 Y102.522 E200.88389
G1 X80.226 Y99.715 E201.14124
G1 X79.148 Y97.099 E201.39859
G1 X77.400 Y94.820 E201.65982
G1 X75.188 Y93.123 E201.91329
G1 X72.576 Y92.035 E202.17064
G1 X67.674 Y91.384 E202.62041
G1 X65.628 Y89.051 E202.90260
G1 X65.628 Y61.793 E205.38167
G1 X68.043 Y59.378 E205.69222
G1 X79.626 Y59.378 E206.74567
G1 X80.311 Y60.003 F10200.000
G1 F1800
G1 X80.503 Y59.811 E206.77039
G1 X80.503 Y57.052 E207.02133
G1 X82.552 Y55.003 E207.28480
G1 X117.448 Y55.003 E210.45853
G1 X119.497 Y57.052 E210.72200
G1 X119.497 Y59.811 E210.97295
G1 X119.689 Y60.003 E210.99767
G1 X131.698 Y60.003 E212.08987
G1 X133.747 Y62.052 E212.35334
G1 X133.747 Y88.816 E214.78747
G1 X132.011 Y90.795 E215.02687
G1 X127.261 Y91.426 E215.46273
G1 X124.534 Y92.556 E215.73116
G1 X122.155 Y94.374 E216.00348
G1 X120.306 Y96.784 E216.27968
G1 X119.176 Y99.511 E216.54811
G1 X118.780 Y102.478 E216.82043
G1 X119.176 Y105.489 E217.09662
G1 X120.327 Y108.254 E217.36894
G1 X122.155 Y110.626 E217.64126
G1 X124.496 Y112.423 E217.90969
G1 X127.261 Y113.574 E218.18201
G1 X132.011 Y114.205 E218.61787
G1 X133.747 Y116.184 E218.85727
G1 X133.747 Y142.948 E221.29140
