; generated by PrusaSlicer 2.6.0+win64 on 2023-07-07 at 23:42:14 UTC

; 

; external perimeters extrusion width = 0.42mm
; perimeters extrusion width = 0.44mm
; infill extrusion width = 0.44mm
; solid infill extrusion width = 0.44mm
; top infill extrusion width = 0.40mm
; first layer extrusion width = 0.42mm

M201 X500 Y500 Z100 E5000 ; sets maximum accelerations, mm/sec^2
M203 X500 Y500 Z10 E60 ; sets maximum feedrates, mm / sec
M204 S500 T1000 ; sets acceleration (S) and retract acceleration (R), mm/sec^2
M205 X8.00 Y8.00 Z0.40 E5.00 ; sets the jerk limits, mm/sec
M205 S0 T0 ; sets the minimum extruding and travel feed rate, mm/sec
;TYPE:Custom
G90 ; use absolute coordinates
M83 ; extruder relative mode
M104 S150 ; set temporary nozzle temp to prevent oozing during homing
M140 S100 ; set final bed temp
G4 S30 ; allow partial nozzle warmup
G28 ; home all axis
G29 ; auto-bed-level
G1 Z50 F240
G1 X2.0 Y10 F3000
M104 S240 ; set final nozzle temp
M190 S100 ; wait for bed temp to stabilize
M109 S240 ; wait for nozzle temp to stabilize
G1 Z0.28 F240
G92 E0
G1 X2.0 Y140 E10 F1500 ; prime the nozzle
G1 X2.3 Y140 F5000
G92 E0
G1 X2.3 Y10 E10 F1200 ; prime the nozzle
G92 E0
G21 ; set units to millimeters
G90 ; use absolute coordinates
M83 ; use relative distances for extrusion
; Filament gcode
M107
;LAYER_CHANGE
;Z:0.35
;HEIGHT:0.35
;BEFORE_LAYER_CHANGE
G92 E0
;0.35


G1 E-5 F3600
G1 Z.35 F10200
;AFTER_LAYER_CHANGE
;0.35
G1 X78.577 Y78.409
G1 E5 F2400
M204 S500
;TYPE:Skirt/Brim
;WIDTH:0.42
G1 F1200
G1 X79.526 Y77.493 E.06619
G1 X80.521 Y76.588 E.0675
G1 X81.794 Y75.507 E.08381
G1 X82.984 Y74.567 E.07611
G1 X84.109 Y73.736 E.07019
G1 X85.296 Y72.918 E.07235
G1 X86.699 Y72.022 E.08354
G1 X87.843 Y71.342 E.06679
G1 X89.067 Y70.666 E.07017
G1 X90.267 Y70.05 E.06769
G1 X91.489 Y69.469 E.06791
G1 X93.096 Y68.773 E.08789
G1 X94.327 Y68.291 E.06635
G1 X95.547 Y67.851 E.06509
G1 X97.189 Y67.323 E.08656
G1 X98.459 Y66.963 E.06625
G1 X99.755 Y66.636 E.06708
G1 X101.464 Y66.268 E.08773
G1 X102.766 Y66.035 E.06638
G1 X104.048 Y65.841 E.06507
G1 X105.762 Y65.644 E.08658
G1 X107.082 Y65.538 E.06646
G1 X108.422 Y65.47 E.06734
G1 X110.262 Y65.444 E.09235
G1 X111.52 Y65.468 E.06315
G1 X112.791 Y65.53 E.06386
G1 X114.519 Y65.672 E.08701
G1 X115.838 Y65.828 E.06666
G1 X117.123 Y66.015 E.06517
G1 X118.819 Y66.324 E.08652
G1 X120.108 Y66.604 E.0662
G1 X121.405 Y66.926 E.06707
G1 X123.058 Y67.398 E.08627
G1 X124.308 Y67.802 E.06593
G1 X125.572 Y68.252 E.06734
G1 X127.171 Y68.884 E.08629
G1 X128.391 Y69.415 E.06677
G1 X129.59 Y69.979 E.0665
G1 X131.119 Y70.765 E.08628
G1 X132.275 Y71.41 E.06643
G1 X133.418 Y72.092 E.0668
G1 X134.862 Y73.023 E.08622
G1 X135.946 Y73.776 E.06624
G1 X137.02 Y74.57 E.06703
G1 X138.361 Y75.634 E.08591
G1 X139.367 Y76.489 E.06626
G1 X140.363 Y77.389 E.06737
G1 X141.599 Y78.585 E.08632
G1 X142.518 Y79.538 E.06644
G1 X143.413 Y80.522 E.06675
G1 X144.523 Y81.83 E.08609
G1 X145.352 Y82.877 E.06702
G1 X146.163 Y83.969 E.06826
G1 X147.119 Y85.35 E.08429
G1 X147.839 Y86.472 E.06691
G1 X148.537 Y87.632 E.06794
G1 X149.353 Y89.102 E.08438
G1 X150.026 Y90.421 E.07431
G1 X150.636 Y91.72 E.07202
G1 X151.218 Y93.073 E.07392
G1 X151.699 Y94.296 E.06595
G1 X152.151 Y95.553 E.06704
G1 X152.675 Y97.182 E.08588
G1 X153.035 Y98.452 E.06625
G1 X153.364 Y99.754 E.0674
G1 X153.727 Y101.435 E.08631
G1 X153.963 Y102.746 E.06685
G1 X154.161 Y104.068 E.06709
G1 X154.355 Y105.755 E.08522
G1 X154.462 Y107.081 E.06676
G1 X154.53 Y108.418 E.06719
G1 X154.558 Y110.13 E.08593
G1 X154.534 Y111.448 E.06616
G1 X154.471 Y112.783 E.06707
G1 X154.331 Y114.495 E.08621
G1 X154.172 Y115.854 E.06867
G1 X153.968 Y117.224 E.06951
G1 X153.677 Y118.813 E.08107
G1 X153.362 Y120.255 E.07407
G1 X153.011 Y121.637 E.07156
G1 X152.609 Y123.035 E.073
G1 X152.147 Y124.457 E.07504
G1 X151.662 Y125.801 E.07171
G1 X151.12 Y127.162 E.07352
G1 X150.528 Y128.518 E.07425
G1 X149.917 Y129.799 E.07123
G1 X149.25 Y131.091 E.07297
G1 X148.517 Y132.402 E.07538
G1 X147.776 Y133.629 E.07194
G1 X146.981 Y134.855 E.07333
G1 X146.2 Y135.981 E.06877
G1 X145.367 Y137.104 E.07017
G1 X144.364 Y138.364 E.08082
G1 X143.511 Y139.367 E.06608
G1 X142.611 Y140.363 E.06737
G1 X141.416 Y141.599 E.08628
G1 X140.466 Y142.515 E.06623
G1 X139.478 Y143.413 E.067
G1 X138.173 Y144.521 E.08591
G1 X137.142 Y145.337 E.06599
G1 X136.061 Y146.142 E.06764
G1 X134.646 Y147.121 E.08635
G1 X133.53 Y147.838 E.06657
G1 X132.38 Y148.53 E.06736
G1 X130.896 Y149.354 E.08519
G1 X129.717 Y149.958 E.06648
G1 X128.509 Y150.532 E.06712
G1 X126.932 Y151.215 E.08625
G1 X125.704 Y151.698 E.06622
G1 X124.447 Y152.151 E.06706
G1 X122.811 Y152.677 E.08624
G1 X121.537 Y153.038 E.06645
G1 X120.246 Y153.364 E.06682
G1 X118.566 Y153.727 E.08626
G1 X117.263 Y153.962 E.06645
G1 X115.947 Y154.159 E.06678
G1 X114.245 Y154.355 E.08598
G1 X112.918 Y154.462 E.06681
G1 X111.582 Y154.53 E.06714
G1 X109.87 Y154.558 E.08593
G1 X108.562 Y154.535 E.06565
G1 X107.22 Y154.471 E.06743
G1 X105.563 Y154.336 E.08343
G1 X103.919 Y154.139 E.0831
G1 X102.601 Y153.939 E.0669
G1 X101.219 Y153.684 E.07053
G1 X99.746 Y153.362 E.07567
G1 X98.375 Y153.015 E.07097
G1 X97 Y152.619 E.07181
G1 X95.543 Y152.147 E.07686
G1 X94.194 Y151.66 E.07198
G1 X92.844 Y151.122 E.07293
G1 X91.482 Y150.528 E.07457
G1 X90.201 Y149.917 E.07123
G1 X88.914 Y149.253 E.07268
G1 X87.599 Y148.518 E.0756
G1 X86.382 Y147.783 E.07135
G1 X85.157 Y146.989 E.07326
G1 X83.932 Y146.137 E.07489
G1 X82.789 Y145.284 E.07158
G1 X81.652 Y144.377 E.07299
G1 X80.515 Y143.407 E.07501
G1 X79.459 Y142.444 E.07172
G1 X78.4 Y141.414 E.07414
G1 X77.468 Y140.447 E.0674
G1 X76.55 Y139.436 E.06853
G1 X75.488 Y138.184 E.08239
G1 X74.564 Y137.013 E.07486
G1 X73.714 Y135.859 E.07193
G1 X72.883 Y134.652 E.07354
G1 X72.087 Y133.41 E.07403
G1 X71.36 Y132.189 E.07132
G1 X70.651 Y130.906 E.07357
G1 X69.975 Y129.58 E.0747
G1 X69.365 Y128.281 E.07202
G1 X68.785 Y126.933 E.07365
G1 X68.301 Y125.704 E.06629
G1 X67.847 Y124.441 E.06736
G1 X67.324 Y122.813 E.08582
G1 X66.924 Y121.394 E.07399
G1 X66.579 Y120.002 E.07197
G1 X66.275 Y118.574 E.07327
G1 X66.051 Y117.342 E.06284
G1 X65.86 Y116.077 E.0642
G1 X65.646 Y114.256 E.09202
G1 X65.543 Y112.998 E.06335
G1 X65.477 Y111.721 E.06417
G1 X65.442 Y109.888 E.09201
G1 X65.463 Y108.627 E.06329
G1 X65.523 Y107.348 E.06426
G1 X65.668 Y105.514 E.09233
G1 X65.821 Y104.199 E.06644
G1 X66.016 Y102.872 E.06731
G1 X66.322 Y101.187 E.08595
G1 X66.605 Y99.887 E.06677
G1 X66.926 Y98.595 E.06681
G1 X67.396 Y96.949 E.08591
G1 X67.802 Y95.693 E.06624
G1 X68.252 Y94.428 E.06738
G1 X68.881 Y92.835 E.08595
G1 X69.383 Y91.678 E.0633
G1 X69.923 Y90.529 E.06371
G1 X70.756 Y88.897 E.09196
G1 X71.372 Y87.79 E.06358
G1 X72.024 Y86.695 E.06396
G1 X73.014 Y85.152 E.09201
G1 X73.73 Y84.118 E.06312
G1 X74.492 Y83.085 E.06442
G1 X75.628 Y81.646 E.09201
G1 X76.448 Y80.68 E.06359
G1 X77.301 Y79.734 E.06393
G1 X78.535 Y78.452 E.0893
G1 X78.784 Y78.691 F10200
G1 F1200
G1 X79.764 Y77.742 E.06846
G1 X80.751 Y76.845 E.06693
G1 X82.01 Y75.775 E.08292
G1 X83.191 Y74.843 E.0755
G1 X84.307 Y74.019 E.06962
G1 X85.484 Y73.207 E.07176
G1 X86.877 Y72.317 E.08296
G1 X88.012 Y71.642 E.06627
G1 X89.226 Y70.971 E.06961
G1 X90.417 Y70.36 E.06718
G1 X91.635 Y69.782 E.06766
G1 X93.224 Y69.093 E.08692
G1 X94.451 Y68.613 E.06612
G1 X95.661 Y68.177 E.06455
G1 X97.287 Y67.654 E.08572
G1 X98.551 Y67.295 E.06594
G1 X99.837 Y66.971 E.06656
G1 X101.527 Y66.607 E.08676
G1 X102.824 Y66.375 E.06612
G1 X104.096 Y66.183 E.06456
G1 X105.792 Y65.988 E.08568
G1 X107.102 Y65.882 E.06596
G1 X108.436 Y65.815 E.06703
G1 X110.258 Y65.789 E.09145
G1 X111.505 Y65.813 E.06259
G1 X112.772 Y65.874 E.06366
G1 X114.481 Y66.015 E.08606
G1 X115.795 Y66.17 E.0664
G1 X117.07 Y66.356 E.06466
G1 X118.749 Y66.661 E.08564
G1 X120.028 Y66.939 E.06569
G1 X121.319 Y67.26 E.06676
G1 X122.955 Y67.728 E.0854
G1 X124.195 Y68.128 E.06539
G1 X125.454 Y68.576 E.06707
G1 X127.036 Y69.201 E.08537
G1 X128.251 Y69.73 E.0665
G1 X129.44 Y70.29 E.06596
G1 X130.953 Y71.067 E.08536
G1 X132.101 Y71.707 E.06596
G1 X133.239 Y72.387 E.06653
G1 X134.668 Y73.308 E.08532
G1 X135.743 Y74.055 E.0657
G1 X136.813 Y74.845 E.06675
G1 X138.14 Y75.898 E.08502
G1 X139.141 Y76.75 E.06597
G1 X140.129 Y77.643 E.06684
G1 X141.352 Y78.826 E.08539
G1 X142.265 Y79.772 E.06598
G1 X143.156 Y80.752 E.06647
G1 X144.254 Y82.046 E.08517
G1 X145.079 Y83.089 E.06674
G1 X145.885 Y84.172 E.06775
G1 X146.83 Y85.539 E.0834
G1 X147.545 Y86.652 E.06639
G1 X148.24 Y87.807 E.06765
G1 X149.047 Y89.261 E.08346
G1 X149.715 Y90.57 E.07375
G1 X150.322 Y91.864 E.07173
G1 X150.898 Y93.202 E.07311
G1 X151.377 Y94.42 E.06568
G1 X151.825 Y95.667 E.0665
G1 X152.344 Y97.28 E.08504
G1 X152.703 Y98.544 E.06594
G1 X153.029 Y99.835 E.06682
G1 X153.388 Y101.499 E.08543
G1 X153.623 Y102.799 E.0663
G1 X153.82 Y104.116 E.06683
G1 X154.012 Y105.786 E.08436
G1 X154.118 Y107.101 E.06621
G1 X154.185 Y108.432 E.06688
G1 X154.213 Y110.126 E.08503
G1 X154.189 Y111.439 E.06591
G1 X154.127 Y112.763 E.06652
G1 X153.988 Y114.458 E.08535
G1 X153.83 Y115.806 E.06811
G1 X153.628 Y117.171 E.06925
G1 X153.34 Y118.742 E.08016
G1 X153.027 Y120.173 E.07351
G1 X152.679 Y121.544 E.07099
G1 X152.28 Y122.931 E.07243
G1 X151.822 Y124.343 E.0745
G1 X151.341 Y125.676 E.07112
G1 X150.803 Y127.026 E.07293
G1 X150.215 Y128.372 E.07371
G1 X149.609 Y129.643 E.07067
G1 X148.947 Y130.926 E.07245
G1 X148.22 Y132.226 E.07475
G1 X147.485 Y133.444 E.07139
G1 X146.697 Y134.66 E.07272
G1 X145.918 Y135.782 E.06855
G1 X145.091 Y136.896 E.06963
G1 X144.099 Y138.143 E.07997
G1 X143.25 Y139.142 E.0658
G1 X142.357 Y140.13 E.06684
G1 X141.174 Y141.352 E.08536
G1 X140.232 Y142.261 E.0657
G1 X139.248 Y143.156 E.06675
G1 X137.956 Y144.252 E.08503
G1 X136.93 Y145.065 E.0657
G1 X135.857 Y145.863 E.06711
G1 X134.457 Y146.832 E.08545
G1 X133.346 Y147.547 E.06631
G1 X132.205 Y148.233 E.06681
G1 X130.736 Y149.049 E.08433
G1 X129.562 Y149.65 E.06619
G1 X128.364 Y150.219 E.06656
G1 X126.803 Y150.896 E.08539
G1 X125.581 Y151.377 E.06591
G1 X124.333 Y151.825 E.06655
G1 X122.714 Y152.346 E.08535
G1 X121.45 Y152.705 E.06594
G1 X120.164 Y153.029 E.06656
G1 X118.502 Y153.388 E.08533
G1 X117.204 Y153.622 E.06619
G1 X115.898 Y153.818 E.06628
G1 X114.215 Y154.012 E.08502
G1 X112.898 Y154.118 E.06631
G1 X111.568 Y154.185 E.06683
G1 X109.874 Y154.213 E.08503
G1 X108.571 Y154.19 E.0654
G1 X107.239 Y154.127 E.06692
G1 X105.601 Y153.993 E.08248
G1 X103.968 Y153.798 E.08254
G1 X102.661 Y153.599 E.06635
G1 X101.29 Y153.346 E.06997
G1 X99.827 Y153.027 E.07515
G1 X98.468 Y152.682 E.07037
G1 X97.103 Y152.29 E.07127
G1 X95.658 Y151.822 E.07623
G1 X94.319 Y151.339 E.07144
G1 X92.979 Y150.805 E.07239
G1 X91.628 Y150.215 E.07398
G1 X90.356 Y149.609 E.07071
G1 X89.075 Y148.947 E.07237
G1 X87.775 Y148.221 E.07473
G1 X86.562 Y147.489 E.0711
G1 X85.351 Y146.705 E.0724
G1 X84.136 Y145.858 E.07433
G1 X83.002 Y145.013 E.07097
G1 X81.869 Y144.109 E.07274
G1 X80.745 Y143.15 E.07415
G1 X79.697 Y142.195 E.07116
G1 X78.646 Y141.173 E.07357
G1 X77.721 Y140.214 E.06687
G1 X76.807 Y139.206 E.06829
G1 X75.757 Y137.967 E.08151
G1 X74.84 Y136.806 E.07425
G1 X73.996 Y135.661 E.07139
G1 X73.172 Y134.463 E.07297
G1 X72.382 Y133.231 E.07345
G1 X71.661 Y132.02 E.07073
G1 X70.957 Y130.747 E.07301
G1 X70.286 Y129.431 E.07413
G1 X69.681 Y128.142 E.07146
G1 X69.105 Y126.805 E.07306
G1 X68.625 Y125.585 E.0658
G1 X68.173 Y124.327 E.06709
G1 X67.655 Y122.717 E.08488
G1 X67.258 Y121.308 E.07347
G1 X66.916 Y119.928 E.07135
G1 X66.614 Y118.51 E.07276
G1 X66.391 Y117.283 E.06259
G1 X66.201 Y116.028 E.0637
G1 X65.989 Y114.225 E.09111
G1 X65.887 Y112.973 E.06304
G1 X65.821 Y111.706 E.06367
G1 X65.787 Y109.891 E.0911
G1 X65.808 Y108.635 E.06304
G1 X65.867 Y107.367 E.0637
G1 X66.011 Y105.551 E.09142
G1 X66.163 Y104.247 E.06589
G1 X66.357 Y102.925 E.06706
G1 X66.66 Y101.258 E.08503
G1 X66.94 Y99.968 E.06625
G1 X67.26 Y98.681 E.06656
G1 X67.725 Y97.052 E.08502
G1 X68.127 Y95.806 E.06571
G1 X68.576 Y94.547 E.06708
G1 X69.198 Y92.97 E.08508
G1 X69.699 Y91.818 E.06304
G1 X70.234 Y90.679 E.06315
G1 X71.059 Y89.062 E.0911
G1 X71.67 Y87.965 E.06302
G1 X72.319 Y86.874 E.06371
G1 X73.299 Y85.345 E.09114
G1 X74.012 Y84.317 E.06279
G1 X74.768 Y83.292 E.06392
G1 X75.892 Y81.867 E.09108
G1 X76.706 Y80.909 E.06309
G1 X77.555 Y79.967 E.06364
G1 X78.742 Y78.734 E.08589
G1 X78.99 Y78.973 F10200
G1 F1200
G1 X80.001 Y77.992 E.0707
G1 X80.98 Y77.102 E.0664
G1 X82.226 Y76.044 E.08203
G1 X83.398 Y75.118 E.07496
G1 X84.505 Y74.301 E.06905
G1 X85.672 Y73.496 E.07115
G1 X87.056 Y72.612 E.08242
G1 X88.181 Y71.943 E.06569
G1 X89.386 Y71.277 E.0691
G1 X90.568 Y70.671 E.06666
G1 X91.78 Y70.095 E.06734
G1 X93.353 Y69.413 E.08604
G1 X94.574 Y68.935 E.06581
G1 X95.776 Y68.502 E.06412
G1 X97.384 Y67.985 E.08477
G1 X98.642 Y67.628 E.06563
G1 X99.918 Y67.306 E.06604
G1 X101.591 Y66.946 E.08588
G1 X102.882 Y66.715 E.06582
G1 X104.145 Y66.524 E.06411
G1 X105.823 Y66.331 E.08477
G1 X107.127 Y66.226 E.06565
G1 X108.45 Y66.159 E.06648
G1 X110.254 Y66.134 E.09054
G1 X111.496 Y66.158 E.06234
G1 X112.752 Y66.218 E.06311
G1 X114.444 Y66.358 E.0852
G1 X115.752 Y66.513 E.0661
G1 X117.017 Y66.697 E.06415
G1 X118.679 Y66.999 E.08477
G1 X119.947 Y67.275 E.06513
G1 X121.233 Y67.594 E.0665
G1 X122.852 Y68.057 E.08451
G1 X124.086 Y68.455 E.06507
G1 X125.335 Y68.9 E.06654
G1 X126.901 Y69.519 E.08451
G1 X128.106 Y70.043 E.06594
G1 X129.291 Y70.601 E.06573
G1 X130.788 Y71.37 E.08446
G1 X131.931 Y72.007 E.06567
G1 X133.059 Y72.681 E.06595
G1 X134.474 Y73.593 E.08448
G1 X135.54 Y74.333 E.06512
G1 X136.606 Y75.121 E.06653
G1 X137.919 Y76.163 E.08412
G1 X138.912 Y77.008 E.06544
G1 X139.896 Y77.896 E.06652
G1 X141.106 Y79.068 E.08454
G1 X142.015 Y80.009 E.06566
G1 X142.899 Y80.982 E.06597
G1 X143.986 Y82.262 E.08428
G1 X144.807 Y83.301 E.06646
G1 X145.606 Y84.375 E.06718
G1 X146.541 Y85.728 E.08254
G1 X147.253 Y86.836 E.0661
G1 X147.943 Y87.983 E.06718
G1 X148.741 Y89.421 E.08253
G1 X149.404 Y90.719 E.07315
G1 X150.006 Y92.003 E.07117
G1 X150.578 Y93.331 E.07257
G1 X151.053 Y94.539 E.06514
G1 X151.5 Y95.781 E.06624
G1 X152.013 Y97.377 E.08413
G1 X152.37 Y98.636 E.06568
G1 X152.694 Y99.917 E.06631
G1 X153.049 Y101.563 E.08451
G1 X153.283 Y102.858 E.06604
G1 X153.478 Y104.165 E.06632
G1 X153.668 Y105.816 E.0834
G1 X153.773 Y107.121 E.0657
G1 X153.841 Y108.447 E.06663
G1 X153.868 Y110.123 E.08412
G1 X153.845 Y111.431 E.06565
G1 X153.782 Y112.744 E.06597
G1 X153.645 Y114.421 E.08444
G1 X153.488 Y115.758 E.06756
G1 X153.287 Y117.117 E.06894
G1 X153.002 Y118.671 E.07929
G1 X152.692 Y120.091 E.07294
G1 X152.347 Y121.451 E.07041
G1 X151.949 Y122.833 E.07218
G1 X151.497 Y124.228 E.07359
G1 X151.019 Y125.551 E.0706
G1 X150.486 Y126.891 E.07237
G1 X149.902 Y128.226 E.07313
G1 X149.302 Y129.488 E.07013
G1 X148.645 Y130.76 E.07185
G1 X147.923 Y132.05 E.07419
G1 X147.195 Y133.259 E.07083
G1 X146.412 Y134.466 E.0722
G1 X145.636 Y135.583 E.06826
G1 X144.816 Y136.688 E.06906
G1 X143.835 Y137.922 E.07911
G1 X142.989 Y138.916 E.06551
G1 X142.103 Y139.896 E.0663
G1 X140.932 Y141.106 E.08451
G1 X139.998 Y142.008 E.06516
G1 X139.018 Y142.899 E.06647
G1 X137.74 Y143.984 E.08413
G1 X136.718 Y144.793 E.06541
G1 X135.654 Y145.585 E.06657
G1 X134.268 Y146.544 E.08458
G1 X133.162 Y147.255 E.06599
G1 X132.029 Y147.936 E.06634
G1 X130.576 Y148.743 E.08341
G1 X129.411 Y149.34 E.0657
G1 X128.218 Y149.906 E.06627
G1 X126.674 Y150.576 E.08447
G1 X125.461 Y151.053 E.06541
G1 X124.219 Y151.5 E.06624
G1 X122.617 Y152.015 E.08445
G1 X121.363 Y152.371 E.06542
G1 X120.083 Y152.694 E.06625
G1 X118.438 Y153.049 E.08446
G1 X117.15 Y153.281 E.06568
G1 X115.85 Y153.476 E.06597
G1 X114.184 Y153.668 E.08416
G1 X112.878 Y153.773 E.06575
G1 X111.553 Y153.841 E.06658
G1 X109.877 Y153.868 E.08412
G1 X108.579 Y153.845 E.06515
G1 X107.258 Y153.782 E.06637
G1 X105.638 Y153.651 E.08157
G1 X104.017 Y153.457 E.08193
G1 X102.721 Y153.26 E.06579
G1 X101.361 Y153.009 E.06941
G1 X99.909 Y152.692 E.07459
G1 X98.56 Y152.35 E.06984
G1 X97.201 Y151.959 E.07097
G1 X95.772 Y151.497 E.07537
G1 X94.444 Y151.017 E.07087
G1 X93.115 Y150.488 E.07179
