; generated by PrusaSlicer 2.6.0+win64 on 2023-07-07 at 21:36:14 UTC

; 

; external perimeters extrusion width = 0.42mm
; perimeters extrusion width = 0.44mm
; infill extrusion width = 0.44mm
; solid infill extrusion width = 0.44mm
; top infill extrusion width = 0.40mm
; support material extrusion width = 0.36mm
; first layer extrusion width = 0.42mm

M201 X500 Y500 Z100 E5000 ; sets maximum accelerations, mm/sec^2
M203 X500 Y500 Z10 E60 ; sets maximum feedrates, mm / sec
M204 S500 T1000 ; sets acceleration (S) and retract acceleration (R), mm/sec^2
M205 X8.00 Y8.00 Z0.40 E5.00 ; sets the jerk limits, mm/sec
M205 S0 T0 ; sets the minimum extruding and travel feed rate, mm/sec
;TYPE:Custom
G90 ; use absolute coordinates
M83 ; extruder relative mode
M104 S150 ; set temporary nozzle temp to prevent oozing during homing
M140 S100 ; set final bed temp
G4 S30 ; allow partial nozzle warmup
G28 ; home all axis
G29 ; auto-bed-level
G1 Z50 F240
G1 X2.0 Y10 F3000
M104 S240 ; set final nozzle temp
M190 S100 ; wait for bed temp to stabilize
M109 S240 ; wait for nozzle temp to stabilize
G1 Z0.28 F240
G92 E0
G1 X2.0 Y140 E10 F1500 ; prime the nozzle
G1 X2.3 Y140 F5000
G92 E0
G1 X2.3 Y10 E10 F1200 ; prime the nozzle
G92 E0
G21 ; set units to millimeters
G90 ; use absolute coordinates
M83 ; use relative distances for extrusion
; Filament gcode
M107
;LAYER_CHANGE
;Z:0.35
;HEIGHT:0.35
;BEFORE_LAYER_CHANGE
G92 E0
;0.35


G1 E-5 F3600
G1 Z.35 F10200
;AFTER_LAYER_CHANGE
;0.35
G1 X74.387 Y91.281
G1 E5 F2400
M204 S500
;TYPE:Skirt/Brim
;WIDTH:0.42
G1 F1200
G1 X77.503 Y89.511 E.17985
G1 X82.187 Y88.442 E.24112
G1 X137.794 Y88.446 E2.79069
G1 X140.723 Y88.919 E.1489
G1 X143.541 Y89.974 E.15101
G1 X147.115 Y92.557 E.2213
G1 X150.216 Y96.901 E.26786
G1 X151.563 Y102.035 E.26638
G1 X151.269 Y119.997 E.90156
G1 X150.105 Y123.335 E.17741
G1 X148.155 Y126.319 E.1789
G1 X145.554 Y128.763 E.17912
G1 X142.485 Y130.495 E.17686
G1 X137.813 Y131.558 E.24046
G1 X81.947 Y131.546 E2.80369
G1 X78.056 Y130.698 E.19986
G1 X74.528 Y128.814 E.20072
G1 X71.607 Y126.038 E.20223
G1 X69.559 Y122.607 E.20053
G1 X68.438 Y117.758 E.24977
G1 X68.706 Y100.133 E.88463
G1 X69.854 Y96.752 E.17919
G1 X71.781 Y93.758 E.17869
G1 X74.344 Y91.322 E.17746
G1 X74.581 Y91.572 F10200
G1 F1200
G1 X77.651 Y89.823 E.17732
G1 X82.206 Y88.787 E.23443
G1 X137.78 Y88.79 E2.78903
G1 X140.651 Y89.256 E.14597
G1 X143.398 Y90.289 E.14729
G1 X146.89 Y92.82 E.21644
G1 X149.89 Y97.019 E.25899
G1 X151.218 Y102.053 E.26128
G1 X150.935 Y119.91 E.89628
G1 X149.804 Y123.164 E.17289
G1 X147.903 Y126.083 E.17482
G1 X145.366 Y128.473 E.17492
G1 X142.337 Y130.182 E.17454
G1 X137.793 Y131.213 E.23384
G1 X82.002 Y131.205 E2.79992
G1 X78.196 Y130.382 E.19542
G1 X74.748 Y128.548 E.196
G1 X71.891 Y125.84 E.19755
G1 X69.869 Y122.453 E.19797
G1 X68.783 Y117.742 E.24263
G1 X69.042 Y100.218 E.87955
G1 X70.155 Y96.921 E.17464
G1 X72.06 Y93.962 E.17661
G1 X74.537 Y91.614 E.17128
G1 X74.771 Y91.86 F10200
G1 F1200
G1 X77.799 Y90.136 E.17487
G1 X82.226 Y89.132 E.22781
G1 X137.766 Y89.135 E2.78733
G1 X140.578 Y89.594 E.14299
G1 X143.254 Y90.603 E.14353
G1 X146.665 Y93.083 E.21165
G1 X149.591 Y97.194 E.25324
G1 X150.873 Y102.071 E.25307
G1 X150.6 Y119.823 E.89101
G1 X149.485 Y123.031 E.17044
G1 X147.626 Y125.877 E.1706
G1 X145.145 Y128.207 E.17081
G1 X142.19 Y129.869 E.17015
G1 X137.774 Y130.868 E.22722
G1 X82.057 Y130.864 E2.79621
G1 X78.293 Y130.05 E.19327
G1 X74.932 Y128.255 E.19122
G1 X72.146 Y125.607 E.1929
G1 X70.179 Y122.3 E.1931
G1 X69.129 Y117.726 E.23552
G1 X69.377 Y100.302 E.87453
G1 X70.457 Y97.089 E.17011
G1 X72.312 Y94.197 E.17243
G1 X74.728 Y91.901 E.16727
G1 X74.965 Y92.152 F10200
G1 F1200
G1 X75.019 Y92.1 E.00376
G1 X77.946 Y90.449 E.16865
G1 X82.245 Y89.477 E.2212
G1 X137.752 Y89.48 E2.78567
G1 X140.505 Y89.931 E.14
G1 X143.11 Y90.917 E.13979
G1 X146.439 Y93.345 E.20678
G1 X149.266 Y97.312 E.24447
G1 X150.527 Y102.09 E.248
G1 X150.265 Y119.737 E.88573
G1 X149.185 Y122.861 E.16589
G1 X147.374 Y125.64 E.16647
G1 X144.958 Y127.917 E.16661
G1 X142.043 Y129.556 E.16783
G1 X137.755 Y130.523 E.2206
G1 X82.111 Y130.523 E2.79254
G1 X78.434 Y129.734 E.18873
G1 X75.115 Y127.962 E.18882
G1 X72.401 Y125.374 E.1882
G1 X70.49 Y122.148 E.18817
G1 X69.474 Y117.711 E.22844
G1 X69.713 Y100.386 E.86955
G1 X70.777 Y97.219 E.16767
G1 X72.591 Y94.402 E.16815
G1 X74.922 Y92.193 E.16117
G1 X75.159 Y92.443 F10200
G1 F1200
G1 X75.241 Y92.365 E.00568
G1 X78.093 Y90.762 E.16419
G1 X82.264 Y89.822 E.21458
G1 X137.738 Y89.825 E2.78401
G1 X140.432 Y90.269 E.13702
G1 X142.966 Y91.231 E.13603
G1 X146.213 Y93.607 E.20192
G1 X148.967 Y97.486 E.23875
G1 X150.182 Y102.108 E.23984
G1 X149.93 Y119.65 E.88045
G1 X148.866 Y122.728 E.16344
G1 X147.097 Y125.434 E.16225
G1 X144.737 Y127.651 E.1625
G1 X141.897 Y129.243 E.16339
G1 X137.736 Y130.178 E.21403
G1 X82.129 Y130.178 E2.79069
G1 X78.575 Y129.419 E.18238
G1 X75.335 Y127.695 E.18419
G1 X72.686 Y125.177 E.18342
G1 X70.8 Y121.995 E.18563
G1 X69.819 Y117.695 E.22134
G1 X70.048 Y100.47 E.86453
G1 X71.079 Y97.387 E.16315
G1 X72.843 Y94.638 E.16392
G1 X75.115 Y92.484 E.15712
G1 X75.352 Y92.735 F10200
G1 F1200
G1 X75.462 Y92.631 E.0076
G1 X78.24 Y91.075 E.1598
G1 X82.283 Y90.167 E.20796
G1 X137.724 Y90.17 E2.78236
G1 X140.326 Y90.597 E.13233
G1 X142.821 Y91.546 E.13397
G1 X145.986 Y93.868 E.197
G1 X148.667 Y97.66 E.23306
G1 X149.837 Y102.127 E.23174
G1 X149.595 Y119.564 E.87518
G1 X148.565 Y122.558 E.1589
G1 X146.846 Y125.197 E.15806
G1 X144.517 Y127.385 E.16037
G1 X141.75 Y128.929 E.15902
G1 X137.717 Y129.833 E.20742
G1 X82.148 Y129.833 E2.78878
G1 X78.671 Y129.086 E.17848
G1 X75.519 Y127.402 E.17935
G1 X72.941 Y124.944 E.17876
G1 X71.111 Y121.843 E.1807
G1 X70.164 Y117.679 E.21431
G1 X70.384 Y100.554 E.8595
G1 X71.399 Y97.517 E.1607
G1 X73.122 Y94.842 E.15969
G1 X75.308 Y92.776 E.15095
G1 X75.542 Y93.023 F10200
G1 F1200
G1 X75.649 Y92.921 E.00742
G1 X78.387 Y91.388 E.15748
G1 X82.302 Y90.512 E.20134
G1 X137.709 Y90.515 E2.78065
G1 X140.252 Y90.935 E.12935
G1 X142.676 Y91.859 E.13019
G1 X145.759 Y94.129 E.19214
G1 X148.341 Y97.778 E.22434
G1 X149.492 Y102.146 E.22669
G1 X149.26 Y119.479 E.86995
G1 X148.264 Y122.387 E.15426
G1 X146.568 Y124.991 E.15596
G1 X144.296 Y127.118 E.15619
G1 X141.605 Y128.616 E.15457
G1 X137.698 Y129.488 E.2009
G1 X82.166 Y129.488 E2.78692
G1 X78.768 Y128.755 E.17445
G1 X75.703 Y127.11 E.17457
G1 X73.197 Y124.712 E.17407
G1 X71.422 Y121.691 E.17584
G1 X70.509 Y117.663 E.20728
G1 X70.72 Y100.637 E.85453
G1 X71.701 Y97.685 E.15612
G1 X73.374 Y95.078 E.15546
G1 X75.499 Y93.064 E.14693
G1 X75.735 Y93.315 F10200
G1 F1200
G1 X75.87 Y93.187 E.00934
G1 X78.533 Y91.701 E.15304
G1 X82.321 Y90.856 E.19478
G1 X137.695 Y90.86 E2.77899
G1 X140.179 Y91.272 E.12636
G1 X142.531 Y92.173 E.1264
G1 X145.532 Y94.39 E.18725
G1 X148.042 Y97.951 E.21864
G1 X149.147 Y102.165 E.21863
G1 X148.924 Y119.393 E.86468
G1 X147.963 Y122.218 E.14975
G1 X146.317 Y124.754 E.15173
G1 X144.11 Y126.827 E.15196
G1 X141.459 Y128.302 E.15225
G1 X137.679 Y129.144 E.19435
G1 X82.185 Y129.144 E2.78502
G1 X78.865 Y128.423 E.1705
G1 X75.887 Y126.817 E.1698
G1 X73.453 Y124.48 E.16934
G1 X71.733 Y121.54 E.17094
G1 X70.854 Y117.647 E.20029
G1 X71.056 Y100.72 E.84956
G1 X72.003 Y97.853 E.15153
G1 X73.653 Y95.282 E.15331
G1 X75.692 Y93.356 E.14076
G1 X75.928 Y93.607 F10200
G1 F1200
G1 X76.091 Y93.453 E.01125
G1 X78.678 Y92.015 E.14854
G1 X82.339 Y91.201 E.18822
G1 X137.681 Y91.205 E2.77739
G1 X140.104 Y91.609 E.12328
G1 X142.385 Y92.486 E.12264
G1 X145.304 Y94.65 E.18236
G1 X147.716 Y98.069 E.20999
G1 X148.802 Y102.184 E.21359
G1 X148.589 Y119.308 E.85945
G1 X147.644 Y122.086 E.14726
G1 X146.039 Y124.548 E.14749
G1 X143.89 Y126.561 E.14777
G1 X141.314 Y127.989 E.14781
G1 X137.661 Y128.799 E.18778
G1 X82.203 Y128.799 E2.78321
G1 X79.006 Y128.107 E.16416
G1 X76.109 Y126.552 E.16501
G1 X73.71 Y124.248 E.16693
G1 X72.044 Y121.39 E.16602
G1 X71.199 Y117.63 E.19341
G1 X71.391 Y100.803 E.84453
G1 X72.324 Y97.982 E.14912
G1 X73.932 Y95.486 E.14901
G1 X75.884 Y93.648 E.13456
G1 X76.118 Y93.895 F10200
G1 F1200
G1 X76.278 Y93.744 E.01104
G1 X78.824 Y92.329 E.14618
G1 X82.358 Y91.546 E.18166
G1 X137.667 Y91.55 E2.77573
G1 X139.997 Y91.938 E.11854
G1 X142.239 Y92.8 E.12055
G1 X145.076 Y94.91 E.17744
G1 X147.416 Y98.242 E.20434
G1 X148.456 Y102.203 E.20552
G1 X148.254 Y119.224 E.85427
G1 X147.343 Y121.917 E.14267
G1 X145.788 Y124.311 E.14327
G1 X143.704 Y126.27 E.14354
G1 X141.168 Y127.675 E.1455
G1 X137.642 Y128.454 E.18122
G1 X82.222 Y128.454 E2.7813
G1 X79.103 Y127.776 E.16019
G1 X76.294 Y126.26 E.16019
G1 X73.966 Y124.017 E.16224
G1 X72.356 Y121.24 E.16109
G1 X71.544 Y117.614 E.18648
G1 X71.727 Y100.885 E.83961
G1 X72.626 Y98.149 E.14453
G1 X74.184 Y95.723 E.1447
G1 X76.074 Y93.936 E.13054
G1 X76.311 Y94.187 F10200
G1 F1200
G1 X76.499 Y94.009 E.01299
G1 X78.969 Y92.642 E.14168
G1 X82.377 Y91.891 E.17514
G1 X137.652 Y91.894 E2.77403
G1 X139.922 Y92.275 E.11552
G1 X142.093 Y93.113 E.11679
G1 X144.847 Y95.17 E.17251
G1 X147.116 Y98.414 E.19867
G1 X148.111 Y102.222 E.19752
G1 X147.918 Y119.139 E.84905
G1 X147.023 Y121.785 E.14018
G1 X145.51 Y124.105 E.139
G1 X143.484 Y126.003 E.13932
G1 X141.024 Y127.361 E.14102
G1 X137.623 Y128.109 E.17476
G1 X82.24 Y128.109 E2.77945
G1 X79.201 Y127.444 E.15612
G1 X76.479 Y125.968 E.1554
G1 X74.224 Y123.786 E.15748
G1 X72.668 Y121.09 E.15622
G1 X71.889 Y117.598 E.17956
G1 X72.063 Y100.967 E.83469
G1 X72.929 Y98.317 E.13991
G1 X74.436 Y95.959 E.14044
G1 X76.267 Y94.228 E.12645
G1 X76.503 Y94.479 F10200
G1 F1200
G1 X76.719 Y94.276 E.01488
G1 X79.113 Y92.957 E.13717
G1 X82.395 Y92.236 E.16864
G1 X137.638 Y92.239 E2.77242
G1 X139.848 Y92.612 E.11248
G1 X141.946 Y93.426 E.11294
G1 X144.618 Y95.429 E.16759
G1 X146.79 Y98.531 E.19004
G1 X147.766 Y102.242 E.19257
G1 X147.583 Y119.055 E.84383
G1 X146.722 Y121.616 E.1356
G1 X145.259 Y123.868 E.13477
G1 X143.264 Y125.737 E.13719
G1 X140.88 Y127.046 E.13649
G1 X137.605 Y127.764 E.16826
G1 X82.259 Y127.764 E2.77759
G1 X79.344 Y127.129 E.14972
G1 X76.664 Y125.676 E.15299
G1 X74.482 Y123.556 E.15268
G1 X72.98 Y120.942 E.1513
G1 X72.234 Y117.582 E.17273
G1 X72.399 Y101.049 E.82977
G1 X73.249 Y98.445 E.13747
G1 X74.715 Y96.163 E.13612
G1 X76.46 Y94.52 E.12028
G1 X76.695 Y94.771 F10200
G1 F1200
G1 X76.939 Y94.542 E.01679
G1 X79.257 Y93.271 E.13267
G1 X82.414 Y92.581 E.16218
G1 X137.623 Y92.584 E2.77071
G1 X139.772 Y92.949 E.10939
G1 X141.798 Y93.738 E.10911
G1 X144.389 Y95.688 E.16274
G1 X146.49 Y98.703 E.18443
G1 X147.421 Y102.261 E.18457
G1 X147.247 Y118.971 E.83865
G1 X146.421 Y121.447 E.13099
G1 X144.982 Y123.662 E.13256
G1 X143.045 Y125.47 E.13298
G1 X140.736 Y126.732 E.13206
G1 X137.586 Y127.419 E.1618
G1 X82.277 Y127.419 E2.77573
G1 X79.442 Y126.798 E.14565
G1 X76.85 Y125.385 E.14816
G1 X74.74 Y123.326 E.14796
G1 X73.293 Y120.793 E.1464
G1 X72.579 Y117.566 E.16587
G1 X72.736 Y101.13 E.82489
G1 X73.552 Y98.612 E.13284
G1 X74.994 Y96.367 E.13391
G1 X76.651 Y94.812 E.11404
G1 X76.885 Y95.059 F10200
G1 F1200
G1 X77.124 Y94.834 E.01647
G1 X79.401 Y93.585 E.13034
G1 X82.432 Y92.926 E.15567
G1 X137.609 Y92.929 E2.76911
G1 X139.664 Y93.277 E.1046
G1 X141.651 Y94.051 E.10702
G1 X144.159 Y95.947 E.15779
G1 X146.164 Y98.821 E.17586
G1 X147.076 Y102.281 E.17957
G1 X146.911 Y118.888 E.83348
G1 X146.1 Y121.316 E.12847
G1 X144.704 Y123.456 E.12823
G1 X142.826 Y125.202 E.12869
G1 X140.593 Y126.417 E.12758
G1 X137.568 Y127.074 E.15535
G1 X82.296 Y127.074 E2.77388
G1 X79.541 Y126.466 E.14159
G1 X77.037 Y125.094 E.14329
G1 X74.999 Y123.097 E.1432
G1 X73.605 Y120.646 E.14151
G1 X72.925 Y117.549 E.15913
G1 X73.072 Y101.211 E.81997
G1 X73.854 Y98.779 E.12821
G1 X75.246 Y96.604 E.1296
G1 X76.841 Y95.1 E.11002
G1 X77.078 Y95.351 F10200
G1 F1200
G1 X77.344 Y95.1 E.01835
G1 X79.544 Y93.9 E.12577
G1 X82.45 Y93.271 E.14922
G1 X137.594 Y93.274 E2.76745
G1 X139.588 Y93.614 E.10152
G1 X141.503 Y94.363 E.1032
G1 X143.929 Y96.205 E.15287
G1 X145.863 Y98.992 E.17025
G1 X146.731 Y102.3 E.17164
G1 X146.575 Y118.805 E.82836
G1 X145.799 Y121.147 E.12382
G1 X144.453 Y123.218 E.12396
G1 X142.642 Y124.91 E.12438
G1 X140.45 Y126.102 E.12522
G1 X137.55 Y126.729 E.1489
G1 X82.315 Y126.729 E2.77202
G1 X79.64 Y126.135 E.13752
G1 X77.225 Y124.804 E.13839
G1 X75.258 Y122.868 E.13851
G1 X73.918 Y120.499 E.13659
G1 X73.27 Y117.533 E.15236
G1 X73.408 Y101.291 E.81515
G1 X74.158 Y98.945 E.12361
G1 X75.498 Y96.84 E.12523
G1 X77.034 Y95.393 E.1059
G1 X77.269 Y95.643 F10200
G1 F1200
G1 X77.564 Y95.367 E.02027
G1 X79.687 Y94.215 E.12122
G1 X82.469 Y93.616 E.14282
G1 X137.579 Y93.619 E2.76575
G1 X139.512 Y93.95 E.09842
G1 X141.354 Y94.675 E.09935
G1 X143.698 Y96.462 E.14792
G1 X145.562 Y99.163 E.1647
G1 X146.386 Y102.32 E.16374
G1 X146.239 Y118.723 E.82323
G1 X145.497 Y120.979 E.11919
G1 X144.202 Y122.981 E.11966
G1 X142.423 Y124.642 E.12215
G1 X140.308 Y125.787 E.1207
G1 X137.532 Y126.384 E.1425
G1 X82.334 Y126.384 E2.77016
G1 X79.784 Y125.821 E.13106
G1 X77.449 Y124.541 E.13364
G1 X75.546 Y122.677 E.13369
G1 X74.231 Y120.352 E.13405
G1 X73.615 Y117.517 E.1456
G1 X73.745 Y101.371 E.81033
G1 X74.479 Y99.072 E.12112
G1 X75.777 Y97.044 E.12084
G1 X77.226 Y95.684 E.09973
G1 X77.459 Y95.932 F10200
G1 F1200
G1 X77.748 Y95.659 E.01995
G1 X79.83 Y94.53 E.11886
G1 X82.487 Y93.96 E.13638
G1 X137.564 Y93.964 E2.76409
G1 X139.436 Y94.287 E.09534
G1 X141.204 Y94.987 E.09543
G1 X143.466 Y96.72 E.14301
G1 X145.236 Y99.28 E.15619
G1 X146.041 Y102.34 E.15879
G1 X145.903 Y118.641 E.81811
G1 X145.177 Y120.85 E.11669
G1 X143.925 Y122.775 E.11524
G1 X142.205 Y124.374 E.11786
G1 X140.166 Y125.472 E.11622
G1 X137.513 Y126.04 E.13616
G1 X82.353 Y126.04 E2.76825
G1 X79.883 Y125.489 E.12701
G1 X77.636 Y124.25 E.12877
G1 X75.806 Y122.448 E.12889
G1 X74.545 Y120.206 E.12909
G1 X73.96 Y117.5 E.13894
G1 X74.081 Y101.45 E.80551
G1 X74.782 Y99.238 E.11645
G1 X76.029 Y97.28 E.1165
G1 X77.415 Y95.973 E.09561
G1 X77.651 Y96.224 F10200
G1 F1200
G1 X77.968 Y95.927 E.0218
G1 X79.971 Y94.845 E.11425
G1 X82.505 Y94.305 E.13003
G1 X137.549 Y94.309 E2.76243
G1 X139.359 Y94.624 E.0922
G1 X141.054 Y95.298 E.09154
G1 X143.234 Y96.976 E.13806
G1 X144.935 Y99.45 E.15068
G1 X145.696 Y102.36 E.15095
G1 X145.567 Y118.559 E.81299
G1 X144.875 Y120.681 E.11201
G1 X143.648 Y122.569 E.113
G1 X141.987 Y124.106 E.11357
G1 X140.025 Y125.156 E.11168
G1 X137.495 Y125.695 E.12982
G1 X82.372 Y125.695 E2.7664
G1 X79.983 Y125.158 E.12289
G1 X77.825 Y123.96 E.12387
G1 X76.066 Y122.221 E.12413
G1 X74.859 Y120.06 E.12422
G1 X74.305 Y117.484 E.13223
G1 X74.418 Y101.53 E.80069
G1 X75.104 Y99.364 E.11402
G1 X76.308 Y97.484 E.11204
G1 X77.607 Y96.265 E.0894
G1 X77.841 Y96.516 F10200
G1 F1200
G1 X78.186 Y96.194 E.02368
G1 X80.113 Y95.161 E.10973
G1 X82.523 Y94.65 E.12364
G1 X137.535 Y94.654 E2.76083
G1 X139.248 Y94.951 E.08725
G1 X140.904 Y95.61 E.08945
G1 X143.002 Y97.232 E.13309
G1 X144.609 Y99.567 E.14225
G1 X145.351 Y102.381 E.14605
G1 X145.231 Y118.478 E.80787
G1 X144.573 Y120.513 E.10733
G1 X143.397 Y122.331 E.10866
G1 X141.804 Y123.813 E.10919
G1 X139.884 Y124.841 E.1093
G1 X137.478 Y125.35 E.12342
G1 X82.392 Y125.35 E2.76454
G1 X80.084 Y124.828 E.11875
G1 X78.014 Y123.671 E.11901
G1 X76.326 Y121.994 E.11941
G1 X75.173 Y119.915 E.11931
G1 X74.65 Y117.468 E.12558
G1 X74.755 Y101.608 E.79597
G1 X75.407 Y99.53 E.1093
G1 X76.586 Y97.689 E.10971
G1 X77.798 Y96.557 E.08323
G1 X78.031 Y96.805 F10200
G1 F1200
G1 X78.369 Y96.487 E.02329
G1 X80.254 Y95.477 E.10732
G1 X82.541 Y94.995 E.1173
G1 X137.519 Y94.998 E2.75912
G1 X139.17 Y95.288 E.08413
G1 X140.753 Y95.921 E.08556
G1 X142.769 Y97.488 E.12814
G1 X144.308 Y99.737 E.13676
G1 X145.006 Y102.401 E.13821
G1 X144.895 Y118.397 E.80279
G1 X144.252 Y120.385 E.10486
G1 X143.12 Y122.125 E.10418
G1 X141.587 Y123.544 E.10484
G1 X139.744 Y124.525 E.10478
G1 X137.46 Y125.005 E.11713
G1 X82.411 Y125.005 E2.76268
G1 X80.185 Y124.497 E.11459
G1 X78.204 Y123.382 E.11408
G1 X76.588 Y121.767 E.11466
G1 X75.487 Y119.771 E.1144
G1 X74.995 Y117.451 E.11902
G1 X75.092 Y101.686 E.7912
G1 X75.71 Y99.696 E.10458
G1 X76.839 Y97.925 E.1054
