; generated by PrusaSlicer 2.6.0+win64 on 2023-06-22 at 21:25:56 UTC

; 

; external perimeters extrusion width = 0.42mm
; perimeters extrusion width = 0.44mm
; infill extrusion width = 0.44mm
; solid infill extrusion width = 0.44mm
; top infill extrusion width = 0.40mm
; support material extrusion width = 0.36mm
; first layer extrusion width = 0.42mm

M201 X500 Y500 Z100 E5000 ; sets maximum accelerations, mm/sec^2
M203 X500 Y500 Z10 E60 ; sets maximum feedrates, mm / sec
M204 S500 T1000 ; sets acceleration (S) and retract acceleration (R), mm/sec^2
M205 X8.00 Y8.00 Z0.40 E5.00 ; sets the jerk limits, mm/sec
M205 S0 T0 ; sets the minimum extruding and travel feed rate, mm/sec
;TYPE:Custom
G90 ; use absolute coordinates
M83 ; extruder relative mode
M104 S150 ; set temporary nozzle temp to prevent oozing during homing
M140 S100 ; set final bed temp
G4 S30 ; allow partial nozzle warmup
G28 ; home all axis
G29 ; auto-bed-level
G1 Z50 F240
G1 X2.0 Y10 F3000
M104 S240 ; set final nozzle temp
M190 S100 ; wait for bed temp to stabilize
M109 S240 ; wait for nozzle temp to stabilize
G1 Z0.28 F240
G92 E0
G1 X2.0 Y140 E10 F1500 ; prime the nozzle
G1 X2.3 Y140 F5000
G92 E0
G1 X2.3 Y10 E10 F1200 ; prime the nozzle
G92 E0
G21 ; set units to millimeters
G90 ; use absolute coordinates
M83 ; use relative distances for extrusion
; Filament gcode
M107
;LAYER_CHANGE
;Z:0.35
;HEIGHT:0.35
;BEFORE_LAYER_CHANGE
G92 E0
;0.35


G1 E-5 F3600
G1 Z.35 F10200
;AFTER_LAYER_CHANGE
;0.35
G1 X79.74 Y84.73
G1 E5 F2400
M204 S500
;TYPE:Skirt/Brim
;WIDTH:0.42
G1 F1200
G1 X82.466 Y82.776 E.16832
G1 X85.558 Y81.485 E.16816
G1 X88.852 Y80.952 E.16746
G1 X92.328 Y80.958 E.17445
G1 X96.155 Y81.768 E.19632
G1 X99.654 Y83.561 E.19731
G1 X102.764 Y86.496 E.21461
G1 X103.734 Y88.11 E.0945
G1 X110.777 Y88.412 E.35378
G1 X149.189 Y102.324 E2.05028
G1 X152.183 Y103.943 E.17082
G1 X155.783 Y107.212 E.24404
G1 X158.052 Y110.769 E.21174
G1 X159.393 Y114.74 E.21034
G1 X159.669 Y119.785 E.25357
G1 X158.714 Y124.044 E.21905
G1 X156.755 Y127.887 E.21648
G1 X153.685 Y131.306 E.23061
G1 X149.791 Y133.805 E.23221
G1 X145.416 Y135.167 E.22996
G1 X140.804 Y135.328 E.2316
G1 X137.312 Y134.606 E.17896
G1 X109.407 Y124.533 E1.48889
G1 X104.906 Y124.477 E.2259
G1 X104.383 Y125.308 E.04928
G1 X100.548 Y128.852 E.26206
G1 X97.669 Y130.226 E.1601
G1 X94.777 Y130.94 E.1495
G1 X92.868 Y130.995 E.09584
G1 X91.091 Y133.684 E.16175
G1 X88.754 Y135.97 E.16407
G1 X85.252 Y138.003 E.20322
G1 X80.865 Y139.058 E.22644
G1 X73.617 Y139.058 E.36375
G1 X67.07 Y136.861 E.34657
G1 X64.706 Y134.901 E.15411
G1 X62.508 Y132.261 E.1724
G1 X61.164 Y129.525 E.15298
G1 X60.402 Y126.601 E.15164
G1 X60.264 Y112.403 E.71257
G1 X61.685 Y107.244 E.26855
G1 X63.649 Y104.224 E.18079
G1 X66.243 Y101.753 E.17979
G1 X69.487 Y99.948 E.18631
G1 X70.958 Y95.676 E.22675
G1 X72.634 Y93.223 E.1491
G1 X74.488 Y91.352 E.13219
G1 X75.959 Y90.356 E.08915
G1 X77.003 Y88.074 E.12594
G1 X79.702 Y84.777 E.21383
G1 X79.96 Y84.997 F10200
G1 F1200
G1 X82.617 Y83.086 E.16425
G1 X85.672 Y81.811 E.16613
G1 X88.866 Y81.296 E.16236
G1 X92.309 Y81.303 E.17279
G1 X96.061 Y82.1 E.1925
G1 X99.474 Y83.856 E.19263
G1 X102.51 Y86.73 E.20981
G1 X103.533 Y88.447 E.1003
G1 X110.684 Y88.746 E.35919
G1 X149.06 Y102.644 E2.04834
G1 X151.967 Y104.212 E.16576
G1 X155.505 Y107.417 E.23958
G1 X157.733 Y110.9 E.2075
G1 X159.05 Y114.783 E.20578
G1 X159.328 Y119.734 E.24886
G1 X158.397 Y123.907 E.21457
G1 X156.483 Y127.674 E.21205
G1 X153.478 Y131.029 E.22604
G1 X149.666 Y133.482 E.2275
G1 X145.336 Y134.831 E.22761
G1 X140.813 Y134.983 E.22712
G1 X137.417 Y134.278 E.17407
G1 X109.47 Y124.189 E1.49114
G1 X104.714 Y124.129 E.2387
G1 X104.131 Y125.071 E.0556
G1 X100.376 Y128.552 E.25697
G1 X97.57 Y129.895 E.15612
G1 X94.713 Y130.6 E.14768
G1 X92.611 Y130.657 E.10553
G1 X92.495 Y130.94 E.01535
G1 X90.837 Y133.45 E.15097
G1 X88.528 Y135.709 E.16211
G1 X85.147 Y137.673 E.19623
G1 X80.844 Y138.713 E.22217
G1 X73.645 Y138.713 E.36129
G1 X67.266 Y136.575 E.33764
G1 X64.961 Y134.667 E.15017
G1 X62.809 Y132.09 E.16849
G1 X61.494 Y129.421 E.14932
G1 X60.741 Y126.534 E.14973
G1 X60.609 Y112.424 E.70815
G1 X62.01 Y107.362 E.26359
G1 X63.926 Y104.43 E.17578
G1 X66.465 Y102.018 E.17575
G1 X69.54 Y100.31 E.17653
G1 X69.796 Y100.225 E.01354
G1 X69.824 Y100.029 E.00994
G1 X71.256 Y95.851 E.22165
G1 X72.89 Y93.454 E.14559
G1 X74.721 Y91.607 E.13052
G1 X76.233 Y90.588 E.09151
G1 X77.285 Y88.274 E.12757
G1 X79.922 Y85.043 E.2093
G1 X80.18 Y85.263 F10200
G1 F1200
G1 X82.802 Y83.378 E.16206
G1 X85.785 Y82.138 E.16212
G1 X88.879 Y81.641 E.15727
G1 X92.29 Y81.648 E.17118
G1 X95.966 Y82.433 E.18864
G1 X99.294 Y84.151 E.18796
G1 X102.254 Y86.963 E.2049
G1 X103.331 Y88.784 E.10618
G1 X110.592 Y89.079 E.3647
G1 X148.931 Y102.964 E2.04637
G1 X151.752 Y104.482 E.16077
G1 X155.227 Y107.622 E.23505
G1 X157.431 Y111.068 E.20529
G1 X158.707 Y114.826 E.19917
G1 X158.986 Y119.682 E.2441
G1 X158.079 Y123.771 E.2102
G1 X156.211 Y127.461 E.20756
G1 X153.272 Y130.751 E.2214
G1 X149.499 Y133.179 E.22517
G1 X145.256 Y134.494 E.22293
G1 X140.823 Y134.637 E.22259
G1 X137.523 Y133.949 E.16917
G1 X109.532 Y123.844 E1.49349
G1 X104.521 Y123.782 E.2515
G1 X103.879 Y124.835 E.06189
G1 X100.203 Y128.252 E.25188
G1 X97.47 Y129.564 E.15214
G1 X94.649 Y130.261 E.14583
G1 X92.37 Y130.318 E.11441
G1 X92.197 Y130.767 E.02415
G1 X90.559 Y133.245 E.14907
G1 X88.302 Y135.447 E.15825
G1 X85.041 Y137.344 E.18933
G1 X80.823 Y138.368 E.21783
G1 X73.673 Y138.368 E.35883
G1 X67.461 Y136.289 E.32875
G1 X65.215 Y134.434 E.14619
G1 X63.087 Y131.885 E.16664
G1 X61.811 Y129.285 E.14535
G1 X61.081 Y126.468 E.14604
G1 X60.954 Y112.445 E.70379
G1 X62.313 Y107.528 E.25602
G1 X64.204 Y104.636 E.17341
G1 X66.686 Y102.284 E.17161
G1 X69.69 Y100.621 E.17232
G1 X70.12 Y100.489 E.02257
G1 X70.158 Y100.118 E.01872
G1 X71.554 Y96.026 E.21698
G1 X73.147 Y93.686 E.14206
G1 X74.953 Y91.862 E.12882
G1 X76.507 Y90.819 E.09393
G1 X77.567 Y88.474 E.12915
G1 X80.142 Y85.31 E.20473
G1 X80.4 Y85.53 F10200
G1 F1200
G1 X82.953 Y83.689 E.15796
G1 X85.899 Y82.464 E.16012
G1 X88.892 Y81.986 E.15211
G1 X92.272 Y81.992 E.16963
G1 X95.828 Y82.75 E.18247
G1 X99.114 Y84.447 E.1856
G1 X101.999 Y87.196 E.19999
G1 X103.129 Y89.121 E.11202
G1 X110.5 Y89.412 E.37021
G1 X148.802 Y103.284 E2.04441
G1 X151.537 Y104.752 E.15578
G1 X154.949 Y107.828 E.23055
G1 X157.129 Y111.236 E.20303
G1 X158.364 Y114.869 E.19257
G1 X158.644 Y119.632 E.23945
G1 X157.762 Y123.635 E.20571
G1 X155.938 Y127.249 E.20316
G1 X153.066 Y130.474 E.21673
G1 X149.332 Y132.877 E.22285
G1 X145.177 Y134.158 E.21821
G1 X140.833 Y134.292 E.21811
G1 X137.629 Y133.621 E.16428
G1 X109.594 Y123.5 E1.49584
G1 X104.327 Y123.435 E.26435
G1 X103.625 Y124.6 E.06826
G1 X100.03 Y127.953 E.24671
G1 X97.37 Y129.234 E.14817
G1 X94.584 Y129.922 E.14402
G1 X92.127 Y129.978 E.12334
G1 X91.898 Y130.594 E.03298
G1 X90.282 Y133.039 E.14708
G1 X88.077 Y135.185 E.15442
G1 X84.935 Y137.015 E.18248
G1 X80.803 Y138.023 E.21345
G1 X73.701 Y138.023 E.35642
G1 X67.656 Y136.003 E.31986
G1 X65.469 Y134.2 E.14225
G1 X63.387 Y131.714 E.16274
G1 X62.128 Y129.149 E.1434
G1 X61.42 Y126.403 E.14232
G1 X61.299 Y112.466 E.69947
G1 X62.638 Y107.646 E.25106
G1 X64.481 Y104.842 E.1684
G1 X66.907 Y102.55 E.16749
G1 X69.839 Y100.933 E.16804
G1 X70.446 Y100.753 E.03177
G1 X70.492 Y100.208 E.02745
G1 X71.853 Y96.2 E.21243
G1 X73.403 Y93.917 E.13849
G1 X75.186 Y92.118 E.12711
G1 X76.781 Y91.051 E.09631
G1 X77.849 Y88.674 E.13078
G1 X80.363 Y85.576 E.20023
G1 X80.621 Y85.796 F10200
G1 F1200
G1 X83.138 Y83.98 E.15576
G1 X86.012 Y82.791 E.15609
G1 X88.905 Y82.331 E.14701
G1 X92.253 Y82.337 E.16802
G1 X95.733 Y83.082 E.1786
G1 X98.933 Y84.741 E.18089
G1 X101.743 Y87.428 E.19512
G1 X102.926 Y89.459 E.11796
G1 X110.408 Y89.746 E.37577
G1 X148.673 Y103.604 E2.04242
G1 X151.322 Y105.023 E.15081
G1 X154.671 Y108.033 E.22598
G1 X156.827 Y111.405 E.20086
G1 X158.021 Y114.913 E.18597
G1 X158.302 Y119.581 E.23469
G1 X157.444 Y123.499 E.20129
G1 X155.665 Y127.037 E.19874
G1 X152.859 Y130.197 E.21209
G1 X149.208 Y132.554 E.21809
G1 X145.143 Y133.814 E.21358
G1 X140.843 Y133.947 E.2159
G1 X137.735 Y133.292 E.1594
G1 X109.657 Y123.156 E1.49813
G1 X104.132 Y123.087 E.2773
G1 X103.372 Y124.365 E.07462
G1 X99.856 Y127.654 E.24162
G1 X97.269 Y128.903 E.14417
G1 X94.52 Y129.582 E.14211
G1 X91.883 Y129.638 E.13237
G1 X91.598 Y130.421 E.04182
G1 X90.004 Y132.833 E.14509
G1 X87.852 Y134.923 E.15055
G1 X84.829 Y136.686 E.17563
G1 X80.782 Y137.678 E.20911
G1 X73.729 Y137.678 E.35396
G1 X67.85 Y135.716 E.31104
G1 X65.723 Y133.966 E.13823
G1 X63.665 Y131.509 E.16085
G1 X62.446 Y129.013 E.1394
G1 X61.759 Y126.337 E.13865
G1 X61.644 Y112.488 E.69505
G1 X62.963 Y107.765 E.2461
G1 X64.757 Y105.049 E.16336
G1 X67.127 Y102.816 E.16342
G1 X69.988 Y101.245 E.1638
G1 X70.775 Y101.018 E.04111
G1 X70.826 Y100.296 E.03632
G1 X72.151 Y96.374 E.20776
G1 X73.659 Y94.148 E.13494
G1 X75.419 Y92.373 E.12545
G1 X77.055 Y91.283 E.09866
G1 X78.131 Y88.873 E.13246
G1 X80.583 Y85.842 E.19566
G1 X80.842 Y86.062 F10200
G1 F1200
G1 X83.323 Y84.272 E.15353
G1 X86.124 Y83.117 E.15205
G1 X88.918 Y82.676 E.14196
G1 X92.234 Y82.682 E.16642
G1 X95.638 Y83.414 E.17474
G1 X98.751 Y85.036 E.17616
G1 X101.486 Y87.66 E.19021
G1 X102.722 Y89.796 E.12385
G1 X110.315 Y90.079 E.38133
G1 X148.544 Y103.924 E2.0405
G1 X151.107 Y105.294 E.14585
G1 X154.393 Y108.239 E.22145
G1 X156.526 Y111.573 E.19863
G1 X157.678 Y114.958 E.17945
G1 X157.96 Y119.531 E.22994
G1 X157.111 Y123.404 E.19899
G1 X155.392 Y126.825 E.19214
G1 X152.651 Y129.921 E.20752
G1 X149.083 Y132.232 E.21334
G1 X145.063 Y133.477 E.2112
G1 X140.853 Y133.601 E.21137
G1 X137.841 Y132.964 E.1545
G1 X109.719 Y122.812 E1.50047
G1 X103.936 Y122.74 E.29025
G1 X103.117 Y124.131 E.08101
G1 X99.682 Y127.355 E.23643
G1 X97.169 Y128.573 E.14015
G1 X94.456 Y129.243 E.14024
G1 X91.637 Y129.298 E.1415
G1 X91.298 Y130.25 E.05072
G1 X89.75 Y132.599 E.14118
G1 X87.659 Y134.636 E.1465
G1 X84.722 Y136.357 E.17084
G1 X80.761 Y137.333 E.20473
G1 X73.757 Y137.333 E.3515
G1 X68.044 Y135.43 E.3022
G1 X65.977 Y133.732 E.13425
G1 X63.966 Y131.338 E.15691
G1 X62.764 Y128.878 E.13741
G1 X62.098 Y126.272 E.13499
G1 X61.989 Y112.509 E.69073
G1 X63.266 Y107.933 E.23843
G1 X65.034 Y105.256 E.161
G1 X67.347 Y103.082 E.15931
G1 X70.135 Y101.557 E.15948
G1 X71.105 Y101.285 E.05056
G1 X71.16 Y100.383 E.04535
G1 X72.45 Y96.548 E.20306
G1 X73.915 Y94.38 E.13132
G1 X75.651 Y92.628 E.12378
G1 X77.33 Y91.515 E.10109
G1 X78.414 Y89.072 E.13413
G1 X80.804 Y86.109 E.19105
G1 X81.063 Y86.328 F10200
G1 F1200
G1 X83.474 Y84.583 E.14936
G1 X86.237 Y83.444 E.14998
G1 X88.931 Y83.021 E.13686
G1 X92.215 Y83.027 E.16481
G1 X95.542 Y83.746 E.17082
G1 X98.57 Y85.33 E.1715
G1 X101.229 Y87.891 E.18527
G1 X102.518 Y90.134 E.12983
G1 X110.223 Y90.413 E.38694
G1 X148.415 Y104.244 E2.03852
G1 X150.893 Y105.565 E.14093
G1 X154.115 Y108.445 E.21688
G1 X156.224 Y111.741 E.19638
G1 X157.344 Y115.047 E.17518
G1 X157.618 Y119.481 E.22295
G1 X156.779 Y123.31 E.19672
G1 X155.119 Y126.613 E.18552
G1 X152.444 Y129.644 E.20288
G1 X148.958 Y131.91 E.20866
G1 X144.984 Y133.141 E.20879
G1 X140.864 Y133.256 E.20685
G1 X137.947 Y132.636 E.14966
G1 X109.782 Y122.468 E1.50278
G1 X103.738 Y122.393 E.30335
G1 X102.862 Y123.897 E.08735
G1 X99.508 Y127.056 E.23123
G1 X97.035 Y128.255 E.13793
G1 X94.393 Y128.903 E.13652
G1 X91.39 Y128.957 E.15073
G1 X90.998 Y130.078 E.0596
G1 X89.496 Y132.366 E.13736
G1 X87.466 Y134.35 E.14245
G1 X84.614 Y136.029 E.16609
G1 X80.74 Y136.988 E.20029
G1 X73.784 Y136.988 E.34909
G1 X68.238 Y135.143 E.29333
G1 X66.231 Y133.498 E.13023
G1 X64.243 Y131.133 E.15505
G1 X63.082 Y128.743 E.13335
G1 X62.438 Y126.208 E.13126
G1 X62.334 Y112.531 E.68641
G1 X63.59 Y108.052 E.23345
G1 X65.31 Y105.464 E.15595
G1 X67.567 Y103.349 E.15523
G1 X70.282 Y101.87 E.15516
G1 X71.437 Y101.552 E.06012
G1 X71.495 Y100.47 E.05438
G1 X72.749 Y96.721 E.19839
G1 X74.172 Y94.611 E.12772
G1 X75.883 Y92.884 E.122
G1 X77.605 Y91.747 E.10356
G1 X78.697 Y89.27 E.13585
G1 X81.025 Y86.374 E.18648
G1 X81.284 Y86.593 F10200
G1 F1200
G1 X83.659 Y84.874 E.14714
G1 X86.349 Y83.771 E.14591
G1 X88.944 Y83.366 E.13181
G1 X92.196 Y83.372 E.1632
G1 X95.446 Y84.078 E.16691
G1 X98.387 Y85.623 E.16672
G1 X100.971 Y88.122 E.1804
G1 X102.314 Y90.472 E.13584
G1 X110.131 Y90.746 E.39254
G1 X148.286 Y104.564 E2.03655
G1 X150.712 Y105.859 E.13801
G1 X153.837 Y108.65 E.21027
G1 X155.922 Y111.909 E.19416
G1 X157.01 Y115.135 E.17086
G1 X157.276 Y119.43 E.21596
G1 X156.447 Y123.215 E.19446
G1 X154.845 Y126.402 E.17901
G1 X152.235 Y129.368 E.19828
G1 X148.832 Y131.587 E.20388
G1 X144.95 Y132.797 E.20407
G1 X140.875 Y132.911 E.20459
G1 X138.053 Y132.307 E.14483
G1 X109.844 Y122.124 E1.50511
G1 X103.54 Y122.045 E.3164
G1 X102.607 Y123.664 E.09378
G1 X99.333 Y126.758 E.22607
G1 X96.935 Y127.924 E.13382
G1 X94.33 Y128.564 E.13462
G1 X91.142 Y128.616 E.16001
G1 X90.698 Y129.908 E.06856
G1 X89.241 Y132.133 E.13347
G1 X87.272 Y134.064 E.13841
G1 X84.507 Y135.7 E.16123
G1 X80.719 Y136.644 E.19592
G1 X73.812 Y136.644 E.34663
G1 X68.432 Y134.856 E.28452
G1 X66.484 Y133.264 E.12626
G1 X64.521 Y130.928 E.15313
G1 X63.4 Y128.609 E.12927
G1 X62.777 Y126.144 E.1276
G1 X62.679 Y112.553 E.68209
G1 X63.892 Y108.221 E.22577
G1 X65.586 Y105.672 E.1536
G1 X67.786 Y103.616 E.15112
G1 X70.429 Y102.182 E.15091
G1 X71.771 Y101.819 E.06977
G1 X71.83 Y100.556 E.06345
G1 X73.049 Y96.894 E.1937
G1 X74.428 Y94.842 E.12408
G1 X76.116 Y93.139 E.12034
G1 X77.915 Y91.955 E.10808
G1 X77.977 Y91.73 E.01171
G1 X78.98 Y89.468 E.12418
G1 X81.246 Y86.64 E.18187
G1 X81.505 Y86.859 F10200
G1 F1200
G1 X83.809 Y85.186 E.1429
G1 X86.461 Y84.097 E.14388
G1 X88.956 Y83.711 E.1267
G1 X92.177 Y83.717 E.16165
G1 X95.349 Y84.41 E.16294
G1 X98.204 Y85.917 E.16202
G1 X100.713 Y88.352 E.17547
G1 X102.109 Y90.811 E.14191
G1 X110.039 Y91.08 E.3982
G1 X148.157 Y104.884 E2.03456
G1 X150.531 Y106.154 E.13512
G1 X153.559 Y108.856 E.20367
G1 X155.62 Y112.077 E.19191
G1 X156.676 Y115.223 E.16654
G1 X156.934 Y119.38 E.20902
G1 X156.114 Y123.12 E.19215
G1 X154.571 Y126.192 E.17253
G1 X152.027 Y129.093 E.19364
G1 X148.707 Y131.265 E.19911
G1 X144.871 Y132.461 E.20165
G1 X140.887 Y132.566 E.20001
G1 X138.159 Y131.979 E.14004
G1 X109.907 Y121.78 E1.50741
G1 X103.341 Y121.698 E.32955
G1 X102.351 Y123.432 E.10021
G1 X99.158 Y126.459 E.22081
G1 X96.801 Y127.606 E.13155
G1 X94.267 Y128.224 E.1309
G1 X90.893 Y128.275 E.16935
G1 X90.397 Y129.738 E.07753
G1 X88.985 Y131.9 E.12959
G1 X87.078 Y133.778 E.13432
G1 X84.398 Y135.372 E.15649
G1 X80.697 Y136.299 E.19148
G1 X73.84 Y136.299 E.34412
G1 X68.626 Y134.568 E.27571
G1 X66.737 Y133.029 E.12228
G1 X64.822 Y130.757 E.14912
G1 X63.73 Y128.507 E.12551
G1 X63.117 Y126.079 E.12567
G1 X63.024 Y112.575 E.67773
G1 X64.217 Y108.341 E.22076
G1 X65.861 Y105.88 E.14853
G1 X68.005 Y103.884 E.14701
G1 X70.574 Y102.496 E.14654
G1 X72.106 Y102.087 E.07958
G1 X72.165 Y100.641 E.07263
G1 X73.348 Y97.066 E.18898
G1 X74.685 Y95.073 E.12044
G1 X76.348 Y93.395 E.11856
G1 X78.216 Y92.17 E.11211
G1 X78.298 Y91.855 E.01634
G1 X79.264 Y89.666 E.12008
G1 X81.468 Y86.905 E.1773
G1 X81.727 Y87.124 F10200
G1 F1200
G1 X83.995 Y85.477 E.14067
G1 X86.572 Y84.424 E.13971
G1 X88.969 Y84.056 E.12171
G1 X92.158 Y84.062 E.16004
G1 X95.252 Y84.742 E.15898
G1 X98.021 Y86.21 E.15729
G1 X100.455 Y88.581 E.17053
G1 X101.904 Y91.149 E.14798
G1 X109.948 Y91.413 E.40391
G1 X148.027 Y105.204 E2.0325
G1 X150.351 Y106.448 E.13229
G1 X153.282 Y109.062 E.1971
G1 X155.318 Y112.245 E.18963
G1 X156.342 Y115.311 E.16222
G1 X156.592 Y119.33 E.20209
G1 X155.782 Y123.025 E.18984
G1 X154.297 Y125.981 E.16602
G1 X151.818 Y128.818 E.18908
G1 X148.58 Y130.944 E.1944
G1 X144.838 Y132.116 E.19679
G1 X140.899 Y132.22 E.19775
G1 X138.266 Y131.651 E.13519
G1 X109.969 Y121.435 E1.50983
G1 X103.141 Y121.351 E.3427
G1 X102.094 Y123.2 E.10664
G1 X98.983 Y126.161 E.21554
G1 X96.701 Y127.275 E.12744
G1 X94.204 Y127.884 E.12899
G1 X90.644 Y127.933 E.17868
G1 X90.095 Y129.569 E.0866
G1 X88.73 Y131.668 E.12566
G1 X86.882 Y133.493 E.13035
