; generated by Slic3r 1.3.0 on 2023-06-14 at 19:44:01

; external perimeters extrusion width = 0.55mm (4.37mm^3/s)
; perimeters extrusion width = 0.70mm (11.44mm^3/s)
; infill extrusion width = 0.63mm (13.45mm^3/s)
; solid infill extrusion width = 0.70mm (3.81mm^3/s)
; top infill extrusion width = 0.70mm (2.86mm^3/s)

M190 S100 ; set bed temperature and wait for it to be reached
M104 S240 ; set temperature
G28 ; home all axes
G29 ; auto-bed-level
G1 Z5 F5000 ; lift nozzle

; Filament gcode

M109 S240 ; set temperature and wait for it to be reached
G21 ; set units to millimeters
G90 ; use absolute coordinates
M82 ; use absolute distances for extrusion
G92 E0
G1 Z0.350 F9000.000
G1 E-2.00000 F2400.00000
G92 E0
G1 X91.915 Y85.753 F9000.000
G1 E2.00000 F2400.00000
G1 F1800
G1 X93.668 Y84.274 E2.20854
G1 X95.820 Y83.481 E2.41708
G1 X97.000 Y83.375 E2.52479
G1 X103.000 Y83.375 E3.07037
G1 X105.259 Y83.772 E3.27891
G1 X107.247 Y84.915 E3.48746
G1 X108.726 Y86.668 E3.69600
G1 X109.519 Y88.820 E3.90454
G1 X109.625 Y90.000 E4.01225
G1 X109.625 Y110.000 E5.83084
G1 X109.228 Y112.259 E6.03938
G1 X108.085 Y114.247 E6.24793
G1 X106.332 Y115.726 E6.45647
G1 X104.180 Y116.519 E6.66501
G1 X103.000 Y116.625 E6.77272
G1 X97.000 Y116.625 E7.31830
G1 X94.741 Y116.228 E7.52684
G1 X92.753 Y115.085 E7.73538
G1 X91.274 Y113.332 E7.94392
G1 X90.481 Y111.180 E8.15247
G1 X90.375 Y110.000 E8.26018
G1 X90.375 Y90.000 E10.07877
G1 X90.772 Y87.741 E10.28731
G1 X91.878 Y85.818 E10.48903
G1 E8.48903 F2400.00000
G92 E0
G1 X93.667 Y87.504 F9000.000
G1 E2.00000 F2400.00000
G1 F1800
G1 X95.293 Y85.878 E2.20914
G1 X104.707 Y85.878 E3.06538
G1 X107.122 Y88.293 E3.37593
G1 X107.122 Y111.707 E5.50540
G1 X104.707 Y114.122 E5.81596
G1 X95.293 Y114.122 E6.67220
G1 X92.878 Y111.707 E6.98275
G1 X92.878 Y88.293 E9.11222
G1 X93.613 Y87.557 E9.20682
G1 X94.108 Y87.946 F9000.000
G1 F1800
G1 X95.552 Y86.503 E9.39242
G1 X104.448 Y86.503 E10.20156
G1 X106.497 Y88.552 E10.46503
G1 X106.497 Y111.448 E12.54741
G1 X104.448 Y113.497 E12.81088
G1 X95.552 Y113.497 E13.62003
G1 X93.503 Y111.448 E13.88350
G1 X93.503 Y88.552 E15.96588
G1 X94.055 Y87.999 E16.03693
G1 X94.550 Y88.388 F9000.000
G1 F1800
G1 X95.810 Y87.128 E16.19898
G1 X104.190 Y87.128 E16.96104
G1 X105.872 Y88.810 E17.17742
G1 X105.872 Y111.190 E19.21271
G1 X104.190 Y112.872 E19.42909
G1 X95.810 Y112.872 E20.19115
G1 X94.128 Y111.190 E20.40753
G1 X94.128 Y88.810 E22.44282
G1 X94.497 Y88.441 E22.49033
G1 X94.992 Y88.830 F9000.000
G1 F1800
G1 X96.069 Y87.753 E22.62884
G1 X103.931 Y87.753 E23.34380
G1 X105.247 Y89.069 E23.51310
G1 X105.247 Y110.931 E25.50130
G1 X103.931 Y112.247 E25.67059
G1 X96.069 Y112.247 E26.38556
G1 X94.753 Y110.931 E26.55485
G1 X94.753 Y89.069 E28.54306
G1 X94.939 Y88.883 E28.56702
G1 X95.434 Y89.272 F9000.000
G1 F1800
G1 X96.328 Y88.378 E28.68198
G1 X103.672 Y88.378 E29.34986
G1 X104.622 Y89.328 E29.47207
G1 X104.622 Y110.672 E31.41318
G1 X103.672 Y111.622 E31.53539
G1 X96.328 Y111.622 E32.20326
G1 X95.378 Y110.672 E32.32547
G1 X95.381 Y89.325 E34.26688
G1 X96.003 Y89.587 F9000.000
G1 F1800
G1 X96.587 Y89.003 E34.34199
G1 X103.413 Y89.003 E34.96278
G1 X103.997 Y89.587 E35.03790
G1 X103.997 Y110.413 E36.93192
G1 X103.413 Y110.997 E37.00704
G1 X96.587 Y110.997 E37.62783
G1 X96.003 Y110.413 E37.70294
G1 X96.003 Y89.662 E39.59015
G1 X96.628 Y89.846 F9000.000
G1 F1800
G1 X96.846 Y89.628 E39.61818
G1 X103.154 Y89.628 E40.19188
G1 X103.372 Y89.846 E40.21990
G1 X103.372 Y110.154 E42.06684
G1 X103.154 Y110.372 E42.09487
G1 X96.846 Y110.372 E42.66857
G1 X96.628 Y110.154 E42.69659
G1 X96.628 Y89.921 E44.53671
G1 E42.53671 F2400.00000
G92 E0
G1 X99.564 Y102.373 F9000.000
G1 E2.00000 F2400.00000
G1 F1800
G1 X100.000 Y102.315 E2.04000
G1 X100.436 Y102.373 E2.08000
G1 X100.842 Y102.541 E2.12000
G1 X101.191 Y102.809 E2.16000
G1 X101.459 Y103.158 E2.20000
G1 X101.627 Y103.564 E2.24000
G1 X101.685 Y104.000 E2.28000
G1 X101.627 Y104.436 E2.32000
G1 X101.459 Y104.842 E2.36000
G1 X101.191 Y105.191 E2.40000
G1 X100.842 Y105.459 E2.44000
G1 X100.436 Y105.627 E2.48000
G1 X100.000 Y105.685 E2.52000
G1 X99.564 Y105.627 E2.56000
G1 X99.158 Y105.459 E2.60000
G1 X98.809 Y105.191 E2.64000
G1 X98.541 Y104.842 E2.68000
G1 X98.373 Y104.436 E2.72000
G1 X98.315 Y104.000 E2.76000
G1 X98.373 Y103.564 E2.80000
G1 X98.541 Y103.158 E2.84000
G1 X98.809 Y102.809 E2.88000
G1 X99.158 Y102.541 E2.92000
G1 X99.495 Y102.401 E2.95318
G1 E0.95318 F2400.00000
G92 E0
G1 X100.000 Y97.192 F9000.000
G1 E2.00000 F2400.00000
G1 F1800
G1 X99.693 Y97.151 E2.02813
G1 X99.408 Y97.033 E2.05626
G1 X99.162 Y96.845 E2.08439
G1 X98.974 Y96.599 E2.11252
G1 X98.856 Y96.314 E2.14064
G1 X98.815 Y96.007 E2.16877
G1 X98.856 Y95.700 E2.19690
G1 X98.974 Y95.414 E2.22503
G1 X99.162 Y95.169 E2.25316
G1 X99.408 Y94.981 E2.28129
G1 X99.693 Y94.862 E2.30942
G1 X100.000 Y94.822 E2.33755
G1 X100.307 Y94.862 E2.36568
G1 X100.592 Y94.981 E2.39381
G1 X100.838 Y95.169 E2.42194
G1 X101.026 Y95.414 E2.45007
G1 X101.144 Y95.700 E2.47820
G1 X101.185 Y96.007 E2.50633
G1 X101.144 Y96.314 E2.53446
G1 X101.026 Y96.599 E2.56258
G1 X100.838 Y96.845 E2.59071
G1 X100.592 Y97.033 E2.61884
G1 X100.307 Y97.151 E2.64697
G1 X100.074 Y97.182 E2.66828
G1 E0.66828 F2400.00000
G92 E0
G1 X101.400 Y108.400 F9000.000
G1 E2.00000 F2400.00000
G1 F1800
G1 X98.600 Y108.400 E2.25464
G1 X98.600 Y107.298 E2.35488
G1 X99.065 Y107.490 E2.40064
G1 X100.000 Y107.614 E2.48642
G1 X100.935 Y107.490 E2.57219
G1 X101.400 Y107.298 E2.61796
G1 X101.400 Y108.325 E2.71137
G1 X102.025 Y109.025 F9000.000
G1 F1800
G1 X97.975 Y109.025 E3.07966
G1 X97.975 Y106.174 E3.33888
G1 X98.508 Y106.584 E3.40002
G1 X99.228 Y106.882 E3.47084
G1 X100.000 Y106.983 E3.54165
G1 X100.772 Y106.882 E3.61247
G1 X101.492 Y106.584 E3.68329
G1 X102.025 Y106.174 E3.74443
G1 X102.025 Y108.950 E3.99683
G1 X102.650 Y109.650 F9000.000
G1 F1800
G1 X97.350 Y109.650 E4.47876
G1 X97.350 Y104.429 E4.95352
G1 X97.700 Y104.406 E4.98545
G1 X97.727 Y104.609 E5.00408
G1 X97.962 Y105.177 E5.05994
G1 X98.336 Y105.664 E5.11579
G1 X98.823 Y106.038 E5.17165
G1 X99.391 Y106.273 E5.22750
G1 X100.000 Y106.353 E5.28336
G1 X100.609 Y106.273 E5.33921
G1 X101.177 Y106.038 E5.39507
G1 X101.664 Y105.664 E5.45092
G1 X102.038 Y105.177 E5.50678
G1 X102.273 Y104.609 E5.56263
G1 X102.300 Y104.406 E5.58126
G1 X102.650 Y104.429 E5.61319
G1 X102.650 Y109.575 E6.08114
G1 X102.212 Y109.410 F9000.000
G1 E4.08114 F2400.00000
G92 E0
G1 X100.480 Y97.797 F9000.000
G1 E2.00000 F2400.00000
G1 F1800
G1 X100.000 Y97.860 E2.04399
G1 X99.520 Y97.797 E2.08798
G1 X99.074 Y97.612 E2.13196
G1 X98.690 Y97.317 E2.17594
G1 X98.395 Y96.933 E2.21993
G1 X98.210 Y96.487 E2.26392
G1 X98.147 Y96.007 E2.30790
G1 X98.210 Y95.527 E2.35189
G1 X98.395 Y95.080 E2.39587
G1 X98.690 Y94.697 E2.43986
G1 X99.073 Y94.402 E2.48385
G1 X99.520 Y94.217 E2.52784
G1 X99.950 Y94.160 E2.56723
G1 X100.475 Y94.215 E2.61524
G1 X100.927 Y94.402 E2.65967
G1 X101.310 Y94.697 E2.70365
G1 X101.605 Y95.080 E2.74764
G1 X101.790 Y95.527 E2.79163
G1 X101.853 Y96.007 E2.83561
G1 X101.790 Y96.487 E2.87960
G1 X101.605 Y96.933 E2.92358
G1 X101.310 Y97.317 E2.96757
G1 X100.926 Y97.612 E3.01156
G1 X100.549 Y97.768 E3.04872
G1 X100.480 Y97.797 F9000.000
G1 E1.04872 F2400.00000
G92 E0
G1 X101.400 Y93.246 F9000.000
G1 E2.00000 F2400.00000
G1 F1800
G1 X100.785 Y92.991 E2.06051
G1 X99.933 Y92.902 E2.13845
G1 X99.194 Y92.999 E2.20619
G1 X98.600 Y93.246 E2.26470
G1 X98.600 Y91.600 E2.41435
G1 X101.400 Y91.600 E2.66899
G1 X101.400 Y93.171 E2.81183
G1 X102.025 Y94.457 F9000.000
G1 F1800
G1 X101.242 Y93.856 E2.90162
G1 X100.630 Y93.603 E2.96180
G1 X99.941 Y93.531 E3.02477
G1 X99.357 Y93.608 E3.07834
G1 X98.758 Y93.856 E3.13729
G1 X97.975 Y94.458 E3.22709
G1 X97.975 Y90.975 E3.54377
G1 X102.025 Y90.975 E3.91205
G1 X102.025 Y94.382 E4.22190
G1 E2.22190 F2400.00000
G92 E0
G1 X101.400 Y98.768 F9000.000
G1 E2.00000 F2400.00000
G1 F1800
G1 X101.400 Y100.702 E2.17586
G1 X100.935 Y100.510 E2.22162
G1 X100.000 Y100.386 E2.30740
G1 X99.087 Y100.507 E2.39111
G1 X98.600 Y100.704 E2.43893
G1 X98.600 Y98.768 E2.61496
G1 X99.194 Y99.014 E2.67345
G1 X100.000 Y99.120 E2.74736
G1 X100.806 Y99.014 E2.82128
G1 X101.331 Y98.797 E2.87295
G1 X102.025 Y97.556 F9000.000
G1 F1800
G1 X102.025 Y101.826 E3.26116
G1 X101.492 Y101.416 E3.32231
G1 X100.772 Y101.118 E3.39312
G1 X100.000 Y101.017 E3.46394
G1 X99.248 Y101.116 E3.53292
G1 X98.511 Y101.414 E3.60517
G1 X97.975 Y101.826 E3.66667
G1 X97.975 Y97.556 E4.05488
G1 X98.758 Y98.157 E4.14468
G1 X99.357 Y98.406 E4.20362
G1 X100.000 Y98.490 E4.26257
G1 X100.643 Y98.406 E4.32152
G1 X101.242 Y98.157 E4.38046
G1 X101.966 Y97.602 E4.46343
G1 E2.46343 F2400.00000
G92 E0
G1 X102.650 Y103.571 F9000.000
G1 E2.00000 F2400.00000
G1 F1800
G1 X102.300 Y103.594 E2.03193
G1 X102.273 Y103.391 E2.05056
G1 X102.038 Y102.823 E2.10642
G1 X101.664 Y102.336 E2.16227
G1 X101.177 Y101.962 E2.21813
G1 X100.609 Y101.727 E2.27398
G1 X100.000 Y101.647 E2.32984
G1 X99.409 Y101.725 E2.38408
G1 X98.825 Y101.961 E2.44137
G1 X98.336 Y102.336 E2.49735
G1 X97.962 Y102.823 E2.55320
G1 X97.727 Y103.391 E2.60906
G1 X97.700 Y103.594 E2.62769
G1 X97.350 Y103.571 E2.65962
G1 X97.350 Y90.350 E3.86182
G1 X102.650 Y90.350 E4.34375
G1 X102.650 Y103.496 E5.53912
G1 X102.320 Y103.450 F9000.000
G1 X102.338 Y102.564 F9000.000
G1 F1800
G1 X102.085 Y102.311 E5.54253
G1 E3.54253 F2400.00000
G92 E0
G1 X101.088 Y99.753 F9000.000
G1 E2.00000 F2400.00000
G1 F1800
G1 X100.565 Y99.753 E2.05582
G1 F1800
G1 X100.042 Y99.753 E2.10527
G1 X100.042 Y99.753 F9000.000
G1 F1800
G1 X99.697 Y99.753 E2.13370
G1 F1800
G1 X99.174 Y99.753 E2.18315
G1 F1800
G1 X98.912 Y99.753 E2.21106
G1 E0.21106 F2400.00000
G92 E0
G1 X98.269 Y97.342 F9000.000
G1 E2.00000 F2400.00000
G1 F1800
G1 X98.063 Y97.136 E2.00175
G1 X97.662 Y96.679 E2.00542
G1 X97.789 Y96.616 F9000.000
G1 F1800
G1 X97.884 Y97.092 E2.02110
G1 X97.789 Y96.616 F9000.000
G1 F1800
G1 X97.766 Y96.301 E2.02888
G1 F1800
G1 X97.748 Y95.996 E2.03311
G1 F1800
G1 X97.789 Y95.397 E2.04863
G1 F1800
G1 X97.884 Y94.921 E2.06742
G1 X98.269 Y94.672 F9000.000
G1 F1800
G1 X98.063 Y94.877 E2.06917
G1 X97.662 Y95.335 E2.07283
G1 E0.07283 F2400.00000
G92 E0
G1 X98.912 Y92.315 F9000.000
G1 E2.00000 F2400.00000
G1 F1800
G1 X99.398 Y92.283 E2.04827
G1 F1800
G1 X99.964 Y92.251 E2.09797
G1 F1800
G1 X101.088 Y92.309 E2.20928
G1 E0.20928 F2400.00000
G92 E0
G1 X101.731 Y94.672 F9000.000
G1 E2.00000 F2400.00000
G1 F1800
G1 X101.937 Y94.877 E2.00347
G1 X102.338 Y95.335 E2.01072
G1 X102.234 Y95.713 F9000.000
G1 F1800
G1 X102.152 Y94.949 E2.02964
G1 X102.234 Y95.713 F9000.000
G1 F1800
G1 X102.252 Y96.018 E2.03387
G1 F1800
G1 X102.215 Y96.584 E2.04854
G1 X102.152 Y97.065 E2.06110
G1 X102.338 Y96.679 F9000.000
G1 F1800
G1 X101.937 Y97.136 E2.06835
G1 X101.731 Y97.342 E2.07183
G1 E0.07183 F2400.00000
G92 E0
G1 X97.915 Y102.311 F9000.000
G1 E2.00000 F2400.00000
G1 F1800
G1 X97.662 Y102.564 E2.00193
G1 E0.00193 F2400.00000
G92 E0
G1 X97.662 Y105.436 F9000.000
G1 E2.00000 F2400.00000
G1 F1800
G1 X97.916 Y105.689 E2.00194
G1 E0.00194 F2400.00000
G92 E0
G1 X98.912 Y107.937 F9000.000
G1 E2.00000 F2400.00000
G1 F1800
G1 X99.271 Y107.961 E2.01086
G1 F1800
G1 X99.990 Y108.008 E2.02400
G1 X100.370 Y107.984 E2.03096
G1 F1800
G1 X101.088 Y107.937 E2.05267
G1 E0.05267 F2400.00000
G92 E0
G1 X102.084 Y105.689 F9000.000
G1 E2.00000 F2400.00000
G1 F1800
G1 X102.338 Y105.436 E2.00341
G1 Z0.650 F9000.000
G1 X102.228 Y103.627 F9000.000
G1 F900
G1 X102.277 Y104.000 E2.02621
G1 X102.200 Y104.589 E2.06222
G1 X101.972 Y105.139 E2.09823
G1 X101.610 Y105.610 E2.13424
G1 X101.139 Y105.972 E2.17025
G1 X100.589 Y106.200 E2.20626
G1 X100.000 Y106.277 E2.24227
G1 X99.411 Y106.200 E2.27828
G1 X98.861 Y105.972 E2.31429
G1 X98.390 Y105.610 E2.35030
G1 X98.028 Y105.139 E2.38631
G1 X97.800 Y104.589 E2.42231
G1 X97.723 Y104.000 E2.45832
G1 X97.800 Y103.411 E2.49433
G1 X98.028 Y102.861 E2.53034
G1 X98.390 Y102.390 E2.56635
G1 X98.864 Y102.026 E2.60254
G1 X99.460 Y101.794 E2.64128
G1 X100.000 Y101.723 E2.67429
G1 X100.589 Y101.800 E2.71030
G1 X101.139 Y102.028 E2.74631
G1 X101.610 Y102.390 E2.78232
G1 X101.972 Y102.861 E2.81833
G1 X102.200 Y103.411 E2.85434
G1 X102.218 Y103.552 E2.86300
G1 X102.585 Y103.748 F9000.000
G1 X101.529 Y100.895 F9000.000
G1 F900
G1 X100.902 Y100.635 E2.91681
G1 X100.000 Y100.516 E2.98891
G1 X99.160 Y100.627 E3.05605
G1 X98.471 Y100.895 E3.11468
G1 X98.471 Y98.576 E3.29854
G1 X99.228 Y98.889 E3.36345
G1 X100.000 Y98.991 E3.42520
G1 X100.772 Y98.889 E3.48696
G1 X101.529 Y98.576 E3.55187
G1 X101.529 Y100.820 E3.72975
G1 X102.164 Y102.108 F9000.000
G1 F900
G1 X101.421 Y101.538 E3.80399
G1 X100.736 Y101.254 E3.86283
G1 X100.000 Y101.157 E3.92166
G1 X99.319 Y101.247 E3.97608
G1 X98.586 Y101.533 E4.03850
G1 X97.836 Y102.108 E4.11346
G1 X97.836 Y97.427 E4.48458
G1 X98.094 Y97.339 E4.50625
G1 X98.343 Y97.664 E4.53868
G1 X98.829 Y98.036 E4.58716
G1 X99.394 Y98.270 E4.63564
G1 X100.000 Y98.350 E4.68413
G1 X100.606 Y98.270 E4.73262
G1 X101.171 Y98.036 E4.78110
G1 X101.657 Y97.664 E4.82959
G1 X101.906 Y97.339 E4.86201
G1 X102.164 Y97.427 E4.88368
G1 X102.164 Y102.033 E5.24885
G1 X100.460 Y97.724 F9000.000
G1 F900
G1 X100.000 Y97.784 E5.27696
G1 X99.540 Y97.724 E5.30506
G1 X99.111 Y97.546 E5.33316
G1 X98.743 Y97.264 E5.36127
G1 X98.461 Y96.896 E5.38937
G1 X98.283 Y96.467 E5.41747
G1 X98.223 Y96.007 E5.44558
G1 X98.283 Y95.547 E5.47368
G1 X98.461 Y95.118 E5.50178
G1 X98.743 Y94.750 E5.52989
G1 X99.111 Y94.468 E5.55799
G1 X99.540 Y94.290 E5.58610
G1 X100.000 Y94.230 E5.61420
G1 X100.460 Y94.290 E5.64230
G1 X100.889 Y94.468 E5.67040
G1 X101.257 Y94.750 E5.69851
G1 X101.539 Y95.118 E5.72661
G1 X101.717 Y95.547 E5.75471
G1 X101.777 Y96.007 E5.78282
G1 X101.717 Y96.467 E5.81092
G1 X101.539 Y96.896 E5.83903
G1 X101.257 Y97.264 E5.86713
G1 X100.889 Y97.546 E5.89523
G1 X100.529 Y97.695 E5.91879
G1 X100.460 Y97.724 F9000.000
G1 E3.91879 F2400.00000
G92 E0
G1 X101.529 Y93.438 F9000.000
G1 E2.00000 F2400.00000
G1 F900
G1 X100.772 Y93.125 E2.06492
G1 X100.000 Y93.023 E2.12667
G1 X99.228 Y93.125 E2.18841
G1 X98.471 Y93.438 E2.25333
G1 X98.471 Y91.471 E2.40925
G1 X101.529 Y91.471 E2.65164
G1 X101.529 Y93.363 E2.80161
G1 X102.164 Y94.587 F9000.000
G1 F900
G1 X101.906 Y94.675 E2.82328
G1 X101.657 Y94.350 E2.85570
G1 X101.171 Y93.978 E2.90419
G1 X100.606 Y93.744 E2.95268
G1 X100.000 Y93.664 E3.00116
G1 X99.394 Y93.744 E3.04964
G1 X98.829 Y93.978 E3.09813
G1 X98.343 Y94.350 E3.14662
G1 X98.094 Y94.675 E3.17904
G1 X97.836 Y94.587 E3.20071
G1 X97.836 Y90.836 E3.49810
G1 X102.164 Y90.836 E3.84128
G1 X102.164 Y94.512 E4.13272
G1 E2.13272 F2400.00000
G92 E0
G1 X101.529 Y107.105 F9000.000
G1 E2.00000 F2400.00000
G1 F900
G1 X101.529 Y108.529 E2.11283
G1 X98.471 Y108.529 E2.35523
G1 X98.471 Y107.105 E2.46806
G1 X99.098 Y107.365 E2.52187
G1 X100.000 Y107.484 E2.59397
G1 X100.902 Y107.365 E2.66607
G1 X101.459 Y107.134 E2.71394
G1 X102.164 Y105.892 F9000.000
G1 F900
G1 X102.164 Y109.164 E2.97337
G1 X97.836 Y109.164 E3.31655
G1 X97.836 Y105.892 E3.57598
G1 X98.579 Y106.462 E3.65022
G1 X99.264 Y106.746 E3.70906
G1 X100.000 Y106.843 E3.76789
G1 X100.736 Y106.746 E3.82672
G1 X101.421 Y106.462 E3.88556
G1 X102.105 Y105.938 E3.95386
G1 X102.725 Y109.725 F9000.000
G1 F1800
G1 X97.275 Y109.725 E4.28396
G1 X97.275 Y90.275 E5.46203
G1 X102.725 Y90.275 E5.79213
G1 X102.725 Y109.650 E6.96566
G1 X102.271 Y109.515 F9000.000
G1 X101.211 Y107.929 F9000.000
G1 F1200
G1 X100.421 Y107.981 E7.01148
G1 F1200
G1 X99.973 Y108.007 E7.03298
G1 X99.184 Y107.955 E7.07088
G1 F1200
G1 X98.789 Y107.929 E7.09379
G1 X97.992 Y105.613 F9000.000
G1 F1200
G1 X97.713 Y105.334 E7.09702
G1 F1200
G1 X97.555 Y105.131 E7.10091
G1 X97.555 Y102.870 F9000.000
G1 F1200
G1 X97.713 Y102.666 E7.10479
G1 F1200
G1 X97.992 Y102.388 E7.10801
G1 X99.354 Y100.133 F9000.000
G1 F1200
G1 X99.354 Y100.240 E7.11820
G1 X99.449 Y100.227 E7.12729
G1 X98.860 Y99.638 E7.20654
G1 X98.860 Y99.267 E7.24186
G1 X99.674 Y99.374 E7.32005
G1 X100.449 Y100.149 E7.42422
G1 X101.140 Y99.762 F9000.000
G1 F1200
G1 X100.646 Y99.267 E7.49073
G1 X101.574 Y98.173 F9000.000
G1 F1200
