; generated by PrusaSlicer 2.6.0+win64 on 2023-07-08 at 23:42:06 UTC

; 

; external perimeters extrusion width = 0.42mm
; perimeters extrusion width = 0.44mm
; infill extrusion width = 0.44mm
; solid infill extrusion width = 0.44mm
; top infill extrusion width = 0.40mm
; first layer extrusion width = 0.42mm

M201 X500 Y500 Z100 E5000 ; sets maximum accelerations, mm/sec^2
M203 X500 Y500 Z10 E60 ; sets maximum feedrates, mm / sec
M204 S500 T1000 ; sets acceleration (S) and retract acceleration (R), mm/sec^2
M205 X8.00 Y8.00 Z0.40 E5.00 ; sets the jerk limits, mm/sec
M205 S0 T0 ; sets the minimum extruding and travel feed rate, mm/sec
;TYPE:Custom
G90 ; use absolute coordinates
M83 ; extruder relative mode
M104 S150 ; set temporary nozzle temp to prevent oozing during homing
M140 S100 ; set final bed temp
G4 S30 ; allow partial nozzle warmup
G28 ; home all axis
G29 ; auto-bed-level
G1 Z50 F240
G1 X2.0 Y10 F3000
M104 S240 ; set final nozzle temp
M190 S100 ; wait for bed temp to stabilize
M109 S240 ; wait for nozzle temp to stabilize
G1 Z0.28 F240
G92 E0
G1 X2.0 Y140 E10 F1500 ; prime the nozzle
G1 X2.3 Y140 F5000
G92 E0
G1 X2.3 Y10 E10 F1200 ; prime the nozzle
G92 E0
G21 ; set units to millimeters
G90 ; use absolute coordinates
M83 ; use relative distances for extrusion
; Filament gcode
M107
;LAYER_CHANGE
;Z:0.35
;HEIGHT:0.35
;BEFORE_LAYER_CHANGE
G92 E0
;0.35


G1 E-5 F3600
G1 Z.35 F10200
;AFTER_LAYER_CHANGE
;0.35
G1 X70.94 Y78.143
G1 E5 F2400
M204 S500
;TYPE:Skirt/Brim
;WIDTH:0.42
G1 F1200
G1 X74.725 Y75.938 E.21984
G1 X79.051 Y74.942 E.22278
G1 X140.794 Y74.946 E3.09863
G1 X143.723 Y75.418 E.14889
G1 X146.541 Y76.474 E.15103
G1 X150.114 Y79.056 E.22123
G1 X153.184 Y83.333 E.26422
G1 X154.558 Y88.464 E.26658
G1 X154.531 Y128.785 E2.02355
G1 X153.884 Y131.974 E.1633
G1 X152.598 Y134.947 E.16256
G1 X149.06 Y138.962 E.26857
G1 X145.275 Y141.167 E.21984
G1 X140.95 Y142.163 E.22274
G1 X79.094 Y142.163 E3.1043
G1 X75.783 Y141.536 E.16912
G1 X72.662 Y140.205 E.17028
G1 X68.643 Y136.665 E.26878
G1 X66.438 Y132.88 E.21984
G1 X65.442 Y128.555 E.22274
G1 X65.442 Y88.594 E2.00548
G1 X66.069 Y85.283 E.16912
G1 X67.4 Y82.162 E.17028
G1 X70.9 Y78.188 E.26576
G1 X71.159 Y78.416 F10200
G1 F1200
G1 X74.875 Y76.25 E.21586
G1 X79.07 Y75.287 E.21601
G1 X140.78 Y75.29 E3.09697
G1 X143.651 Y75.756 E.14597
G1 X146.398 Y76.789 E.14729
G1 X149.888 Y79.319 E.21633
G1 X152.885 Y83.508 E.25849
G1 X154.213 Y88.486 E.25856
G1 X154.19 Y128.733 E2.01983
G1 X153.56 Y131.853 E.15974
G1 X152.292 Y134.785 E.16032
G1 X148.82 Y138.713 E.2631
G1 X145.125 Y140.855 E.21434
G1 X140.93 Y141.818 E.21601
G1 X79.11 Y141.818 E3.10249
G1 X75.866 Y141.201 E.16572
G1 X72.823 Y139.899 E.16611
G1 X68.892 Y136.425 E.26328
G1 X66.75 Y132.73 E.21434
G1 X65.787 Y128.535 E.21601
G1 X65.787 Y88.61 E2.00367
G1 X66.404 Y85.366 E.16572
G1 X67.706 Y82.323 E.16611
G1 X71.119 Y78.461 E.25866
G1 X71.377 Y78.69 F10200
G1 F1200
G1 X71.419 Y78.642 E.0032
G1 X75.025 Y76.561 E.20894
G1 X79.09 Y75.632 E.20927
G1 X140.766 Y75.635 E3.09527
G1 X143.578 Y76.094 E.14299
G1 X146.254 Y77.103 E.14353
G1 X149.663 Y79.581 E.21151
G1 X152.56 Y83.628 E.24978
G1 X153.868 Y88.509 E.2536
G1 X153.848 Y128.682 E2.01612
G1 X153.226 Y131.767 E.15794
G1 X151.987 Y134.623 E.15624
G1 X148.581 Y138.463 E.2576
G1 X144.975 Y140.544 E.20894
G1 X140.911 Y141.473 E.20922
G1 X79.126 Y141.473 E3.10074
G1 X75.95 Y140.866 E.16228
G1 X72.985 Y139.593 E.16194
G1 X69.142 Y136.186 E.25774
G1 X67.061 Y132.58 E.20894
G1 X66.132 Y128.516 E.20922
G1 X66.132 Y88.626 E2.00192
G1 X66.739 Y85.45 E.16228
G1 X68.012 Y82.485 E.16194
G1 X71.337 Y78.735 E.25152
G1 X71.594 Y78.964 F10200
G1 F1200
G1 X71.658 Y78.892 E.00483
G1 X75.127 Y76.892 E.20096
G1 X79.109 Y75.977 E.20505
G1 X140.752 Y75.98 E3.09361
G1 X143.505 Y76.431 E.14
G1 X146.11 Y77.417 E.13979
G1 X149.437 Y79.843 E.20664
G1 X152.261 Y83.802 E.24405
G1 X153.523 Y88.531 E.24563
G1 X153.507 Y128.631 E2.01246
G1 X152.902 Y131.647 E.15438
G1 X151.681 Y134.46 E.1539
G1 X148.342 Y138.213 E.2521
G1 X144.873 Y140.213 E.20096
G1 X140.891 Y141.128 E.20505
G1 X79.143 Y141.128 E3.09888
G1 X76.068 Y140.541 E.15711
G1 X73.146 Y139.287 E.15958
G1 X69.392 Y135.947 E.25217
G1 X67.392 Y132.478 E.20096
G1 X66.477 Y128.496 E.20505
G1 X66.477 Y88.642 E2.00011
G1 X67.064 Y85.568 E.15706
G1 X68.318 Y82.646 E.15958
G1 X71.554 Y79.009 E.24432
G1 X71.812 Y79.238 F10200
G1 F1200
G1 X71.897 Y79.143 E.0064
G1 X75.277 Y77.204 E.19556
G1 X79.129 Y76.322 E.19832
G1 X140.738 Y76.325 E3.0919
G1 X143.432 Y76.769 E.13702
G1 X145.966 Y77.731 E.13603
G1 X149.211 Y80.105 E.20178
G1 X151.962 Y83.977 E.23837
G1 X153.178 Y88.553 E.23762
G1 X153.165 Y128.58 E2.00879
G1 X152.578 Y131.526 E.15075
G1 X151.376 Y134.297 E.15159
G1 X148.103 Y137.962 E.2466
G1 X144.724 Y139.901 E.19551
G1 X140.872 Y140.783 E.19832
G1 X79.159 Y140.783 E3.09712
G1 X76.152 Y140.206 E.15366
G1 X73.309 Y138.981 E.15536
G1 X69.643 Y135.708 E.24664
G1 X67.704 Y132.329 E.19551
G1 X66.822 Y128.477 E.19832
G1 X66.822 Y88.659 E1.9983
G1 X67.399 Y85.652 E.15366
G1 X68.624 Y82.809 E.15536
G1 X71.772 Y79.283 E.23722
G1 X72.028 Y79.513 F10200
G1 F1200
G1 X72.135 Y79.394 E.00803
G1 X75.425 Y77.516 E.19012
G1 X79.148 Y76.667 E.19164
G1 X140.724 Y76.67 E3.09025
G1 X143.326 Y77.097 E.13233
G1 X145.821 Y78.046 E.13397
G1 X148.985 Y80.367 E.19693
G1 X151.637 Y84.096 E.22964
G1 X152.833 Y88.576 E.23271
G1 X152.824 Y128.53 E2.00513
G1 X152.244 Y131.441 E.14896
G1 X151.071 Y134.134 E.14741
G1 X147.865 Y137.711 E.24107
G1 X144.575 Y139.589 E.19012
G1 X140.853 Y140.438 E.19159
G1 X79.175 Y140.438 E3.09537
G1 X76.236 Y139.871 E.15022
G1 X73.471 Y138.676 E.15117
G1 X69.894 Y135.47 E.24107
G1 X68.016 Y132.18 E.19012
G1 X67.167 Y128.458 E.19159
G1 X67.167 Y88.675 E1.99655
G1 X67.734 Y85.736 E.15022
G1 X68.929 Y82.971 E.15117
G1 X71.988 Y79.558 E.23001
G1 X72.244 Y79.788 F10200
G1 F1200
G1 X72.372 Y79.646 E.00959
G1 X75.573 Y77.828 E.18475
G1 X79.167 Y77.012 E.18496
G1 X140.709 Y77.015 E3.08854
G1 X143.252 Y77.435 E.12935
G1 X145.676 Y78.359 E.13019
G1 X148.758 Y80.628 E.19207
G1 X151.338 Y84.27 E.22399
G1 X152.488 Y88.598 E.22474
G1 X152.482 Y128.479 E2.00146
G1 X151.92 Y131.32 E.14534
G1 X150.766 Y133.97 E.14506
G1 X147.628 Y137.459 E.2355
G1 X144.427 Y139.277 E.18475
G1 X140.833 Y140.093 E.18496
G1 X79.192 Y140.093 E3.09351
G1 X76.32 Y139.536 E.14682
G1 X73.634 Y138.371 E.14693
G1 X70.146 Y135.233 E.23546
G1 X68.328 Y132.032 E.18475
G1 X67.512 Y128.439 E.18491
G1 X67.512 Y88.692 E1.99474
G1 X68.069 Y85.82 E.14682
G1 X69.234 Y83.134 E.14693
G1 X72.204 Y79.833 E.22285
G1 X72.46 Y80.063 F10200
G1 F1200
G1 X72.609 Y79.897 E.01119
G1 X75.675 Y78.159 E.17687
G1 X79.187 Y77.356 E.1808
G1 X140.695 Y77.36 E3.08684
G1 X143.178 Y77.772 E.12632
G1 X145.531 Y78.673 E.12645
G1 X148.53 Y80.889 E.18714
G1 X151.038 Y84.443 E.2183
G1 X152.144 Y88.621 E.2169
G1 X152.14 Y128.429 E1.9978
G1 X151.596 Y131.2 E.14172
G1 X150.461 Y133.807 E.1427
G1 X147.391 Y137.208 E.22994
G1 X144.326 Y138.946 E.17683
G1 X140.814 Y139.749 E.1808
G1 X79.209 Y139.749 E3.0917
G1 X76.405 Y139.201 E.14338
G1 X73.798 Y138.066 E.1427
G1 X70.397 Y134.996 E.22994
G1 X68.659 Y131.931 E.17683
G1 X67.856 Y128.419 E.1808
G1 X67.856 Y88.709 E1.99288
G1 X68.404 Y85.905 E.14338
G1 X69.539 Y83.298 E.1427
G1 X72.419 Y80.108 E.21569
G1 X72.675 Y80.339 F10200
G1 F1200
G1 X72.846 Y80.15 E.01279
G1 X75.822 Y78.472 E.17146
G1 X79.206 Y77.701 E.17418
G1 X140.681 Y77.705 E3.08518
G1 X143.104 Y78.109 E.12328
G1 X145.385 Y78.986 E.12264
G1 X148.303 Y81.149 E.18229
G1 X150.713 Y84.562 E.20968
G1 X151.799 Y88.643 E.21194
G1 X151.799 Y128.379 E1.99419
G1 X151.262 Y131.115 E.13993
G1 X150.156 Y133.643 E.13848
G1 X147.154 Y136.955 E.22433
G1 X144.178 Y138.633 E.17146
G1 X140.795 Y139.404 E.17413
G1 X79.226 Y139.404 E3.0899
G1 X76.49 Y138.867 E.13993
G1 X73.962 Y137.761 E.13848
G1 X70.65 Y134.759 E.22433
G1 X68.972 Y131.783 E.17146
G1 X68.201 Y128.4 E.17413
G1 X68.201 Y88.726 E1.99108
G1 X68.738 Y85.99 E.13993
G1 X69.844 Y83.462 E.13848
G1 X72.634 Y80.384 E.20849
G1 X72.889 Y80.615 F10200
G1 F1200
G1 X73.082 Y80.403 E.01439
G1 X75.969 Y78.785 E.16609
G1 X79.225 Y78.046 E.16756
G1 X140.667 Y78.05 E3.08352
G1 X142.997 Y78.438 E.11854
G1 X145.239 Y79.3 E.12055
G1 X148.075 Y81.409 E.17737
G1 X150.413 Y84.735 E.20403
G1 X151.454 Y88.665 E.20403
G1 X151.454 Y128.362 E1.99223
G1 X150.927 Y131.029 E.13643
G1 X149.852 Y133.478 E.13422
G1 X146.918 Y136.702 E.21877
G1 X144.032 Y138.32 E.16605
G1 X140.776 Y139.059 E.16756
G1 X79.243 Y139.059 E3.08809
G1 X76.576 Y138.532 E.13643
G1 X74.127 Y137.457 E.13422
G1 X70.903 Y134.523 E.21877
G1 X69.285 Y131.637 E.16605
G1 X68.546 Y128.381 E.16756
G1 X68.546 Y88.743 E1.98927
G1 X69.073 Y86.076 E.13643
G1 X70.148 Y83.627 E.13422
G1 X72.848 Y80.66 E.20133
G1 X73.102 Y80.892 F10200
G1 F1200
G1 X73.318 Y80.656 E.01606
G1 X76.115 Y79.098 E.16068
G1 X79.244 Y78.391 E.16099
G1 X140.652 Y78.394 E3.08182
G1 X142.922 Y78.775 E.11552
G1 X145.093 Y79.613 E.11679
G1 X147.846 Y81.669 E.17244
G1 X150.088 Y84.853 E.19543
G1 X151.109 Y88.688 E.19917
G1 X151.109 Y128.345 E1.99022
G1 X150.592 Y130.943 E.13294
G1 X149.548 Y133.313 E.12997
G1 X146.682 Y136.449 E.21321
G1 X143.886 Y138.007 E.16063
G1 X140.756 Y138.714 E.16104
G1 X79.26 Y138.714 E3.08623
G1 X76.662 Y138.197 E.13294
G1 X74.292 Y137.153 E.12997
G1 X71.156 Y134.287 E.21321
G1 X69.598 Y131.491 E.16063
G1 X68.891 Y128.361 E.16104
G1 X68.891 Y88.76 E1.98741
G1 X69.408 Y86.162 E.13294
G1 X70.452 Y83.792 E.12997
G1 X73.062 Y80.936 E.19417
G1 X73.315 Y81.169 F10200
G1 F1200
G1 X73.553 Y80.91 E.01765
G1 X76.215 Y79.429 E.15288
G1 X79.263 Y78.736 E.15687
G1 X140.638 Y78.739 E3.08016
G1 X142.848 Y79.112 E.11248
G1 X144.946 Y79.926 E.11294
G1 X147.617 Y81.929 E.16755
G1 X149.788 Y85.026 E.18981
G1 X150.764 Y88.71 E.19126
G1 X150.764 Y128.328 E1.98827
G1 X150.258 Y130.857 E.12944
G1 X149.244 Y133.148 E.12573
G1 X146.447 Y136.195 E.20757
G1 X143.785 Y137.676 E.15288
G1 X140.737 Y138.369 E.15687
G1 X79.277 Y138.369 E3.08443
G1 X76.748 Y137.863 E.12944
G1 X74.457 Y136.849 E.12573
G1 X71.41 Y134.052 E.20757
G1 X69.929 Y131.39 E.15288
G1 X69.236 Y128.342 E.15687
G1 X69.236 Y88.777 E1.98561
G1 X69.742 Y86.248 E.12944
G1 X70.756 Y83.957 E.12573
G1 X73.275 Y81.213 E.18694
G1 X73.528 Y81.446 F10200
G1 F1200
G1 X73.787 Y81.164 E.01922
G1 X76.36 Y79.743 E.14751
G1 X79.283 Y79.081 E.15041
G1 X140.623 Y79.084 E3.0784
G1 X142.772 Y79.449 E.10939
G1 X144.798 Y80.238 E.10911
G1 X147.388 Y82.187 E.16267
G1 X149.487 Y85.198 E.1842
G1 X150.419 Y88.732 E.18342
G1 X150.419 Y128.311 E1.98631
G1 X149.924 Y130.77 E.12588
G1 X148.94 Y132.981 E.12145
G1 X146.213 Y135.941 E.20198
G1 X143.64 Y137.362 E.14751
G1 X140.718 Y138.024 E.15036
G1 X79.294 Y138.024 E3.08262
G1 X76.835 Y137.529 E.12588
G1 X74.624 Y136.545 E.12145
G1 X71.664 Y133.818 E.20198
G1 X70.243 Y131.245 E.14751
G1 X69.581 Y128.323 E.15036
G1 X69.581 Y88.794 E1.9838
G1 X70.076 Y86.335 E.12588
G1 X71.06 Y84.124 E.12145
G1 X73.487 Y81.49 E.17975
G1 X73.739 Y81.724 F10200
G1 F1200
G1 X74.021 Y81.419 E.02085
G1 X76.505 Y80.057 E.14217
G1 X79.302 Y79.426 E.1439
G1 X140.609 Y79.429 E3.07675
G1 X142.664 Y79.777 E.1046
G1 X144.651 Y80.551 E.10702
G1 X147.158 Y82.446 E.15772
G1 X149.162 Y85.316 E.17567
G1 X150.074 Y88.755 E.17856
G1 X150.074 Y128.294 E1.9843
G1 X149.59 Y130.682 E.12228
G1 X148.637 Y132.815 E.11725
G1 X145.979 Y135.686 E.19635
G1 X143.496 Y137.048 E.14213
G1 X140.699 Y137.679 E.1439
G1 X79.311 Y137.679 E3.08081
G1 X76.923 Y137.195 E.12228
G1 X74.79 Y136.242 E.11725
G1 X71.919 Y133.584 E.19635
G1 X70.557 Y131.101 E.14213
G1 X69.926 Y128.304 E.1439
G1 X69.926 Y88.811 E1.98199
G1 X70.41 Y86.423 E.12228
G1 X71.363 Y84.29 E.11725
G1 X73.699 Y81.768 E.17252
G1 X73.95 Y82.002 F10200
G1 F1200
G1 X74.254 Y81.675 E.02241
G1 X76.648 Y80.371 E.13681
G1 X79.321 Y79.771 E.13748
G1 X140.594 Y79.774 E3.07504
G1 X142.588 Y80.114 E.10152
G1 X144.503 Y80.863 E.1032
G1 X146.928 Y82.704 E.1528
G1 X148.861 Y85.487 E.17005
G1 X149.729 Y88.777 E.17076
G1 X149.729 Y128.276 E1.98229
G1 X149.256 Y130.594 E.11873
G1 X148.334 Y132.647 E.11294
G1 X145.746 Y135.43 E.19073
G1 X143.352 Y136.734 E.13681
G1 X140.68 Y137.334 E.13744
G1 X79.329 Y137.334 E3.07896
G1 X77.011 Y136.861 E.11873
G1 X74.958 Y135.939 E.11294
G1 X72.175 Y133.351 E.19073
G1 X70.871 Y130.957 E.13681
G1 X70.271 Y128.285 E.13744
G1 X70.271 Y88.829 E1.98014
G1 X70.744 Y86.511 E.11873
G1 X71.666 Y84.458 E.11294
G1 X73.909 Y82.046 E.1653
G1 X74.16 Y82.28 F10200
G1 F1200
G1 X74.487 Y81.931 E.024
G1 X76.748 Y80.702 E.12915
G1 X79.34 Y80.116 E.13336
G1 X140.579 Y80.119 E3.07334
G1 X142.512 Y80.45 E.09842
G1 X144.354 Y81.175 E.09935
G1 X146.697 Y82.962 E.14788
G1 X148.56 Y85.658 E.16446
G1 X149.384 Y88.799 E.16297
G1 X149.384 Y128.258 E1.98029
G1 X148.922 Y130.506 E.11518
G1 X148.032 Y132.479 E.10862
G1 X145.513 Y135.174 E.18513
G1 X143.253 Y136.403 E.12911
G1 X140.66 Y136.989 E.13341
G1 X79.347 Y136.989 E3.07705
G1 X77.099 Y136.527 E.11518
G1 X75.126 Y135.637 E.10862
G1 X72.431 Y133.118 E.18513
G1 X71.202 Y130.858 E.12911
G1 X70.616 Y128.265 E.13341
G1 X70.616 Y88.847 E1.97823
G1 X71.078 Y86.599 E.11518
G1 X71.968 Y84.626 E.10862
G1 X74.119 Y82.324 E.15811
G1 X74.37 Y82.559 F10200
G1 F1200
G1 X74.719 Y82.188 E.02556
G1 X76.89 Y81.017 E.12379
G1 X79.359 Y80.46 E.12702
G1 X140.564 Y80.464 E3.07163
G1 X142.436 Y80.787 E.09534
G1 X144.204 Y81.487 E.09543
G1 X146.466 Y83.219 E.14298
G1 X148.234 Y85.776 E.15601
G1 X149.04 Y88.822 E.15813
G1 X149.04 Y128.241 E1.97828
G1 X148.588 Y130.417 E.11154
G1 X147.73 Y132.311 E.10435
G1 X145.281 Y134.917 E.17947
G1 X143.11 Y136.088 E.12379
G1 X140.641 Y136.645 E.12702
G1 X79.364 Y136.645 E3.07524
G1 X77.188 Y136.193 E.11154
G1 X75.294 Y135.335 E.10435
G1 X72.688 Y132.886 E.17947
G1 X71.517 Y130.715 E.12379
G1 X70.96 Y128.246 E.12702
G1 X70.96 Y88.864 E1.97642
G1 X71.412 Y86.688 E.11154
G1 X72.27 Y84.794 E.10435
G1 X74.329 Y82.603 E.15089
G1 X74.578 Y82.839 F10200
G1 F1200
G1 X74.95 Y82.445 E.02719
G1 X77.032 Y81.332 E.11848
G1 X79.378 Y80.805 E.12067
G1 X140.549 Y80.809 E3.06992
G1 X142.359 Y81.124 E.0922
G1 X144.054 Y81.798 E.09154
G1 X146.234 Y83.475 E.13803
G1 X147.933 Y85.946 E.15049
G1 X148.695 Y88.844 E.15038
G1 X148.695 Y128.223 E1.97627
G1 X148.254 Y130.327 E.10789
G1 X147.428 Y132.142 E.10008
G1 X145.05 Y134.66 E.17381
G1 X142.968 Y135.773 E.11848
G1 X140.622 Y136.3 E.12067
G1 X79.382 Y136.3 E3.07339
G1 X77.278 Y135.859 E.10789
G1 X75.463 Y135.033 E.10008
G1 X72.945 Y132.655 E.17381
G1 X71.832 Y130.573 E.11848
G1 X71.305 Y128.227 E.12067
G1 X71.305 Y88.882 E1.97456
G1 X71.746 Y86.778 E.10789
G1 X72.572 Y84.963 E.10008
G1 X74.537 Y82.882 E.14364
G1 X74.786 Y83.119 F10200
G1 F1200
G1 X75.18 Y82.703 E.02875
G1 X77.172 Y81.648 E.11313
G1 X79.397 Y81.15 E.11443
G1 X140.534 Y81.154 E3.06822
G1 X142.248 Y81.451 E.0873
G1 X143.904 Y82.11 E.08945
G1 X146.001 Y83.732 E.13305
G1 X147.608 Y86.063 E.14209
G1 X148.35 Y88.866 E.14552
G1 X148.35 Y128.205 E1.97426
G1 X147.921 Y130.237 E.10423
G1 X147.126 Y131.972 E.09578
G1 X144.82 Y134.402 E.16812
G1 X142.828 Y135.457 E.11313
G1 X140.603 Y135.955 E.11443
G1 X79.4 Y135.955 E3.07153
G1 X77.368 Y135.526 E.10423
G1 X75.633 Y134.731 E.09578
G1 X73.203 Y132.425 E.16812
G1 X72.148 Y130.433 E.11313
G1 X71.65 Y128.208 E.11443
G1 X71.65 Y88.9 E1.97271
G1 X72.079 Y86.868 E.10423
G1 X72.874 Y85.133 E.09578
G1 X74.745 Y83.162 E.13639
G1 X74.993 Y83.399 F10200
G1 F1200
G1 X75.41 Y82.962 E.03031
G1 X77.312 Y81.964 E.1078
G1 X79.416 Y81.495 E.10818
G1 X140.519 Y81.498 E3.06651
G1 X142.17 Y81.788 E.08413
G1 X143.753 Y82.421 E.08556
G1 X145.768 Y83.987 E.12807
G1 X147.306 Y86.234 E.13665
G1 X148.005 Y88.888 E.13774
G1 X148.005 Y128.186 E1.97221
G1 X147.588 Y130.146 E.10057
G1 X146.825 Y131.801 E.09146
G1 X144.59 Y134.143 E.16247
G1 X142.688 Y135.141 E.1078
G1 X140.585 Y135.61 E.10813
G1 X79.419 Y135.61 E3.06967
G1 X77.459 Y135.193 E.10057
G1 X75.804 Y134.43 E.09146
G1 X73.462 Y132.195 E.16247
G1 X72.464 Y130.293 E.1078
G1 X71.995 Y128.19 E.10813
G1 X71.995 Y88.919 E1.97085
G1 X72.412 Y86.959 E.10057
G1 X73.175 Y85.304 E.09146
