; generated by Slic3r 1.3.0 on 2023-06-18 at 11:50:32

; external perimeters extrusion width = 0.44mm (2.38mm^3/s)
; perimeters extrusion width = 0.56mm (6.20mm^3/s)
; infill extrusion width = 0.50mm (8.23mm^3/s)
; solid infill extrusion width = 0.56mm (2.07mm^3/s)
; top infill extrusion width = 0.56mm (1.55mm^3/s)

M190 S100 ; set bed temperature and wait for it to be reached
M104 S240 ; set temperature
G28 ; home all axes
G29 ; auto-bed-level
G1 Z5 F5000 ; lift nozzle

; Filament gcode

M109 S240 ; set temperature and wait for it to be reached
G21 ; set units to millimeters
G90 ; use absolute coordinates
M82 ; use absolute distances for extrusion
G92 E0
G1 Z0.350 F10200.000
G1 E-2.00000 F2400.00000
G92 E0
G1 X23.628 Y107.936 F10200.000
G1 E2.00000 F2400.00000
G1 F1800
G1 X23.628 Y67.668 E5.66216
G1 X31.168 Y60.128 E6.63196
G1 X178.832 Y60.128 E20.06132
G1 X186.372 Y67.668 E21.03112
G1 X186.372 Y132.332 E26.91199
G1 X178.832 Y139.872 E27.88179
G1 X21.168 Y139.872 E42.22060
G1 X13.628 Y132.332 E43.19040
G1 X13.628 Y115.668 E44.70588
G1 X21.168 Y108.128 E45.67568
G1 X23.436 Y108.128 E45.88190
G1 X23.586 Y107.978 E45.90117
G1 X24.253 Y108.561 F10200.000
G1 F1800
G1 X24.253 Y67.927 E49.59662
G1 X31.427 Y60.753 E50.51933
G1 X178.573 Y60.753 E63.90161
G1 X185.747 Y67.927 E64.82432
G1 X185.747 Y132.073 E70.65809
G1 X178.573 Y139.247 E71.58081
G1 X21.427 Y139.247 E85.87254
G1 X14.253 Y132.073 E86.79525
G1 X14.253 Y115.927 E88.26363
G1 X21.427 Y108.753 E89.18634
G1 X24.061 Y108.753 E89.42586
G1 X24.211 Y108.603 E89.44513
G1 X24.878 Y109.186 F10200.000
G1 F1800
G1 X24.878 Y68.186 E93.17388
G1 X31.686 Y61.378 E94.04950
G1 X178.314 Y61.378 E107.38469
G1 X185.122 Y68.186 E108.26031
G1 X185.122 Y131.814 E114.04700
G1 X178.314 Y138.622 E114.92262
G1 X21.686 Y138.622 E129.16726
G1 X14.878 Y131.814 E130.04288
G1 X14.878 Y116.186 E131.46418
G1 X21.686 Y109.378 E132.33980
G1 X24.686 Y109.378 E132.61262
G1 X24.836 Y109.228 E132.63188
G1 X25.503 Y109.811 F10200.000
G1 F1800
G1 X25.503 Y68.445 E136.39393
G1 X31.945 Y62.003 E137.22247
G1 X178.055 Y62.003 E150.51056
G1 X184.497 Y68.445 E151.33910
G1 X184.497 Y131.555 E157.07870
G1 X178.055 Y137.997 E157.90723
G1 X21.945 Y137.997 E172.10478
G1 X15.503 Y131.555 E172.93332
G1 X15.503 Y116.445 E174.30752
G1 X21.945 Y110.003 E175.13606
G1 X25.311 Y110.003 E175.44217
G1 X25.461 Y109.853 E175.46144
G1 X26.128 Y110.436 F10200.000
G1 F1800
G1 X26.128 Y68.704 E179.25678
G1 X32.204 Y62.628 E180.03823
G1 X177.796 Y62.628 E193.27924
G1 X183.872 Y68.704 E194.06068
G1 X183.872 Y131.296 E199.75319
G1 X177.796 Y137.372 E200.53464
G1 X22.204 Y137.372 E214.68510
G1 X16.128 Y131.296 E215.46654
G1 X16.128 Y116.704 E216.79366
G1 X22.204 Y110.628 E217.57511
G1 X25.936 Y110.628 E217.91452
G1 X26.086 Y110.478 E217.93378
G1 X26.753 Y111.061 F10200.000
G1 F1800
G1 X26.753 Y68.963 E221.76243
G1 X32.463 Y63.253 E222.49678
G1 X177.537 Y63.253 E235.69070
G1 X183.247 Y68.963 E236.42506
G1 X183.247 Y131.037 E242.07048
G1 X177.537 Y136.747 E242.80484
G1 X22.463 Y136.747 E256.90821
G1 X16.753 Y131.037 E257.64257
G1 X16.753 Y116.963 E258.92260
G1 X22.463 Y111.253 E259.65695
G1 X26.561 Y111.253 E260.02966
G1 X26.711 Y111.103 E260.04893
G1 X27.378 Y111.686 F10200.000
G1 F1800
G1 X27.378 Y69.222 E263.91087
G1 X32.722 Y63.878 E264.59814
G1 X177.278 Y63.878 E277.74496
G1 X182.622 Y69.222 E278.43223
G1 X182.622 Y130.778 E284.03057
G1 X177.278 Y136.122 E284.71783
G1 X22.722 Y136.122 E298.77412
G1 X17.378 Y130.778 E299.46139
G1 X17.378 Y117.222 E300.69433
G1 X22.722 Y111.878 E301.38160
G1 X27.186 Y111.878 E301.78760
G1 X27.336 Y111.728 E301.80687
G1 X28.003 Y112.311 F10200.000
G1 F1800
G1 X28.003 Y69.480 E305.70210
G1 X32.980 Y64.503 E306.34228
G1 X177.020 Y64.503 E319.44202
G1 X181.997 Y69.480 E320.08220
G1 X181.997 Y130.520 E325.63345
G1 X177.020 Y135.497 E326.27363
G1 X22.980 Y135.497 E340.28282
G1 X18.003 Y130.520 E340.92300
G1 X18.003 Y117.480 E342.10886
G1 X22.980 Y112.503 E342.74903
G1 X27.811 Y112.503 E343.18834
G1 X27.961 Y112.353 E343.20760
G1 X28.628 Y112.936 F10200.000
G1 F1800
G1 X28.628 Y69.739 E347.13613
G1 X33.239 Y65.128 E347.72922
G1 X176.761 Y65.128 E360.78188
G1 X181.372 Y69.739 E361.37497
G1 X181.372 Y130.261 E366.87912
G1 X176.761 Y134.872 E367.47221
G1 X23.239 Y134.872 E381.43432
G1 X18.628 Y130.261 E382.02741
G1 X18.628 Y117.739 E383.16618
G1 X23.239 Y113.128 E383.75927
G1 X28.436 Y113.128 E384.23187
G1 X28.586 Y112.978 E384.25113
G1 X29.253 Y113.561 F10200.000
G1 F1800
G1 X29.253 Y69.998 E388.21296
G1 X33.498 Y65.753 E388.75896
G1 X176.502 Y65.753 E401.76453
G1 X180.747 Y69.998 E402.31053
G1 X180.747 Y130.002 E407.76759
G1 X176.502 Y134.247 E408.31360
G1 X23.498 Y134.247 E422.22862
G1 X19.253 Y130.002 E422.77462
G1 X19.253 Y117.998 E423.86629
G1 X23.498 Y113.753 E424.41229
G1 X29.061 Y113.753 E424.91819
G1 X29.211 Y113.603 E424.93745
G1 X29.878 Y114.186 F10200.000
G1 F1800
G1 X29.878 Y70.257 E428.93258
G1 X33.757 Y66.378 E429.43149
G1 X176.243 Y66.378 E442.38997
G1 X180.122 Y70.257 E442.88888
G1 X180.122 Y129.743 E448.29886
G1 X176.243 Y133.622 E448.79777
G1 X23.757 Y133.622 E462.66571
G1 X19.878 Y129.743 E463.16462
G1 X19.878 Y118.257 E464.20921
G1 X23.757 Y114.378 E464.70812
G1 X29.686 Y114.378 E465.24731
G1 X29.836 Y114.228 E465.26658
G1 X30.503 Y114.811 F10200.000
G1 F1800
G1 X30.503 Y70.516 E469.29500
G1 X34.016 Y67.003 E469.74682
G1 X175.984 Y67.003 E482.65821
G1 X179.497 Y70.516 E483.11003
G1 X179.497 Y129.484 E488.47292
G1 X175.984 Y132.997 E488.92475
G1 X24.016 Y132.997 E502.74559
G1 X20.503 Y129.484 E503.19742
G1 X20.503 Y118.516 E504.19491
G1 X24.016 Y115.003 E504.64674
G1 X30.311 Y115.003 E505.21923
G1 X30.461 Y114.853 E505.23849
G1 X31.128 Y115.436 F10200.000
G1 F1800
G1 X31.128 Y70.775 E509.30021
G1 X34.275 Y67.628 E509.70495
G1 X175.725 Y67.628 E522.56924
G1 X178.872 Y70.775 E522.97398
G1 X178.872 Y129.225 E528.28978
G1 X175.725 Y132.372 E528.69452
G1 X24.275 Y132.372 E542.46827
G1 X21.128 Y129.225 E542.87301
G1 X21.128 Y118.775 E543.82342
G1 X24.275 Y115.628 E544.22815
G1 X30.936 Y115.628 E544.83394
G1 X31.086 Y115.478 E544.85320
G1 X31.753 Y116.061 F10200.000
G1 F1800
G1 X31.753 Y71.034 E548.94822
G1 X34.534 Y68.253 E549.30587
G1 X175.466 Y68.253 E562.12308
G1 X178.247 Y71.034 E562.48072
G1 X178.247 Y128.966 E567.74944
G1 X175.466 Y131.747 E568.10708
G1 X24.534 Y131.747 E581.83375
G1 X21.753 Y128.966 E582.19139
G1 X21.753 Y119.034 E583.09472
G1 X24.534 Y116.253 E583.45236
G1 X31.561 Y116.253 E584.09144
G1 X31.711 Y116.103 E584.11071
G1 X32.378 Y116.686 F10200.000
G1 F1800
G1 X32.378 Y71.293 E588.23902
G1 X34.793 Y68.878 E588.54958
G1 X175.207 Y68.878 E601.31970
G1 X177.622 Y71.293 E601.63026
G1 X177.622 Y128.707 E606.85188
G1 X175.207 Y131.122 E607.16244
G1 X24.793 Y131.122 E620.84202
G1 X22.378 Y128.707 E621.15258
G1 X22.378 Y119.293 E622.00881
G1 X24.793 Y116.878 E622.31937
G1 X32.186 Y116.878 E622.99175
G1 X32.336 Y116.728 E623.01101
G1 X33.003 Y117.311 F10200.000
G1 F1800
G1 X33.003 Y71.552 E627.17262
G1 X35.051 Y69.503 E627.43609
G1 X174.949 Y69.503 E640.15912
G1 X176.997 Y71.552 E640.42259
G1 X176.997 Y128.448 E645.59713
G1 X174.949 Y130.497 E645.86060
G1 X25.051 Y130.497 E659.49309
G1 X23.003 Y128.448 E659.75656
G1 X23.003 Y119.552 E660.56570
G1 X25.051 Y117.503 E660.82917
G1 X32.811 Y117.503 E661.53484
G1 X32.961 Y117.353 E661.55411
G1 X33.628 Y117.936 F10200.000
G1 F1800
G1 X33.628 Y71.810 E665.74902
G1 X35.310 Y70.128 E665.96540
G1 X174.690 Y70.128 E678.64134
G1 X176.372 Y71.810 E678.85772
G1 X176.372 Y128.190 E683.98517
G1 X174.690 Y129.872 E684.20155
G1 X25.310 Y129.872 E697.78695
G1 X23.628 Y128.190 E698.00333
G1 X23.628 Y119.810 E698.76538
G1 X25.310 Y118.128 E698.98176
G1 X33.436 Y118.128 E699.72074
G1 X33.586 Y117.978 E699.74000
G1 X34.253 Y118.561 F10200.000
G1 F1800
G1 X34.253 Y72.069 E703.96821
G1 X35.569 Y70.753 E704.13750
G1 X174.431 Y70.753 E716.76635
G1 X175.747 Y72.069 E716.93564
G1 X175.747 Y127.931 E722.01600
G1 X174.431 Y129.247 E722.18529
G1 X25.569 Y129.247 E735.72361
G1 X24.253 Y127.931 E735.89290
G1 X24.253 Y120.069 E736.60786
G1 X25.569 Y118.753 E736.77716
G1 X34.061 Y118.753 E737.54942
G1 X34.211 Y118.603 E737.56869
G1 X34.878 Y119.186 F10200.000
G1 F1800
G1 X34.878 Y72.328 E741.83019
G1 X35.828 Y71.378 E741.95239
G1 X174.172 Y71.378 E754.53416
G1 X175.122 Y72.328 E754.65636
G1 X175.122 Y127.672 E759.68963
G1 X174.172 Y128.622 E759.81184
G1 X25.828 Y128.622 E773.30306
G1 X24.878 Y127.672 E773.42526
G1 X24.878 Y120.328 E774.09314
G1 X25.828 Y119.378 E774.21534
G1 X34.686 Y119.378 E775.02091
G1 X34.836 Y119.228 E775.04017
G1 X35.503 Y119.811 F10200.000
G1 F1800
G1 X35.503 Y72.587 E779.33497
G1 X36.087 Y72.003 E779.41009
G1 X173.913 Y72.003 E791.94476
G1 X174.497 Y72.587 E792.01988
G1 X174.497 Y127.413 E797.00606
G1 X173.913 Y127.997 E797.08117
G1 X26.087 Y127.997 E810.52531
G1 X25.503 Y127.413 E810.60042
G1 X25.503 Y120.587 E811.22121
G1 X26.087 Y120.003 E811.29633
G1 X35.311 Y120.003 E812.13519
G1 X35.461 Y119.853 E812.15445
G1 X36.128 Y120.436 F10200.000
G1 F1800
G1 X36.128 Y72.846 E816.48255
G1 X36.346 Y72.628 E816.51057
G1 X173.654 Y72.628 E828.99816
G1 X173.872 Y72.846 E829.02619
G1 X173.872 Y127.154 E833.96528
G1 X173.654 Y127.372 E833.99331
G1 X26.346 Y127.372 E847.39035
G1 X26.128 Y127.154 E847.41838
G1 X26.128 Y120.846 E847.99208
G1 X26.346 Y120.628 E848.02010
G1 X35.936 Y120.628 E848.89226
G1 X36.086 Y120.478 E848.91153
G1 X36.850 Y121.350 F10200.000
G1 F1800
G1 X36.850 Y73.350 E853.27615
G1 X173.150 Y73.350 E865.66985
G1 X173.150 Y126.650 E870.51640
G1 X26.850 Y126.650 E883.81940
G1 X26.850 Y121.350 E884.30133
G1 X36.790 Y121.350 E885.20517
G1 X37.245 Y121.285 F10200.000
G1 X37.475 Y121.975 F10200.000
G1 F1800
G1 X37.475 Y73.975 E889.56979
G1 X172.525 Y73.975 E901.84985
G1 X172.525 Y126.025 E906.58276
G1 X27.475 Y126.025 E919.77212
G1 X27.475 Y121.975 E920.14040
G1 X37.415 Y121.975 E921.04424
G1 X38.100 Y122.600 F10200.000
G1 F1800
G1 X38.100 Y74.600 E925.40886
G1 X171.900 Y74.600 E937.57528
G1 X171.900 Y125.400 E942.19455
G1 X28.100 Y125.400 E955.27027
G1 X28.100 Y122.600 E955.52491
G1 X38.040 Y122.600 E956.42875
G1 X38.725 Y123.225 F10200.000
G1 F1800
G1 X38.725 Y75.225 E960.79337
G1 X171.275 Y75.225 E972.84615
G1 X171.275 Y124.775 E977.35177
G1 X28.725 Y124.775 E990.31385
G1 X28.725 Y123.225 E990.45485
G1 X38.665 Y123.225 E991.35869
G1 X39.037 Y124.000 F10200.000
G1 F1800
G1 X29.037 Y124.000 E992.59652
G1 E990.59652 F2400.00000
G92 E0
G1 X39.107 Y76.093 F10200.000
G1 E2.00000 F2400.00000
G1 F1800
G1 X39.593 Y75.607 E2.06257
G1 X40.478 Y75.607 E2.14311
G1 X39.106 Y76.978 E2.31963
G1 X39.106 Y77.862 E2.40017
G1 X41.362 Y75.607 E2.69058
G1 X42.247 Y75.607 E2.77113
G1 X39.106 Y78.747 E3.17544
G1 X39.106 Y79.632 E3.25598
G1 X43.132 Y75.607 E3.77420
G1 X44.017 Y75.607 E3.85474
G1 X39.106 Y80.517 E4.48686
G1 X39.106 Y81.401 E4.56740
G1 X44.901 Y75.607 E5.31342
G1 X45.786 Y75.607 E5.39396
G1 X39.106 Y82.286 E6.25389
G1 X39.106 Y83.171 E6.33443
G1 X46.671 Y75.607 E7.30825
G1 X47.555 Y75.607 E7.38879
G1 X39.106 Y84.055 E8.47652
G1 X39.106 Y84.940 E8.55706
G1 X48.440 Y75.607 E9.75869
G1 X49.325 Y75.607 E9.83923
G1 X39.106 Y85.825 E11.15476
G1 X39.106 Y86.710 E11.23530
G1 X50.210 Y75.607 E12.66473
G1 X51.094 Y75.607 E12.74527
G1 X39.106 Y87.594 E14.28860
G1 X39.106 Y88.479 E14.36914
G1 X51.979 Y75.607 E16.02638
G1 X52.864 Y75.607 E16.10692
G1 X39.106 Y89.364 E17.87805
G1 X39.106 Y90.249 E17.95859
G1 X53.749 Y75.607 E19.84363
G1 X54.633 Y75.607 E19.92417
G1 X39.106 Y91.133 E21.92311
G1 X39.106 Y92.018 E22.00365
G1 X55.518 Y75.607 E24.11649
G1 X56.403 Y75.607 E24.19703
G1 X39.106 Y92.903 E26.42377
G1 X39.106 Y93.788 E26.50431
G1 X57.288 Y75.607 E28.84496
G1 X58.172 Y75.607 E28.92550
G1 X39.106 Y94.672 E31.38004
G1 X39.106 Y95.557 E31.46058
G1 X59.057 Y75.607 E34.02903
G1 X59.942 Y75.607 E34.10957
G1 X39.106 Y96.442 E36.79192
G1 X39.106 Y97.327 E36.87246
G1 X60.827 Y75.607 E39.66871
G1 X61.711 Y75.607 E39.74925
G1 X39.106 Y98.211 E42.65940
G1 X39.106 Y99.096 E42.73994
G1 X62.596 Y75.607 E45.76399
G1 X63.481 Y75.607 E45.84453
G1 X39.106 Y99.981 E48.98249
G1 X39.106 Y100.865 E49.06303
G1 X64.365 Y75.607 E52.31489
G1 X65.250 Y75.607 E52.39543
G1 X39.106 Y101.750 E55.76118
G1 X39.106 Y102.635 E55.84172
G1 X66.135 Y75.607 E59.32138
G1 X67.020 Y75.607 E59.40192
G1 X39.106 Y103.520 E62.99548
G1 X39.106 Y104.404 E63.07603
G1 X67.904 Y75.607 E66.78349
G1 X68.789 Y75.607 E66.86403
G1 X39.106 Y105.289 E70.68539
G1 X39.106 Y106.174 E70.76593
G1 X69.674 Y75.607 E74.70120
G1 X70.559 Y75.607 E74.78174
G1 X39.106 Y107.059 E78.83090
G1 X39.106 Y107.943 E78.91145
G1 X71.443 Y75.607 E83.07451
G1 X72.328 Y75.607 E83.15505
G1 X39.106 Y108.828 E87.43202
G1 X39.106 Y109.713 E87.51256
G1 X73.213 Y75.607 E91.90344
G1 X74.098 Y75.607 E91.98398
G1 X39.106 Y110.598 E96.48875
G1 X39.106 Y111.482 E96.56929
G1 X74.982 Y75.607 E101.18797
G1 X75.867 Y75.607 E101.26851
G1 X39.106 Y112.367 E106.00108
G1 X39.106 Y113.252 E106.08162
G1 X76.752 Y75.607 E110.92810
G1 X77.636 Y75.607 E111.00864
G1 X39.106 Y114.137 E115.96902
G1 X39.106 Y115.021 E116.04956
G1 X78.521 Y75.607 E121.12384
G1 X79.406 Y75.607 E121.20438
G1 X39.106 Y115.906 E126.39256
G1 X39.106 Y116.791 E126.47310
G1 X80.291 Y75.607 E131.77519
G1 X81.175 Y75.607 E131.85573
G1 X39.106 Y117.675 E137.27171
G1 X39.106 Y118.560 E137.35226
G1 X82.060 Y75.607 E142.88214
G1 X82.945 Y75.607 E142.96268
G1 X39.106 Y119.445 E148.60647
G1 X39.106 Y120.330 E148.68701
G1 X83.830 Y75.607 E154.44470
G1 X84.714 Y75.607 E154.52524
G1 X39.106 Y121.214 E160.39683
G1 X39.106 Y122.099 E160.47738
G1 X85.599 Y75.607 E166.46287
G1 X86.484 Y75.607 E166.54341
G1 X39.106 Y122.984 E172.64280
G1 X39.106 Y123.155 E172.65841
G1 X39.419 Y123.155 E172.68685
G1 X39.419 Y123.556 E172.72335
G1 X87.369 Y75.607 E178.89642
G1 X88.253 Y75.607 E178.97696
G1 X39.466 Y124.393 E185.25783
G1 X40.351 Y124.393 E185.33837
G1 X89.138 Y75.607 E191.61924
G1 X90.023 Y75.607 E191.69978
G1 X41.236 Y124.393 E197.98065
G1 X42.121 Y124.393 E198.06119
G1 X90.908 Y75.607 E204.34206
G1 X91.792 Y75.607 E204.42261
G1 X43.005 Y124.393 E210.70348
G1 X43.890 Y124.393 E210.78402
G1 X92.677 Y75.607 E217.06489
G1 X93.562 Y75.607 E217.14543
G1 X44.775 Y124.393 E223.42630
G1 X45.659 Y124.393 E223.50684
G1 X94.446 Y75.607 E229.78771
G1 X95.331 Y75.607 E229.86825
G1 X46.544 Y124.393 E236.14912
G1 X47.429 Y124.393 E236.22966
G1 X96.216 Y75.607 E242.51053
G1 X97.101 Y75.607 E242.59108
G1 X48.314 Y124.393 E248.87195
G1 X49.198 Y124.393 E248.95249
G1 X97.985 Y75.607 E255.23336
G1 X98.870 Y75.607 E255.31390
G1 X50.083 Y124.393 E261.59477
G1 X50.968 Y124.393 E261.67531
G1 X99.755 Y75.607 E267.95618
G1 X100.640 Y75.607 E268.03672
G1 X51.853 Y124.393 E274.31759
G1 X52.737 Y124.393 E274.39813
G1 X101.524 Y75.607 E280.67900
G1 X102.409 Y75.607 E280.75954
G1 X53.622 Y124.393 E287.04042
G1 X54.507 Y124.393 E287.12096
G1 X103.294 Y75.607 E293.40183
G1 X104.179 Y75.607 E293.48237
G1 X55.392 Y124.393 E299.76324
G1 X56.276 Y124.393 E299.84378
G1 X105.063 Y75.607 E306.12465
G1 X105.948 Y75.607 E306.20519
G1 X57.161 Y124.393 E312.48606
G1 X58.046 Y124.393 E312.56660
G1 X106.833 Y75.607 E318.84747
G1 X107.718 Y75.607 E318.92801
G1 X58.931 Y124.393 E325.20889
G1 X59.815 Y124.393 E325.28943
G1 X108.602 Y75.607 E331.57030
G1 X109.487 Y75.607 E331.65084
G1 X60.700 Y124.393 E337.93171
G1 X61.585 Y124.393 E338.01225
G1 X110.372 Y75.607 E344.29312
G1 X111.256 Y75.607 E344.37366
G1 X62.469 Y124.393 E350.65453
G1 X63.354 Y124.393 E350.73507
G1 X112.141 Y75.607 E357.01594
G1 X113.026 Y75.607 E357.09649
G1 X64.239 Y124.393 E363.37736
G1 X65.124 Y124.393 E363.45790
G1 X113.911 Y75.607 E369.73877
G1 X114.795 Y75.607 E369.81931
G1 X66.008 Y124.393 E376.10018
G1 X66.893 Y124.393 E376.18072
G1 X115.680 Y75.607 E382.46159
G1 X116.565 Y75.607 E382.54213
G1 X67.778 Y124.393 E388.82300
G1 X68.663 Y124.393 E388.90354
G1 X117.450 Y75.607 E395.18441
G1 X118.334 Y75.607 E395.26496
G1 X69.547 Y124.393 E401.54583
G1 X70.432 Y124.393 E401.62637
G1 X119.219 Y75.607 E407.90724
G1 X120.104 Y75.607 E407.98778
