; generated by PrusaSlicer 2.6.0+win64 on 2023-09-07 at 17:58:23 UTC

; 

; external perimeters extrusion width = 0.42mm
; perimeters extrusion width = 0.44mm
; infill extrusion width = 0.44mm
; solid infill extrusion width = 0.44mm
; top infill extrusion width = 0.40mm
; support material extrusion width = 0.36mm
; first layer extrusion width = 0.42mm

; external perimeters extrusion width = 0.42mm
; perimeters extrusion width = 0.44mm
; infill extrusion width = 0.44mm
; solid infill extrusion width = 0.44mm
; top infill extrusion width = 0.40mm
; support material extrusion width = 0.36mm
; first layer extrusion width = 0.42mm

M201 X500 Y500 Z100 E5000 ; sets maximum accelerations, mm/sec^2
M203 X500 Y500 Z10 E60 ; sets maximum feedrates, mm / sec
M204 S500 T1000 ; sets acceleration (S) and retract acceleration (R), mm/sec^2
M205 X8.00 Y8.00 Z0.40 E5.00 ; sets the jerk limits, mm/sec
M205 S0 T0 ; sets the minimum extruding and travel feed rate, mm/sec
;TYPE:Custom
G90 ; use absolute coordinates
M83 ; extruder relative mode
M104 S150 ; set temporary nozzle temp to prevent oozing during homing
M140 S100 ; set final bed temp
G4 S30 ; allow partial nozzle warmup
G28 ; home all axis
G29 ; auto-bed-level
G1 Z50 F240
G1 X2.0 Y10 F3000
M104 S240 ; set final nozzle temp
M190 S100 ; wait for bed temp to stabilize
M109 S240 ; wait for nozzle temp to stabilize
G1 Z0.28 F240
G92 E0
G1 X2.0 Y140 E10 F1500 ; prime the nozzle
G1 X2.3 Y140 F5000
G92 E0
G1 X2.3 Y10 E10 F1200 ; prime the nozzle
G92 E0
G21 ; set units to millimeters
G90 ; use absolute coordinates
M83 ; use relative distances for extrusion
; Filament gcode
M107
;LAYER_CHANGE
;Z:0.35
;HEIGHT:0.35
;BEFORE_LAYER_CHANGE
G92 E0
;0.35


G1 E-5 F3600
G1 Z.35 F10200
;AFTER_LAYER_CHANGE
;0.35
G1 X61.658 Y93.02
G1 E5 F2400
M204 S500
;TYPE:Skirt/Brim
;WIDTH:0.42
G1 F1200
G1 X66.31 Y91.562 E.24466
G1 X74.255 Y91.572 E.39873
G1 X77.709 Y92.506 E.17957
G1 X80.781 Y94.219 E.17652
G1 X83.574 Y96.885 E.19377
G1 X83.964 Y97.462 E.03495
G1 X155.325 Y97.843 E3.58137
G1 X158.362 Y99.034 E.16372
G1 X161.099 Y100.871 E.16543
G1 X163.359 Y103.239 E.16428
G1 X165.035 Y106.035 E.1636
G1 X166.215 Y110.399 E.22688
G1 X165.821 Y120.445 E.50456
G1 X164.216 Y124.09 E.19988
G1 X162.931 Y125.846 E.1092
G1 X161.415 Y127.433 E.11014
G1 X157.407 Y129.97 E.23805
G1 X152.776 Y131.115 E.23941
G1 X67.555 Y131.115 E4.27689
G1 X64.332 Y130.592 E.16386
G1 X60.782 Y129.044 E.19436
G1 X57.735 Y126.59 E.19634
G1 X55.44 Y123.463 E.19466
G1 X54.034 Y119.801 E.19686
G1 X53.688 Y105.421 E.72188
G1 X54.079 Y102.543 E.14576
G1 X56.394 Y97.557 E.27588
G1 X58.757 Y94.996 E.17488
G1 X61.608 Y93.053 E.17315
G1 X61.802 Y93.338 F10200
G1 F1200
G1 X66.336 Y91.907 E.23861
G1 X74.231 Y91.917 E.39622
G1 X77.598 Y92.834 E.17513
G1 X80.593 Y94.509 E.17222
G1 X83.321 Y97.121 E.18954
G1 X83.778 Y97.806 E.04133
G1 X155.229 Y98.176 E3.58588
G1 X158.218 Y99.348 E.16112
G1 X160.891 Y101.147 E.1617
G1 X163.096 Y103.462 E.16045
G1 X164.726 Y106.191 E.15953
G1 X165.87 Y110.412 E.21948
G1 X165.492 Y120.337 E.49846
G1 X163.926 Y123.902 E.19541
G1 X162.659 Y125.633 E.10766
G1 X161.18 Y127.179 E.10737
G1 X157.246 Y129.663 E.23349
G1 X152.755 Y130.77 E.23213
G1 X67.569 Y130.77 E4.27514
G1 X64.449 Y130.267 E.1586
G1 X60.941 Y128.737 E.19207
G1 X57.969 Y126.336 E.19174
G1 X55.732 Y123.278 E.19015
G1 X54.367 Y119.706 E.19191
G1 X54.033 Y105.427 E.7168
G1 X54.418 Y102.615 E.14244
G1 X56.666 Y97.771 E.268
G1 X58.997 Y95.245 E.1725
G1 X61.752 Y93.372 E.16719
G1 X61.946 Y93.657 F10200
G1 F1200
G1 X62.003 Y93.618 E.00347
G1 X66.361 Y92.252 E.2292
G1 X74.208 Y92.262 E.39381
G1 X77.487 Y93.161 E.17063
G1 X80.405 Y94.799 E.16794
G1 X83.068 Y97.356 E.18528
G1 X83.591 Y98.15 E.04772
G1 X155.133 Y98.509 E3.59045
G1 X158.042 Y99.645 E.15673
G1 X160.654 Y101.399 E.1579
G1 X162.809 Y103.656 E.15661
G1 X164.418 Y106.348 E.15739
G1 X165.524 Y110.425 E.212
G1 X165.163 Y120.228 E.49231
G1 X163.637 Y123.714 E.19098
G1 X162.402 Y125.403 E.10501
G1 X160.945 Y126.926 E.10578
G1 X157.136 Y129.335 E.22618
G1 X152.734 Y130.425 E.22759
G1 X67.583 Y130.425 E4.27338
G1 X64.567 Y129.942 E.15329
G1 X61.139 Y128.454 E.18755
G1 X58.234 Y126.114 E.18721
G1 X56.024 Y123.093 E.18785
G1 X54.7 Y119.611 E.18695
G1 X54.378 Y105.433 E.71172
G1 X54.756 Y102.688 E.13906
G1 X56.938 Y97.985 E.26019
G1 X59.208 Y95.519 E.16821
G1 X61.897 Y93.691 E.16318
G1 X62.09 Y93.976 F10200
G1 F1200
G1 X62.176 Y93.918 E.00521
G1 X66.387 Y92.597 E.22149
G1 X74.184 Y92.606 E.3913
G1 X77.374 Y93.487 E.16609
G1 X80.216 Y95.088 E.1637
G1 X82.814 Y97.59 E.18101
G1 X83.403 Y98.494 E.05415
G1 X155.038 Y98.841 E3.59511
G1 X157.899 Y99.959 E.15416
G1 X160.446 Y101.674 E.1541
G1 X162.546 Y103.88 E.15285
G1 X164.11 Y106.504 E.15331
G1 X165.178 Y110.439 E.20463
G1 X164.834 Y120.12 E.48616
G1 X163.347 Y123.525 E.18647
G1 X162.13 Y125.19 E.1035
G1 X160.711 Y126.672 E.10297
G1 X156.976 Y129.029 E.22165
G1 X152.713 Y130.081 E.22036
G1 X67.596 Y130.081 E4.27167
G1 X64.683 Y129.616 E.14804
G1 X61.337 Y128.17 E.18293
G1 X58.468 Y125.859 E.18489
G1 X56.317 Y122.909 E.18323
G1 X55.033 Y119.517 E.18202
G1 X54.723 Y105.439 E.70669
G1 X55.094 Y102.76 E.13573
G1 X57.21 Y98.199 E.25233
G1 X59.448 Y95.767 E.16587
G1 X62.04 Y94.01 E.15715
G1 X62.234 Y94.296 F10200
G1 F1200
G1 X62.349 Y94.218 E.00697
G1 X66.413 Y92.942 E.21377
G1 X74.16 Y92.951 E.38879
G1 X77.261 Y93.814 E.16154
G1 X80.027 Y95.378 E.15947
G1 X82.56 Y97.824 E.17672
G1 X83.214 Y98.838 E.06055
G1 X154.942 Y99.174 E3.59977
G1 X157.755 Y100.274 E.15158
G1 X160.237 Y101.949 E.15027
G1 X162.283 Y104.103 E.14909
G1 X163.801 Y106.66 E.14924
G1 X164.833 Y110.453 E.19728
G1 X164.505 Y120.013 E.48006
G1 X163.057 Y123.338 E.182
G1 X161.873 Y124.96 E.10078
G1 X160.476 Y126.418 E.10134
G1 X156.866 Y128.7 E.21433
G1 X152.692 Y129.736 E.21583
G1 X67.61 Y129.736 E4.26992
G1 X64.8 Y129.291 E.14278
G1 X61.534 Y127.887 E.17841
G1 X58.733 Y125.637 E.18031
G1 X56.631 Y122.765 E.17861
G1 X55.366 Y119.422 E.17938
G1 X55.068 Y105.446 E.70156
G1 X55.432 Y102.833 E.1324
G1 X57.482 Y98.412 E.24456
G1 X59.658 Y96.041 E.16151
G1 X62.184 Y94.329 E.15314
G1 X62.377 Y94.615 F10200
G1 F1200
G1 X62.521 Y94.518 E.00871
G1 X66.439 Y93.287 E.20611
G1 X74.136 Y93.296 E.38628
G1 X77.148 Y94.14 E.15698
G1 X79.838 Y95.667 E.15523
G1 X82.305 Y98.057 E.17238
G1 X83.025 Y99.182 E.06703
G1 X154.846 Y99.507 E3.60444
G1 X157.579 Y100.571 E.14719
G1 X160.001 Y102.201 E.14651
G1 X161.996 Y104.296 E.14518
G1 X163.493 Y106.816 E.1471
G1 X164.487 Y110.468 E.18995
G1 X164.176 Y119.905 E.47386
G1 X162.767 Y123.15 E.17754
G1 X161.602 Y124.747 E.09921
G1 X160.242 Y126.164 E.09857
G1 X156.705 Y128.394 E.20984
G1 X152.671 Y129.391 E.20854
G1 X67.623 Y129.391 E4.26821
G1 X64.915 Y128.965 E.13757
G1 X61.731 Y127.603 E.1738
G1 X58.998 Y125.415 E.1757
G1 X56.923 Y122.581 E.17627
G1 X55.699 Y119.328 E.17443
G1 X55.414 Y105.453 E.69648
G1 X55.77 Y102.906 E.12907
G1 X57.754 Y98.626 E.23675
G1 X59.899 Y96.289 E.1592
G1 X62.327 Y94.648 E.14707
G1 X62.52 Y94.934 F10200
G1 F1200
G1 X62.693 Y94.817 E.01048
G1 X66.465 Y93.632 E.19842
G1 X74.112 Y93.641 E.38377
G1 X77.034 Y94.466 E.15238
G1 X79.648 Y95.955 E.15098
G1 X82.05 Y98.29 E.16812
G1 X82.834 Y99.526 E.07346
G1 X154.751 Y99.84 E3.60925
G1 X157.402 Y100.867 E.14268
G1 X159.792 Y102.476 E.14459
G1 X161.733 Y104.519 E.14143
G1 X163.184 Y106.972 E.14303
G1 X164.142 Y110.483 E.18264
G1 X163.846 Y119.799 E.46777
G1 X162.477 Y122.962 E.17297
G1 X161.345 Y124.517 E.09653
G1 X160.008 Y125.91 E.0969
G1 X156.595 Y128.066 E.2026
G1 X152.65 Y129.046 E.204
G1 X67.636 Y129.046 E4.26651
G1 X65.031 Y128.64 E.13231
G1 X61.889 Y127.295 E.17152
G1 X59.231 Y125.161 E.17107
G1 X57.216 Y122.397 E.17166
G1 X56.032 Y119.235 E.16945
G1 X55.759 Y105.46 E.69145
G1 X56.108 Y102.979 E.12574
G1 X58.026 Y98.839 E.22898
G1 X60.109 Y96.564 E.1548
G1 X62.471 Y94.968 E.14306
G1 X62.663 Y95.253 F10200
G1 F1200
G1 X62.865 Y95.117 E.01222
G1 X66.491 Y93.977 E.19076
G1 X74.087 Y93.986 E.38121
G1 X76.919 Y94.792 E.14777
G1 X79.457 Y96.244 E.14674
G1 X81.794 Y98.523 E.16382
G1 X82.643 Y99.871 E.07995
G1 X154.657 Y100.173 E3.61412
G1 X157.226 Y101.165 E.13821
G1 X159.556 Y102.728 E.14081
G1 X161.469 Y104.742 E.1394
G1 X162.876 Y107.127 E.13897
G1 X163.796 Y110.498 E.17536
G1 X163.516 Y119.692 E.46162
G1 X162.187 Y122.775 E.16849
G1 X161.073 Y124.304 E.09494
G1 X159.774 Y125.656 E.09409
G1 X156.435 Y127.759 E.19804
G1 X152.629 Y128.701 E.19677
G1 X67.649 Y128.701 E4.2648
G1 X65.146 Y128.314 E.12711
G1 X62.086 Y127.011 E.16691
G1 X59.496 Y124.938 E.16649
G1 X57.53 Y122.253 E.16701
G1 X56.365 Y119.142 E.16672
G1 X56.104 Y105.467 E.68642
G1 X56.446 Y103.053 E.12236
G1 X58.299 Y99.052 E.22128
G1 X60.349 Y96.812 E.15239
G1 X62.613 Y95.287 E.13699
G1 X62.806 Y95.573 F10200
G1 F1200
G1 X63.037 Y95.417 E.01399
G1 X66.518 Y94.321 E.18315
G1 X74.063 Y94.331 E.37865
G1 X76.803 Y95.118 E.14307
G1 X79.266 Y96.532 E.14253
G1 X81.538 Y98.754 E.15949
G1 X82.451 Y100.215 E.08646
G1 X154.562 Y100.506 E3.61899
G1 X157.084 Y101.479 E.13566
G1 X159.347 Y103.003 E.13692
G1 X161.205 Y104.965 E.13561
G1 X162.567 Y107.282 E.13488
G1 X163.451 Y110.514 E.16816
G1 X163.187 Y119.586 E.45548
G1 X161.897 Y122.588 E.16398
G1 X160.816 Y124.074 E.09222
G1 X159.54 Y125.402 E.09243
G1 X156.325 Y127.431 E.19079
G1 X152.608 Y128.356 E.19223
G1 X67.662 Y128.356 E4.26309
G1 X65.261 Y127.988 E.1219
G1 X62.283 Y126.727 E.1623
G1 X59.73 Y124.683 E.16413
G1 X57.823 Y122.069 E.16239
G1 X56.699 Y119.049 E.16172
G1 X56.449 Y105.475 E.68134
G1 X56.784 Y103.127 E.11903
G1 X58.571 Y99.265 E.21356
G1 X60.559 Y97.086 E.14803
G1 X62.756 Y95.607 E.13291
G1 X62.948 Y95.892 F10200
G1 F1200
G1 X63.209 Y95.717 E.01577
G1 X66.544 Y94.666 E.17548
G1 X74.038 Y94.676 E.37609
G1 X76.687 Y95.443 E.1384
G1 X79.075 Y96.819 E.13832
G1 X81.282 Y98.986 E.15523
G1 X82.258 Y100.559 E.0929
G1 X154.468 Y100.84 E3.62395
G1 X156.908 Y101.777 E.13117
G1 X159.11 Y103.255 E.13309
G1 X160.918 Y105.157 E.1317
G1 X162.258 Y107.437 E.13272
G1 X163.105 Y110.53 E.16094
G1 X162.857 Y119.481 E.44939
G1 X161.606 Y122.401 E.15943
G1 X160.544 Y123.861 E.09061
G1 X159.306 Y125.148 E.08962
G1 X156.165 Y127.125 E.18626
G1 X152.587 Y128.011 E.18499
G1 X67.675 Y128.011 E4.26139
G1 X65.375 Y127.662 E.11675
G1 X62.479 Y126.442 E.15771
G1 X59.994 Y124.461 E.15949
G1 X58.138 Y121.927 E.15763
G1 X57.032 Y118.956 E.1591
G1 X56.794 Y105.483 E.67626
G1 X57.121 Y103.201 E.11569
G1 X58.844 Y99.478 E.20588
G1 X60.8 Y97.334 E.14565
G1 X62.898 Y95.926 E.1268
G1 X63.09 Y96.212 F10200
G1 F1200
G1 X63.381 Y96.018 E.01755
G1 X66.57 Y95.011 E.16783
G1 X74.013 Y95.021 E.37353
G1 X76.57 Y95.768 E.13369
G1 X78.883 Y97.107 E.13413
G1 X81.025 Y99.217 E.15089
G1 X82.065 Y100.903 E.09942
G1 X154.373 Y101.173 E3.62887
G1 X156.766 Y102.092 E.12865
G1 X158.902 Y103.53 E.12923
G1 X160.653 Y105.38 E.12784
G1 X161.949 Y107.592 E.12866
G1 X162.76 Y110.546 E.15373
G1 X162.527 Y119.375 E.44325
G1 X161.316 Y122.214 E.1549
G1 X160.287 Y123.631 E.08789
G1 X159.072 Y124.893 E.08792
G1 X156.054 Y126.797 E.17908
G1 X152.566 Y127.666 E.1804
G1 X67.688 Y127.666 E4.25968
G1 X65.489 Y127.336 E.11159
G1 X62.635 Y126.133 E.15543
G1 X60.228 Y124.206 E.15474
G1 X58.431 Y121.743 E.15301
G1 X57.366 Y118.864 E.15405
G1 X57.139 Y105.491 E.67123
G1 X57.459 Y103.275 E.11237
G1 X59.117 Y99.69 E.19823
G1 X61.009 Y97.609 E.14115
G1 X63.041 Y96.246 E.12279
G1 X63.232 Y96.532 F10200
G1 F1200
G1 X63.552 Y96.318 E.01932
G1 X66.596 Y95.356 E.16021
G1 X73.987 Y95.365 E.37092
G1 X76.452 Y96.093 E.12899
G1 X78.691 Y97.394 E.12996
G1 X80.767 Y99.447 E.14653
G1 X81.871 Y101.247 E.10597
G1 X154.28 Y101.506 E3.63394
G1 X156.59 Y102.389 E.12411
G1 X158.665 Y103.781 E.1254
G1 X160.389 Y105.602 E.12585
G1 X161.64 Y107.746 E.12458
G1 X162.415 Y110.563 E.14663
G1 X162.196 Y119.271 E.43716
G1 X161.025 Y122.027 E.15028
G1 X160.03 Y123.4 E.0851
G1 X158.838 Y124.639 E.08628
G1 X155.894 Y126.49 E.17452
G1 X152.545 Y127.321 E.17317
G1 X67.701 Y127.321 E4.25797
G1 X65.562 Y126.998 E.10856
G1 X62.792 Y125.825 E.15097
G1 X60.462 Y123.952 E.15003
G1 X58.724 Y121.56 E.14839
G1 X57.699 Y118.773 E.14903
G1 X57.484 Y105.499 E.66626
G1 X57.797 Y103.349 E.10904
G1 X59.39 Y99.903 E.19053
G1 X61.25 Y97.857 E.13877
G1 X63.182 Y96.565 E.11664
G1 X63.373 Y96.851 F10200
G1 F1200
G1 X63.723 Y96.618 E.0211
G1 X66.622 Y95.701 E.15259
G1 X73.962 Y95.71 E.36836
G1 X76.333 Y96.417 E.12417
G1 X78.498 Y97.68 E.12579
G1 X80.509 Y99.677 E.14223
G1 X81.676 Y101.591 E.1125
G1 X154.186 Y101.84 E3.639
G1 X156.449 Y102.704 E.12157
G1 X158.456 Y104.056 E.12145
G1 X160.125 Y105.824 E.12202
G1 X161.33 Y107.9 E.12047
G1 X162.069 Y110.58 E.13952
G1 X161.866 Y119.167 E.43107
G1 X160.734 Y121.841 E.14573
G1 X159.758 Y123.188 E.08348
G1 X158.604 Y124.385 E.08344
G1 X155.784 Y126.162 E.16728
G1 X152.524 Y126.977 E.16864
G1 X67.714 Y126.977 E4.25627
G1 X65.635 Y126.66 E.10554
G1 X62.988 Y125.541 E.14422
G1 X60.727 Y123.73 E.14538
G1 X59.039 Y121.418 E.14366
G1 X58.033 Y118.681 E.14634
G1 X57.829 Y105.508 E.66118
G1 X58.134 Y103.424 E.1057
G1 X59.663 Y100.115 E.18294
G1 X61.491 Y98.104 E.13639
G1 X63.323 Y96.885 E.11043
G1 X63.514 Y97.172 F10200
G1 F1200
G1 X63.894 Y96.919 E.02291
G1 X66.648 Y96.046 E.14499
G1 X73.936 Y96.055 E.36576
G1 X76.214 Y96.741 E.11939
G1 X78.304 Y97.967 E.1216
G1 X80.251 Y99.906 E.1379
G1 X81.482 Y101.936 E.11915
G1 X154.092 Y102.173 E3.64402
G1 X156.307 Y103.019 E.11899
G1 X158.246 Y104.331 E.11749
G1 X159.86 Y106.046 E.11819
G1 X161.021 Y108.054 E.11641
G1 X161.724 Y110.598 E.13246
G1 X161.536 Y119.063 E.42493
G1 X160.443 Y121.655 E.14117
G1 X159.501 Y122.957 E.08065
G1 X158.37 Y124.13 E.08178
G1 X155.624 Y125.856 E.16277
G1 X152.503 Y126.632 E.1614
G1 X67.727 Y126.632 E4.25456
G1 X65.709 Y126.323 E.10246
G1 X63.146 Y125.233 E.13978
G1 X60.961 Y123.476 E.14071
G1 X59.333 Y121.235 E.13901
G1 X58.367 Y118.59 E.14132
G1 X58.174 Y105.517 E.65615
G1 X58.472 Y103.499 E.10237
G1 X59.936 Y100.327 E.17533
G1 X61.7 Y98.379 E.13189
G1 X63.464 Y97.205 E.10634
G1 X63.654 Y97.492 F10200
G1 F1200
G1 X64.064 Y97.22 E.02469
G1 X66.675 Y96.391 E.13748
G1 X73.91 Y96.4 E.3631
G1 X76.094 Y97.065 E.11457
G1 X78.11 Y98.253 E.11744
G1 X79.992 Y100.135 E.13357
G1 X81.11 Y101.983 E.10839
G1 X81.22 Y102.28 E.01589
G1 X153.999 Y102.506 E3.6525
G1 X156.131 Y103.316 E.11446
G1 X158.009 Y104.582 E.11366
G1 X159.571 Y106.236 E.11417
G1 X160.711 Y108.208 E.11431
G1 X161.379 Y110.616 E.12541
G1 X161.205 Y118.96 E.41884
G1 X160.152 Y121.469 E.13656
G1 X159.229 Y122.745 E.07903
G1 X158.137 Y123.875 E.07886
G1 X155.513 Y125.528 E.15564
G1 X152.482 Y126.287 E.15681
G1 X67.741 Y126.287 E4.2528
G1 X65.783 Y125.985 E.09943
G1 X63.303 Y124.926 E.13533
G1 X61.196 Y123.222 E.13599
G1 X59.626 Y121.053 E.13438
G1 X58.701 Y118.5 E.13628
G1 X58.519 Y105.526 E.65118
G1 X58.809 Y103.574 E.09904
G1 X60.209 Y100.539 E.16774
G1 X61.941 Y98.627 E.12947
G1 X63.604 Y97.525 E.10012
G1 X63.792 Y97.807 F10200
G1 F1200
G1 X64.193 Y97.541 E.02415
G1 X66.701 Y96.736 E.13219
G1 X73.883 Y96.745 E.36044
G1 X75.972 Y97.389 E.10971
G1 X77.882 Y98.512 E.1112
G1 X79.733 Y100.364 E.13141
G1 X80.804 Y102.145 E.1043
G1 X80.973 Y102.624 E.02549
G1 X153.906 Y102.84 E3.66023
G1 X155.955 Y103.614 E.10992
G1 X157.8 Y104.857 E.11165
G1 X159.306 Y106.457 E.11027
G1 X160.401 Y108.361 E.11023
G1 X161.033 Y110.635 E.11845
G1 X160.874 Y118.857 E.41271
G1 X159.861 Y121.283 E.13194
G1 X158.973 Y122.515 E.07622
G1 X157.904 Y123.621 E.07719
G1 X155.353 Y125.221 E.15112
G1 X152.461 Y125.942 E.14958
G1 X67.754 Y125.942 E4.2511
G1 X65.858 Y125.648 E.09629
G1 X63.462 Y124.618 E.13089
G1 X61.431 Y122.969 E.13129
G1 X59.92 Y120.871 E.12975
G1 X59.036 Y118.411 E.13119
G1 X58.864 Y105.536 E.6462
G1 X59.147 Y103.649 E.09576
G1 X60.483 Y100.751 E.16015
G1 X62.151 Y98.902 E.12497
G1 X63.742 Y97.841 E.09597
G1 X63.932 Y98.123 F10200
G1 F1200
G1 X64.322 Y97.861 E.02358
G1 X66.728 Y97.081 E.12693
G1 X73.856 Y97.09 E.35773
G1 X75.851 Y97.712 E.10487
G1 X77.654 Y98.772 E.10496
G1 X79.448 Y100.56 E.12711
G1 X80.499 Y102.306 E.10227
G1 X80.725 Y102.968 E.03511
G1 X153.814 Y103.174 E3.66805
