; generated by PrusaSlicer 2.6.0+win64 on 2023-06-22 at 04:59:10 UTC

; 

; external perimeters extrusion width = 0.42mm
; perimeters extrusion width = 0.44mm
; infill extrusion width = 0.44mm
; solid infill extrusion width = 0.44mm
; top infill extrusion width = 0.40mm
; support material extrusion width = 0.36mm
; first layer extrusion width = 0.42mm

M201 X500 Y500 Z100 E5000 ; sets maximum accelerations, mm/sec^2
M203 X500 Y500 Z10 E60 ; sets maximum feedrates, mm / sec
M204 S500 T1000 ; sets acceleration (S) and retract acceleration (R), mm/sec^2
M205 X8.00 Y8.00 Z0.40 E5.00 ; sets the jerk limits, mm/sec
M205 S0 T0 ; sets the minimum extruding and travel feed rate, mm/sec
;TYPE:Custom
G90 ; use absolute coordinates
M83 ; extruder relative mode
M104 S150 ; set temporary nozzle temp to prevent oozing during homing
M140 S100 ; set final bed temp
G4 S30 ; allow partial nozzle warmup
G28 ; home all axis
G29 ; auto-bed-level
G1 Z50 F240
G1 X2.0 Y10 F3000
M104 S240 ; set final nozzle temp
M190 S100 ; wait for bed temp to stabilize
M109 S240 ; wait for nozzle temp to stabilize
G1 Z0.28 F240
G92 E0
G1 X2.0 Y140 E10 F1500 ; prime the nozzle
G1 X2.3 Y140 F5000
G92 E0
G1 X2.3 Y10 E10 F1200 ; prime the nozzle
G92 E0
G21 ; set units to millimeters
G90 ; use absolute coordinates
M83 ; use relative distances for extrusion
; Filament gcode
M107
;LAYER_CHANGE
;Z:0.35
;HEIGHT:0.35
;BEFORE_LAYER_CHANGE
G92 E0
;0.35


G1 E-5 F3600
G1 Z.35 F10200
;AFTER_LAYER_CHANGE
;0.35
G1 X71.418 Y70.112
G1 E5 F2400
M204 S500
;TYPE:Skirt/Brim
;WIDTH:0.42
G1 F1200
G1 X72.537 Y68.972 E.08017
G1 X74.502 Y67.497 E.12331
G1 X80.773 Y65.442 E.33118
G1 X138.805 Y65.446 E2.91239
G1 X142.204 Y66.055 E.1733
G1 X145.333 Y67.427 E.17146
G1 X148.804 Y70.283 E.22558
G1 X151.397 Y74.302 E.24003
G1 X152.531 Y78.8 E.2328
G1 X152.287 Y88.846 E.50432
G1 X151.126 Y92.292 E.18249
G1 X149.396 Y95.031 E.16258
G1 X146.162 Y98.047 E.22193
G1 X143.415 Y99.512 E.15624
G1 X139.903 Y100.433 E.18221
G1 X102.558 Y100.529 E1.8742
G1 X102.558 Y119.47 E.95057
G1 X139.94 Y119.567 E1.87606
G1 X143.7 Y120.604 E.19574
G1 X146.562 Y122.245 E.16557
G1 X149.366 Y124.939 E.19515
G1 X151.239 Y127.948 E.17787
G1 X152.334 Y131.376 E.1806
G1 X152.396 Y142.246 E.54553
G1 X151.313 Y145.891 E.19083
G1 X149.291 Y149.156 E.19273
G1 X147.539 Y150.962 E.12628
G1 X145.569 Y152.464 E.12432
G1 X139.23 Y154.558 E.33504
G1 X81.011 Y154.558 E2.92177
G1 X76.641 Y153.537 E.22522
G1 X72.785 Y151.242 E.2252
G1 X70.972 Y149.463 E.12747
G1 X69.497 Y147.498 E.12331
G1 X67.442 Y141.228 E.33114
G1 X67.442 Y79.011 E3.12242
G1 X68.463 Y74.639 E.22532
G1 X70.758 Y70.784 E.22516
G1 X71.376 Y70.154 E.04429
G1 X71.62 Y70.394 F10200
G1 F1200
G1 X72.774 Y69.223 E.08251
G1 X74.686 Y67.79 E.11991
G1 X80.8 Y65.787 E.32288
G1 X138.79 Y65.79 E2.91028
G1 X142.085 Y66.38 E.16799
G1 X145.133 Y67.709 E.16688
G1 X148.529 Y70.494 E.22041
G1 X151.07 Y74.414 E.23444
G1 X152.185 Y78.815 E.22785
G1 X151.942 Y88.811 E.50181
G1 X150.806 Y92.161 E.17753
G1 X149.117 Y94.827 E.15839
G1 X145.98 Y97.754 E.21532
G1 X143.307 Y99.183 E.15211
G1 X139.88 Y100.089 E.1779
G1 X102.213 Y100.185 E1.89036
G1 X102.213 Y119.814 E.9851
G1 X139.916 Y119.912 E1.89217
G1 X143.587 Y120.93 E.19119
G1 X146.372 Y122.533 E.16127
G1 X149.085 Y125.14 E.18883
G1 X150.918 Y128.074 E.17362
G1 X151.989 Y131.405 E.1756
G1 X152.059 Y142.172 E.54036
G1 X150.989 Y145.77 E.18838
G1 X149.008 Y148.958 E.18837
G1 X147.301 Y150.712 E.12283
G1 X145.383 Y152.172 E.12097
G1 X139.202 Y154.213 E.32667
G1 X81.031 Y154.213 E2.91936
G1 X76.746 Y153.208 E.22088
G1 X72.979 Y150.957 E.22023
G1 X71.223 Y149.226 E.12375
G1 X69.79 Y147.314 E.11991
G1 X67.787 Y141.2 E.32288
G1 X67.787 Y79.031 E3.12001
G1 X68.793 Y74.744 E.22099
G1 X71.043 Y70.979 E.22012
G1 X71.578 Y70.437 E.03822
G1 X71.82 Y70.677 F10200
G1 F1200
G1 X73.01 Y69.475 E.08489
G1 X74.87 Y68.083 E.11659
G1 X80.827 Y66.132 E.31458
G1 X138.775 Y66.135 E2.90817
G1 X141.966 Y66.704 E.16267
G1 X144.934 Y67.991 E.16235
G1 X148.255 Y70.704 E.21521
G1 X150.743 Y74.527 E.22891
G1 X151.84 Y78.83 E.22286
G1 X151.598 Y88.776 E.4993
G1 X150.486 Y92.03 E.17258
G1 X148.837 Y94.624 E.15426
G1 X145.797 Y97.46 E.20865
G1 X143.199 Y98.855 E.14799
G1 X139.857 Y99.744 E.17355
G1 X101.868 Y99.841 E1.90652
G1 X101.868 Y120.158 E1.01963
G1 X139.892 Y120.257 E1.90828
G1 X143.473 Y121.256 E.18658
G1 X146.181 Y122.821 E.15697
G1 X148.804 Y125.341 E.18255
G1 X150.596 Y128.201 E.16938
G1 X151.644 Y131.434 E.17056
G1 X151.721 Y142.099 E.53525
G1 X150.683 Y145.608 E.18365
G1 X148.725 Y148.76 E.18622
G1 X147.063 Y150.462 E.11939
G1 X145.197 Y151.881 E.11765
G1 X139.175 Y153.868 E.31825
G1 X81.051 Y153.868 E2.91701
G1 X76.9 Y152.898 E.21393
G1 X73.174 Y150.672 E.21782
G1 X71.475 Y148.99 E.11998
G1 X70.083 Y147.13 E.11659
G1 X68.132 Y141.173 E.31458
G1 X68.132 Y79.051 E3.11765
G1 X69.103 Y74.898 E.21404
G1 X71.329 Y71.174 E.21774
G1 X71.778 Y70.72 E.03205
G1 X72.02 Y70.96 F10200
G1 F1200
G1 X73.245 Y69.727 E.08723
G1 X75.054 Y68.376 E.11331
G1 X80.855 Y66.477 E.30633
G1 X138.759 Y66.48 E2.90597
G1 X141.886 Y67.04 E.15943
G1 X144.735 Y68.273 E.1558
G1 X147.981 Y70.916 E.21007
G1 X150.416 Y74.64 E.2233
G1 X151.495 Y78.846 E.21792
G1 X151.254 Y88.741 E.49674
G1 X150.167 Y91.898 E.16757
G1 X148.558 Y94.42 E.15013
G1 X145.614 Y97.167 E.20208
G1 X143.09 Y98.527 E.14389
G1 X139.833 Y99.399 E.16921
G1 X101.523 Y99.497 E1.92263
G1 X101.523 Y120.502 E1.05416
G1 X139.868 Y120.602 E1.92439
G1 X143.359 Y121.582 E.18197
G1 X145.99 Y123.109 E.15267
G1 X148.523 Y125.543 E.1763
G1 X150.275 Y128.329 E.16517
G1 X151.3 Y131.464 E.16553
G1 X151.383 Y142.026 E.53008
G1 X150.359 Y145.488 E.18118
G1 X148.443 Y148.561 E.18174
G1 X146.826 Y150.211 E.11594
G1 X145.011 Y151.589 E.11437
G1 X139.147 Y153.523 E.30988
G1 X81.071 Y153.523 E2.9146
G1 X77.005 Y152.568 E.20961
G1 X73.37 Y150.387 E.21274
G1 X71.727 Y148.755 E.11622
G1 X70.376 Y146.946 E.11331
G1 X68.477 Y141.146 E.30628
G1 X68.477 Y79.071 E3.11529
G1 X69.432 Y75.003 E.20971
G1 X71.613 Y71.37 E.21266
G1 X71.978 Y71.003 E.02598
G1 X72.219 Y71.244 F10200
G1 F1200
G1 X73.48 Y69.98 E.0896
G1 X75.238 Y68.669 E.11006
G1 X80.882 Y66.822 E.29803
G1 X138.744 Y66.825 E2.90386
G1 X141.768 Y67.365 E.15416
G1 X144.536 Y68.557 E.15125
G1 X147.708 Y71.127 E.20488
G1 X150.089 Y74.754 E.21774
G1 X151.149 Y78.862 E.21292
G1 X150.91 Y88.706 E.49418
G1 X149.848 Y91.766 E.16255
G1 X148.28 Y94.216 E.14598
G1 X145.43 Y96.875 E.19561
G1 X142.98 Y98.2 E.13978
G1 X139.81 Y99.054 E.16476
G1 X101.178 Y99.153 E1.93879
G1 X101.178 Y120.846 E1.08868
G1 X139.843 Y120.947 E1.94044
G1 X143.243 Y121.908 E.17732
G1 X145.798 Y123.396 E.14839
G1 X148.243 Y125.745 E.17016
G1 X149.954 Y128.457 E.16093
G1 X150.955 Y131.494 E.16048
G1 X151.045 Y141.952 E.52486
G1 X150.035 Y145.367 E.17872
G1 X148.16 Y148.362 E.17733
G1 X146.589 Y149.96 E.11246
G1 X144.826 Y151.296 E.11101
G1 X139.12 Y153.178 E.30153
G1 X81.091 Y153.178 E2.91224
G1 X77.11 Y152.239 E.20527
G1 X73.566 Y150.103 E.20767
G1 X71.98 Y148.52 E.11246
G1 X70.669 Y146.762 E.11006
G1 X68.822 Y141.118 E.29803
G1 X68.822 Y79.091 E3.11288
G1 X69.762 Y75.109 E.20533
G1 X71.898 Y71.566 E.20762
G1 X72.177 Y71.286 E.01984
G1 X72.418 Y71.527 F10200
G1 F1200
G1 X73.715 Y70.233 E.09195
G1 X75.421 Y68.963 E.10674
G1 X80.909 Y67.167 E.28979
G1 X138.729 Y67.17 E2.90175
G1 X141.65 Y67.69 E.1489
G1 X144.338 Y68.84 E.14673
G1 X147.435 Y71.34 E.19975
G1 X149.763 Y74.869 E.21217
G1 X150.804 Y78.877 E.20782
G1 X150.566 Y88.67 E.49162
G1 X149.529 Y91.632 E.1575
G1 X148.001 Y94.011 E.1419
G1 X145.246 Y96.582 E.18912
G1 X142.87 Y97.872 E.13568
G1 X139.786 Y98.709 E.16037
G1 X100.833 Y98.809 E1.9549
G1 X100.833 Y121.19 E1.12321
G1 X139.818 Y121.291 E1.9565
G1 X143.128 Y122.234 E.17273
G1 X145.606 Y123.684 E.14409
G1 X147.963 Y125.947 E.16398
G1 X149.634 Y128.586 E.15676
G1 X150.61 Y131.524 E.15537
G1 X150.706 Y141.88 E.51975
G1 X149.73 Y145.204 E.17386
G1 X147.878 Y148.163 E.17519
G1 X146.352 Y149.709 E.10902
G1 X144.64 Y151.004 E.10773
G1 X139.092 Y152.833 E.29317
G1 X81.111 Y152.833 E2.90983
G1 X77.216 Y151.91 E.20089
G1 X73.763 Y149.819 E.20259
G1 X72.233 Y148.285 E.10873
G1 X70.963 Y146.579 E.10674
G1 X69.167 Y141.091 E.28979
G1 X69.167 Y79.111 E3.11052
G1 X70.091 Y75.215 E.20095
G1 X72.182 Y71.763 E.20255
G1 X72.375 Y71.57 E.0137
G1 X72.615 Y71.811 F10200
G1 F1200
G1 X73.949 Y70.487 E.09432
G1 X75.604 Y69.256 E.10351
G1 X80.937 Y67.511 E.2816
G1 X138.714 Y67.515 E2.89959
G1 X141.534 Y68.015 E.14373
G1 X144.141 Y69.124 E.14218
G1 X147.162 Y71.553 E.19454
G1 X149.436 Y74.984 E.20657
G1 X150.459 Y78.893 E.20278
G1 X150.222 Y88.635 E.48906
G1 X149.211 Y91.498 E.15238
G1 X147.723 Y93.806 E.13782
G1 X145.062 Y96.29 E.18269
G1 X142.76 Y97.545 E.13158
G1 X139.762 Y98.364 E.15597
G1 X100.488 Y98.465 E1.97101
G1 X100.488 Y121.534 E1.15774
G1 X139.793 Y121.636 E1.97256
G1 X142.973 Y122.543 E.16596
G1 X145.383 Y123.947 E.13998
G1 X147.683 Y126.15 E.15983
G1 X149.313 Y128.715 E.15252
G1 X150.275 Y131.608 E.153
G1 X150.368 Y141.807 E.51187
G1 X149.406 Y145.084 E.1714
G1 X147.597 Y147.963 E.17064
G1 X146.116 Y149.457 E.10557
G1 X144.455 Y150.712 E.10448
G1 X139.065 Y152.488 E.28481
G1 X81.132 Y152.488 E2.90742
G1 X77.323 Y151.581 E.1965
G1 X73.96 Y149.535 E.19756
G1 X72.487 Y148.051 E.10494
G1 X71.256 Y146.396 E.10351
G1 X69.512 Y141.064 E.28154
G1 X69.512 Y79.131 E3.10816
G1 X70.42 Y75.322 E.19651
G1 X72.465 Y71.96 E.19749
G1 X72.572 Y71.854 E.00756
G1 X72.812 Y72.096 F10200
G1 F1200
G1 X74.183 Y70.741 E.09674
G1 X75.788 Y69.55 E.1003
G1 X80.964 Y67.856 E.27332
G1 X138.699 Y67.86 E2.89748
G1 X141.417 Y68.34 E.13852
G1 X143.944 Y69.408 E.13768
G1 X146.89 Y71.766 E.18938
G1 X149.11 Y75.1 E.20102
G1 X150.113 Y78.909 E.19767
G1 X149.878 Y88.599 E.48644
G1 X148.893 Y91.363 E.14726
G1 X147.445 Y93.601 E.13377
G1 X144.877 Y95.998 E.1763
G1 X142.649 Y97.218 E.12748
G1 X139.738 Y98.02 E.15153
G1 X100.144 Y98.121 E1.98707
G1 X100.144 Y121.878 E1.19227
G1 X139.769 Y121.981 E1.98862
G1 X142.818 Y122.852 E.15914
G1 X145.16 Y124.211 E.13589
G1 X147.403 Y126.353 E.15565
G1 X149.011 Y128.882 E.1504
G1 X149.939 Y131.69 E.14842
G1 X150.03 Y141.735 E.50414
G1 X149.101 Y144.921 E.16655
G1 X147.315 Y147.763 E.16845
G1 X145.88 Y149.205 E.1021
G1 X144.27 Y150.419 E.1012
G1 X139.037 Y152.144 E.27652
G1 X81.152 Y152.144 E2.90501
G1 X77.43 Y151.252 E.19208
G1 X74.159 Y149.252 E.19241
G1 X72.741 Y147.817 E.10125
G1 X71.55 Y146.213 E.10026
G1 X69.856 Y141.037 E.27332
G1 X69.856 Y79.152 E3.10576
G1 X70.749 Y75.429 E.19214
G1 X72.769 Y72.138 E.19379
G1 X73.031 Y72.357 F10200
G1 F1200
G1 X74.416 Y70.995 E.09749
G1 X75.97 Y69.843 E.09708
G1 X80.991 Y68.201 E.26512
G1 X138.684 Y68.205 E2.89538
G1 X141.302 Y68.665 E.1334
G1 X143.748 Y69.693 E.13316
G1 X146.619 Y71.981 E.18424
G1 X148.784 Y75.216 E.19535
G1 X149.768 Y78.926 E.19263
G1 X149.533 Y88.562 E.48374
G1 X148.576 Y91.227 E.14211
G1 X147.167 Y93.395 E.12976
G1 X144.692 Y95.706 E.16994
G1 X142.537 Y96.891 E.12342
G1 X139.714 Y97.675 E.14704
G1 X99.799 Y97.777 E2.00318
G1 X99.799 Y122.222 E1.22679
G1 X139.744 Y122.326 E2.00468
G1 X142.664 Y123.161 E.15242
G1 X144.937 Y124.475 E.13176
G1 X147.124 Y126.556 E.1515
G1 X148.69 Y129.011 E.14614
G1 X149.603 Y131.773 E.14599
G1 X149.692 Y141.663 E.49636
G1 X148.777 Y144.801 E.16404
G1 X147.034 Y147.562 E.16386
G1 X145.645 Y148.953 E.09865
G1 X144.086 Y150.127 E.09794
G1 X139.01 Y151.799 E.26821
G1 X81.173 Y151.799 E2.9026
G1 X77.537 Y150.923 E.1877
G1 X74.357 Y148.969 E.18731
G1 X72.995 Y147.584 E.09749
G1 X71.843 Y146.03 E.09708
G1 X70.201 Y141.009 E.26512
G1 X70.201 Y79.172 E3.10335
G1 X71.078 Y75.536 E.18771
G1 X72.999 Y72.408 E.18422
G1 X73.288 Y72.588 F10200
G1 F1200
G1 X74.631 Y71.265 E.09461
G1 X76.153 Y70.137 E.09507
G1 X81.019 Y68.546 E.25693
G1 X138.668 Y68.55 E2.89317
G1 X141.223 Y69.002 E.13022
G1 X143.553 Y69.978 E.12678
G1 X146.348 Y72.196 E.17907
G1 X148.459 Y75.333 E.18976
G1 X149.422 Y78.942 E.18746
G1 X149.189 Y88.526 E.48112
G1 X148.258 Y91.091 E.13694
G1 X146.89 Y93.189 E.1257
G1 X144.507 Y95.414 E.16362
G1 X142.424 Y96.565 E.11943
G1 X139.69 Y97.33 E.14248
G1 X99.454 Y97.433 E2.01929
G1 X99.454 Y122.566 E1.26132
G1 X139.719 Y122.671 E2.02074
G1 X142.511 Y123.47 E.14574
G1 X144.715 Y124.739 E.12763
G1 X146.845 Y126.76 E.14736
G1 X148.369 Y129.14 E.14183
G1 X149.267 Y131.856 E.14356
G1 X149.354 Y141.591 E.48858
G1 X148.472 Y144.638 E.15919
G1 X146.752 Y147.362 E.16168
G1 X145.41 Y148.7 E.0951
G1 X143.901 Y149.834 E.09473
G1 X138.982 Y151.454 E.25991
G1 X81.193 Y151.454 E2.90019
G1 X77.694 Y150.614 E.18059
G1 X74.588 Y148.712 E.18278
G1 X73.265 Y147.369 E.09461
G1 X72.137 Y145.847 E.09507
G1 X70.546 Y140.982 E.25688
G1 X70.546 Y79.193 E3.10094
G1 X71.386 Y75.693 E.18064
G1 X73.257 Y72.639 E.17974
G1 X73.55 Y72.82 F10200
G1 F1200
G1 X74.863 Y71.52 E.09273
G1 X76.336 Y70.431 E.09193
G1 X81.046 Y68.891 E.24869
G1 X138.653 Y68.894 E2.89106
G1 X141.108 Y69.327 E.12511
G1 X143.358 Y70.263 E.1223
G1 X146.077 Y72.411 E.1739
G1 X148.133 Y75.451 E.18418
G1 X149.077 Y78.959 E.18232
G1 X148.845 Y88.489 E.47841
G1 X147.941 Y90.953 E.13172
G1 X146.613 Y92.983 E.12174
G1 X144.321 Y95.123 E.15737
G1 X142.311 Y96.238 E.11535
G1 X139.665 Y96.985 E.13798
G1 X99.109 Y97.089 E2.03535
G1 X99.109 Y122.91 E1.29585
G1 X139.694 Y123.016 E2.0368
G1 X142.357 Y123.78 E.13904
G1 X144.493 Y125.004 E.12355
G1 X146.566 Y126.964 E.14317
G1 X148.067 Y129.307 E.13965
G1 X148.931 Y131.938 E.13898
G1 X149.015 Y141.52 E.4809
G1 X148.148 Y144.518 E.15662
G1 X146.472 Y147.16 E.15702
G1 X145.176 Y148.446 E.09163
G1 X143.717 Y149.541 E.09155
G1 X138.955 Y151.109 E.25161
G1 X81.213 Y151.109 E2.89783
G1 X77.802 Y150.286 E.1761
G1 X74.787 Y148.43 E.17768
G1 X73.52 Y147.137 E.09085
G1 X72.431 Y145.664 E.09193
G1 X70.891 Y140.955 E.24864
G1 X70.891 Y79.213 E3.09858
G1 X71.715 Y75.801 E.17616
G1 X73.519 Y72.871 E.17268
G1 X73.812 Y73.052 F10200
G1 F1200
G1 X73.852 Y72.987 E.00383
G1 X75.095 Y71.775 E.08713
G1 X76.519 Y70.725 E.08879
G1 X81.073 Y69.236 E.24045
G1 X138.638 Y69.239 E2.88895
G1 X140.994 Y69.653 E.12005
G1 X143.164 Y70.549 E.11782
G1 X145.807 Y72.627 E.16873
G1 X147.808 Y75.569 E.17856
G1 X148.732 Y78.975 E.17711
G1 X148.501 Y88.451 E.4757
G1 X147.625 Y90.815 E.12652
G1 X146.336 Y92.776 E.11777
G1 X144.134 Y94.832 E.15119
G1 X142.197 Y95.912 E.1113
G1 X139.64 Y96.64 E.13343
G1 X98.764 Y96.745 E2.05141
G1 X98.764 Y123.254 E1.33038
G1 X139.669 Y123.36 E2.05286
G1 X142.204 Y124.09 E.13239
G1 X144.272 Y125.27 E.11949
G1 X146.287 Y127.168 E.13892
G1 X147.746 Y129.436 E.13534
G1 X148.595 Y132.02 E.1365
G1 X148.677 Y141.448 E.47317
G1 X147.824 Y144.398 E.15411
G1 X146.192 Y146.958 E.15236
G1 X144.942 Y148.193 E.08819
G1 X143.532 Y149.248 E.08838
G1 X138.927 Y150.764 E.24331
G1 X81.234 Y150.764 E2.89538
G1 X77.91 Y149.957 E.17166
G1 X74.987 Y148.148 E.17251
G1 X73.775 Y146.905 E.08713
G1 X72.725 Y145.482 E.08875
G1 X71.236 Y140.927 E.2405
G1 X71.236 Y79.234 E3.09612
G1 X72.043 Y75.909 E.17171
G1 X73.78 Y73.103 E.16562
G1 X74.073 Y73.285 F10200
G1 F1200
G1 X74.134 Y73.187 E.00579
G1 X75.327 Y72.031 E.08337
G1 X76.701 Y71.019 E.08564
G1 X81.1 Y69.581 E.23226
G1 X138.624 Y69.584 E2.88689
G1 X140.881 Y69.98 E.115
G1 X142.97 Y70.836 E.1133
G1 X145.538 Y72.844 E.1636
G1 X147.483 Y75.688 E.17291
G1 X148.386 Y78.992 E.1719
G1 X148.157 Y88.414 E.47299
G1 X147.309 Y90.675 E.12119
G1 X146.06 Y92.569 E.11386
G1 X143.948 Y94.542 E.14505
G1 X142.082 Y95.586 E.10731
G1 X139.615 Y96.295 E.12882
G1 X98.419 Y96.401 E2.06747
G1 X98.419 Y123.598 E1.36491
G1 X139.644 Y123.705 E2.06892
G1 X142.052 Y124.4 E.12578
G1 X144.051 Y125.535 E.11536
G1 X146.009 Y127.373 E.13478
G1 X147.444 Y129.604 E.13313
G1 X148.259 Y132.102 E.13187
G1 X148.339 Y141.377 E.46549
G1 X147.519 Y144.234 E.14917
G1 X145.911 Y146.756 E.15011
G1 X144.709 Y147.938 E.0846
G1 X143.348 Y148.955 E.08527
G1 X138.9 Y150.419 E.23501
G1 X81.255 Y150.419 E2.89297
G1 X78.019 Y149.629 E.16717
G1 X75.187 Y147.867 E.16739
G1 X74.031 Y146.673 E.0834
G1 X73.019 Y145.299 E.08564
G1 X71.581 Y140.9 E.23226
G1 X71.581 Y79.255 E3.09371
G1 X72.372 Y76.018 E.16723
