; generated by PrusaSlicer 2.6.0+win64 on 2023-09-09 at 16:05:51 UTC

; 

; external perimeters extrusion width = 0.42mm
; perimeters extrusion width = 0.44mm
; infill extrusion width = 0.44mm
; solid infill extrusion width = 0.44mm
; top infill extrusion width = 0.40mm
; support material extrusion width = 0.36mm
; first layer extrusion width = 0.42mm

M201 X500 Y500 Z100 E5000 ; sets maximum accelerations, mm/sec^2
M203 X500 Y500 Z10 E60 ; sets maximum feedrates, mm / sec
M204 S500 T1000 ; sets acceleration (S) and retract acceleration (R), mm/sec^2
M205 X8.00 Y8.00 Z0.40 E5.00 ; sets the jerk limits, mm/sec
M205 S0 T0 ; sets the minimum extruding and travel feed rate, mm/sec
;TYPE:Custom
G90 ; use absolute coordinates
M83 ; extruder relative mode
M104 S150 ; set temporary nozzle temp to prevent oozing during homing
M140 S60 ; set final bed temp
G4 S30 ; allow partial nozzle warmup
G28 ; home all axis
G29 ; auto-bed-level
G1 Z50 F240
G1 X2.0 Y10 F3000
M104 S210 ; set final nozzle temp
M190 S60 ; wait for bed temp to stabilize
M109 S210 ; wait for nozzle temp to stabilize
G1 Z0.28 F240
G92 E0
G1 X2.0 Y140 E10 F1500 ; prime the nozzle
G1 X2.3 Y140 F5000
G92 E0
G1 X2.3 Y10 E10 F1200 ; prime the nozzle
G92 E0
G21 ; set units to millimeters
G90 ; use absolute coordinates
M83 ; use relative distances for extrusion
; Filament gcode
M107
;LAYER_CHANGE
;Z:0.35
;HEIGHT:0.35
;BEFORE_LAYER_CHANGE
G92 E0
;0.35


G1 E-5 F3600
G1 Z.35 F10200
;AFTER_LAYER_CHANGE
;0.35
G1 X66.429 Y33.81
G1 E5 F2400
M204 S500
;TYPE:Skirt/Brim
;WIDTH:0.42
G1 F1200
G1 X68.445 Y30.266 E.20462
G1 X71.314 Y27.418 E.20288
G1 X74.858 Y25.465 E.20308
G1 X78.79 Y24.555 E.20255
G1 X140.966 Y24.543 E3.12036
G1 X143.827 Y25.03 E.14565
G1 X146.543 Y26.058 E.14574
G1 X150.114 Y28.639 E.22112
G1 X153.184 Y32.916 E.26422
G1 X154.558 Y38.047 E.26658
G1 X154.558 Y181.973 E7.22306
G1 X153.57 Y186.274 E.22147
G1 X151.524 Y189.858 E.20711
G1 X148.563 Y192.756 E.20793
G1 X144.953 Y194.689 E.20551
G1 X140.943 Y195.558 E.20592
G1 X79.027 Y195.558 E3.10731
G1 X74.726 Y194.57 E.22147
G1 X71.142 Y192.524 E.20711
G1 X68.244 Y189.563 E.20793
G1 X66.311 Y185.953 E.20551
G1 X65.442 Y181.943 E.20592
G1 X65.442 Y38.11 E7.21839
G1 X66.416 Y33.868 E.21843
G1 X66.742 Y33.958 F10200
G1 F1200
G1 X68.704 Y30.494 E.19979
G1 X71.54 Y27.68 E.2005
G1 X75.003 Y25.779 E.19826
G1 X78.848 Y24.895 E.198
G1 X140.923 Y24.886 E3.11529
G1 X143.753 Y25.367 E.14406
G1 X146.399 Y26.373 E.14207
G1 X149.888 Y28.902 E.21626
G1 X152.885 Y33.092 E.25853
G1 X154.213 Y38.069 E.25851
G1 X154.213 Y181.954 E7.221
G1 X153.258 Y186.126 E.21479
G1 X151.265 Y189.629 E.20226
G1 X148.378 Y192.464 E.20306
G1 X144.856 Y194.357 E.20067
G1 X140.925 Y195.213 E.2019
G1 X79.046 Y195.213 E3.10545
G1 X74.875 Y194.258 E.21474
G1 X71.371 Y192.265 E.20231
G1 X68.536 Y189.378 E.20306
G1 X66.643 Y185.856 E.20067
G1 X65.787 Y181.925 E.2019
G1 X65.787 Y38.13 E7.21648
G1 X66.729 Y34.016 E.21181
G1 X67.065 Y34.093 F10200
G1 F1200
G1 X68.992 Y30.685 E.19648
G1 X71.765 Y27.942 E.19575
G1 X75.147 Y26.093 E.19344
G1 X78.906 Y25.236 E.19349
G1 X140.88 Y25.228 E3.11022
G1 X143.646 Y25.695 E.14078
G1 X146.255 Y26.687 E.14008
G1 X149.663 Y29.165 E.21147
G1 X152.56 Y33.211 E.24974
G1 X153.868 Y38.092 E.2536
G1 X153.868 Y181.934 E7.21884
G1 X152.928 Y186.023 E.21056
G1 X150.978 Y189.437 E.19731
G1 X148.155 Y192.2 E.19824
G1 X144.715 Y194.042 E.19583
G1 X140.906 Y194.868 E.1956
G1 X79.066 Y194.868 E3.1035
G1 X74.977 Y193.928 E.21056
G1 X71.563 Y191.978 E.19731
G1 X68.8 Y189.155 E.19824
G1 X66.958 Y185.715 E.19583
G1 X66.132 Y181.906 E.1956
G1 X66.132 Y38.149 E7.21458
G1 X67.051 Y34.152 E.20583
G1 X67.387 Y34.23 F10200
G1 F1200
G1 X67.403 Y34.162 E.00351
G1 X69.28 Y30.877 E.18987
G1 X71.99 Y28.205 E.19099
G1 X75.291 Y26.407 E.18864
G1 X78.963 Y25.577 E.18893
G1 X140.837 Y25.571 E3.1052
G1 X143.54 Y26.024 E.13754
G1 X146.111 Y27.001 E.13803
G1 X149.437 Y29.427 E.2066
G1 X152.261 Y33.386 E.24405
G1 X153.523 Y38.114 E.24559
G1 X153.523 Y181.915 E7.21678
G1 X152.615 Y185.875 E.20389
G1 X150.719 Y189.208 E.19244
G1 X147.97 Y191.908 E.19338
G1 X144.618 Y193.71 E.19099
G1 X140.888 Y194.523 E.19159
G1 X79.085 Y194.523 E3.10164
G1 X75.125 Y193.615 E.20389
G1 X71.792 Y191.719 E.19244
G1 X69.092 Y188.97 E.19338
G1 X67.29 Y185.618 E.19099
G1 X66.477 Y181.888 E.19159
G1 X66.477 Y38.169 E7.21267
G1 X67.374 Y34.288 E.19991
G1 X67.703 Y34.364 F10200
G1 F1200
G1 X67.715 Y34.311 E.00273
G1 X69.539 Y31.105 E.18511
G1 X72.176 Y28.496 E.18617
G1 X75.435 Y26.722 E.18622
G1 X79.02 Y25.917 E.1844
G1 X140.794 Y25.913 E3.10018
G1 X143.466 Y26.361 E.13597
G1 X145.966 Y27.315 E.13429
G1 X149.211 Y29.689 E.20178
G1 X151.962 Y33.56 E.23833
G1 X153.178 Y38.137 E.23767
G1 X153.178 Y181.895 E7.21463
G1 X152.285 Y185.773 E.19971
G1 X150.431 Y189.016 E.18747
G1 X147.784 Y191.616 E.18621
G1 X144.52 Y193.378 E.18615
G1 X140.869 Y194.178 E.18758
G1 X79.105 Y194.178 E3.09968
G1 X75.227 Y193.285 E.19971
G1 X71.984 Y191.431 E.18747
G1 X69.384 Y188.784 E.18621
G1 X67.622 Y185.52 E.18615
G1 X66.822 Y181.869 E.18758
G1 X66.822 Y38.188 E7.21076
G1 X67.689 Y34.422 E.19394
G1 X68.025 Y34.5 F10200
G1 F1200
G1 X68.045 Y34.413 E.00448
G1 X69.827 Y31.297 E.18015
G1 X72.401 Y28.759 E.18141
G1 X75.578 Y27.037 E.18136
G1 X79.076 Y26.258 E.17985
G1 X140.752 Y26.256 E3.09527
G1 X143.359 Y26.69 E.13264
G1 X145.821 Y27.629 E.13224
G1 X148.985 Y29.95 E.19693
G1 X151.637 Y33.679 E.22964
G1 X152.833 Y38.159 E.23271
G1 X152.833 Y181.875 E7.21252
G1 X151.955 Y185.67 E.19549
G1 X150.144 Y188.823 E.18248
G1 X147.561 Y191.353 E.18145
G1 X144.378 Y193.063 E.18133
G1 X140.851 Y193.833 E.18117
G1 X79.125 Y193.833 E3.09778
G1 X75.33 Y192.955 E.19549
G1 X72.177 Y191.144 E.18248
G1 X69.647 Y188.561 E.18145
G1 X67.937 Y185.378 E.18133
G1 X67.167 Y181.851 E.18117
G1 X67.167 Y38.208 E7.20886
G1 X68.012 Y34.558 E.18802
G1 X68.341 Y34.634 F10200
G1 F1200
G1 X68.357 Y34.563 E.00365
G1 X70.114 Y31.489 E.17769
G1 X72.625 Y29.022 E.17666
G1 X75.72 Y27.352 E.17649
G1 X79.132 Y26.599 E.17535
G1 X140.709 Y26.598 E3.0903
G1 X143.252 Y27.018 E.12935
G1 X145.676 Y27.943 E.13021
G1 X148.758 Y30.211 E.19204
G1 X151.338 Y33.853 E.22399
G1 X152.488 Y38.182 E.22479
G1 X152.488 Y181.856 E7.21041
G1 X151.643 Y185.521 E.18876
G1 X149.886 Y188.594 E.17765
G1 X147.375 Y191.061 E.17666
G1 X144.28 Y192.732 E.17652
G1 X140.832 Y193.488 E.17715
G1 X79.144 Y193.488 E3.09587
G1 X75.479 Y192.643 E.18876
G1 X72.406 Y190.886 E.17765
G1 X69.939 Y188.375 E.17666
G1 X68.268 Y185.28 E.17652
G1 X67.512 Y181.832 E.17715
G1 X67.512 Y38.228 E7.2069
G1 X68.327 Y34.693 E.18206
G1 X68.663 Y34.771 F10200
G1 F1200
G1 X68.687 Y34.665 E.00545
G1 X70.401 Y31.682 E.17266
G1 X72.848 Y29.286 E.17187
G1 X75.862 Y27.667 E.1717
G1 X79.187 Y26.94 E.17081
G1 X140.695 Y26.943 E3.08684
G1 X143.178 Y27.355 E.12632
G1 X145.531 Y28.256 E.12645
G1 X148.53 Y30.472 E.18714
G1 X151.038 Y34.026 E.2183
G1 X152.144 Y38.204 E.2169
G1 X152.144 Y181.836 E7.2083
G1 X151.313 Y185.418 E.18454
G1 X149.599 Y188.402 E.1727
G1 X147.152 Y190.797 E.17184
G1 X144.138 Y192.416 E.1717
G1 X140.813 Y193.144 E.17082
G1 X79.164 Y193.144 E3.09391
G1 X75.582 Y192.313 E.18454
G1 X72.598 Y190.599 E.1727
G1 X70.203 Y188.152 E.17184
G1 X68.584 Y185.138 E.1717
G1 X67.856 Y181.813 E.17082
G1 X67.856 Y38.247 E7.20499
G1 X68.649 Y34.829 E.17609
G1 X68.985 Y34.907 F10200
G1 F1200
G1 X69.017 Y34.769 E.00711
G1 X70.688 Y31.875 E.16771
G1 X73.034 Y29.578 E.16477
G1 X75.96 Y27.999 E.16686
G1 X79.206 Y27.285 E.1668
G1 X140.681 Y27.288 E3.08518
G1 X143.104 Y27.693 E.12329
G1 X145.385 Y28.57 E.12264
G1 X148.303 Y30.733 E.18229
G1 X150.713 Y34.145 E.20964
G1 X151.799 Y38.226 E.21194
G1 X151.799 Y181.816 E7.2062
G1 X150.983 Y185.315 E.18031
G1 X149.312 Y188.209 E.16771
G1 X146.966 Y190.505 E.16474
G1 X144.041 Y192.085 E.16684
G1 X140.794 Y192.799 E.16685
G1 X79.184 Y192.799 E3.09195
G1 X75.685 Y191.983 E.18031
G1 X72.791 Y190.312 E.16771
G1 X70.495 Y187.966 E.16474
G1 X68.915 Y185.041 E.16684
G1 X68.201 Y181.794 E.16685
G1 X68.201 Y38.267 E7.20303
G1 X68.971 Y34.966 E.17011
G1 X69.3 Y35.042 F10200
G1 F1200
G1 X69.329 Y34.919 E.00634
G1 X70.947 Y32.104 E.16295
G1 X73.22 Y29.869 E.15998
G1 X76.058 Y28.33 E.16202
G1 X79.225 Y27.63 E.16277
G1 X140.667 Y27.633 E3.08352
G1 X142.997 Y28.021 E.11854
G1 X145.239 Y28.883 E.12055
G1 X148.075 Y30.993 E.1774
G1 X150.413 Y34.318 E.20399
G1 X151.454 Y38.249 E.20408
G1 X151.454 Y181.796 E7.20404
G1 X150.671 Y185.165 E.17358
G1 X149.053 Y187.98 E.16295
G1 X146.78 Y190.214 E.15994
G1 X143.942 Y191.753 E.16202
G1 X140.776 Y192.454 E.16274
G1 X79.204 Y192.454 E3.09005
G1 X75.835 Y191.671 E.17358
G1 X73.02 Y190.053 E.16295
G1 X70.786 Y187.78 E.15994
G1 X69.247 Y184.942 E.16202
G1 X68.546 Y181.776 E.16274
G1 X68.546 Y38.287 E7.20113
G1 X69.287 Y35.101 E.16416
G1 X69.622 Y35.179 F10200
G1 F1200
G1 X69.659 Y35.022 E.0081
G1 X71.234 Y32.297 E.15796
G1 X73.443 Y30.133 E.15519
G1 X76.2 Y28.645 E.15723
G1 X79.244 Y27.974 E.15643
G1 X140.652 Y27.978 E3.08182
G1 X142.922 Y28.358 E.11551
G1 X145.093 Y29.196 E.11679
G1 X147.846 Y31.253 E.17247
G1 X150.088 Y34.436 E.19539
G1 X151.109 Y38.271 E.19917
G1 X151.109 Y181.777 E7.20198
G1 X150.341 Y185.061 E.16926
G1 X148.766 Y187.786 E.15796
G1 X146.557 Y189.95 E.15519
G1 X143.8 Y191.438 E.15723
G1 X140.757 Y192.109 E.15638
G1 X79.223 Y192.109 E3.08814
G1 X75.939 Y191.341 E.16926
G1 X73.214 Y189.766 E.15796
G1 X71.05 Y187.557 E.15519
G1 X69.562 Y184.8 E.15723
G1 X68.891 Y181.757 E.15638
G1 X68.891 Y38.307 E7.19917
G1 X69.609 Y35.238 E.15818
G1 X69.944 Y35.316 F10200
G1 F1200
G1 X69.989 Y35.126 E.0098
G1 X71.52 Y32.491 E.15294
G1 X73.667 Y30.397 E.15051
G1 X76.298 Y28.976 E.15007
G1 X79.262 Y28.319 E.15236
G1 X140.638 Y28.323 E3.08021
G1 X142.848 Y28.695 E.11247
G1 X144.946 Y29.509 E.11294
G1 X147.617 Y31.512 E.16755
G1 X149.788 Y34.609 E.18981
G1 X150.764 Y38.294 E.19131
G1 X150.764 Y181.756 E7.19977
G1 X150.011 Y184.957 E.16503
G1 X148.48 Y187.593 E.15298
G1 X146.333 Y189.687 E.15051
G1 X143.702 Y191.107 E.15004
G1 X140.738 Y191.764 E.15236
G1 X79.244 Y191.764 E3.08613
G1 X76.043 Y191.011 E.16503
G1 X73.407 Y189.48 E.15298
G1 X71.313 Y187.333 E.15051
G1 X69.893 Y184.702 E.15004
G1 X69.236 Y181.738 E.15236
G1 X69.236 Y38.327 E7.19721
G1 X69.93 Y35.375 E.15219
G1 X70.259 Y35.452 F10200
G1 F1200
G1 X70.3 Y35.277 E.00902
G1 X71.778 Y32.72 E.14822
G1 X73.853 Y30.688 E.14575
G1 X76.397 Y29.308 E.14525
G1 X79.282 Y28.664 E.14835
G1 X140.623 Y28.668 E3.07845
G1 X142.772 Y29.032 E.10939
G1 X144.798 Y29.822 E.10913
G1 X147.388 Y31.771 E.16267
G1 X149.487 Y34.781 E.18416
G1 X150.419 Y38.316 E.18347
G1 X150.419 Y181.737 E7.19771
G1 X149.7 Y184.807 E.15824
G1 X148.222 Y187.363 E.14818
G1 X146.147 Y189.395 E.14575
G1 X143.603 Y190.776 E.14527
G1 X140.719 Y191.419 E.14829
G1 X79.263 Y191.419 E3.08423
G1 X76.193 Y190.7 E.15824
G1 X73.637 Y189.222 E.14818
G1 X71.605 Y187.147 E.14575
G1 X70.225 Y184.603 E.14525
G1 X69.581 Y181.719 E.1483
G1 X69.581 Y38.347 E7.19525
G1 X70.245 Y35.51 E.14623
G1 X70.581 Y35.589 F10200
G1 F1200
G1 X70.63 Y35.381 E.01072
G1 X72.064 Y32.914 E.14321
G1 X74.076 Y30.952 E.14104
G1 X76.54 Y29.623 E.1405
G1 X79.3 Y29.009 E.1419
G1 X140.609 Y29.012 E3.07685
G1 X142.664 Y29.36 E.1046
G1 X144.651 Y30.134 E.10702
G1 X147.158 Y32.029 E.15772
G1 X149.162 Y34.899 E.17567
G1 X150.074 Y38.338 E.17856
G1 X150.074 Y181.717 E7.19561
G1 X149.37 Y184.702 E.15391
G1 X147.936 Y187.169 E.14321
G1 X145.924 Y189.131 E.14104
G1 X143.46 Y190.461 E.14052
G1 X140.7 Y191.074 E.14189
G1 X79.283 Y191.074 E3.08227
G1 X76.298 Y190.37 E.15391
G1 X73.831 Y188.936 E.14321
G1 X71.869 Y186.924 E.14104
G1 X70.539 Y184.46 E.14052
G1 X69.926 Y181.7 E.14189
G1 X69.926 Y38.367 E7.1933
G1 X70.567 Y35.648 E.1402
G1 X70.902 Y35.727 F10200
G1 F1200
G1 X70.959 Y35.486 E.01243
G1 X72.35 Y33.109 E.13822
G1 X74.299 Y31.216 E.13635
G1 X76.682 Y29.938 E.13571
G1 X79.319 Y29.354 E.13555
G1 X140.594 Y29.357 E3.07514
G1 X142.588 Y29.697 E.10152
G1 X144.503 Y30.447 E.10321
G1 X146.928 Y32.287 E.15277
G1 X148.861 Y35.071 E.17009
G1 X149.729 Y38.36 E.17071
G1 X149.729 Y181.696 E7.19345
G1 X149.041 Y184.598 E.14968
G1 X147.65 Y186.974 E.13817
G1 X145.701 Y188.867 E.13635
G1 X143.319 Y190.145 E.13566
G1 X140.681 Y190.729 E.1356
G1 X79.304 Y190.729 E3.08026
G1 X76.402 Y190.041 E.14968
G1 X74.026 Y188.65 E.13817
G1 X72.133 Y186.701 E.13635
G1 X70.855 Y184.319 E.13566
G1 X70.271 Y181.681 E.1356
G1 X70.271 Y38.387 E7.19134
G1 X70.888 Y35.786 E.13416
G1 X71.217 Y35.863 F10200
G1 F1200
G1 X71.27 Y35.637 E.01165
G1 X72.608 Y33.339 E.13345
G1 X74.484 Y31.508 E.13156
G1 X76.78 Y30.269 E.13093
G1 X79.338 Y29.699 E.13152
G1 X140.579 Y29.702 E3.07344
G1 X142.512 Y30.034 E.09843
G1 X144.354 Y30.759 E.09935
G1 X146.697 Y32.545 E.14785
G1 X148.56 Y35.242 E.1645
G1 X149.384 Y38.382 E.16292
G1 X149.384 Y181.676 E7.19134
G1 X148.73 Y184.446 E.14284
G1 X147.392 Y186.744 E.13345
G1 X145.516 Y188.575 E.13156
G1 X143.22 Y189.814 E.13093
G1 X140.662 Y190.384 E.13152
G1 X79.324 Y190.384 E3.0783
G1 X76.554 Y189.73 E.14284
G1 X74.256 Y188.392 E.13345
G1 X72.425 Y186.516 E.13156
G1 X71.186 Y184.22 E.13093
G1 X70.616 Y181.662 E.13152
G1 X70.616 Y38.407 E7.18938
G1 X71.203 Y35.922 E.12814
G1 X71.538 Y36.002 F10200
G1 F1200
G1 X71.6 Y35.742 E.01341
G1 X72.893 Y33.534 E.12841
G1 X74.707 Y31.773 E.12688
G1 X76.922 Y30.584 E.12616
G1 X79.357 Y30.044 E.12517
G1 X140.564 Y30.047 E3.07173
G1 X142.436 Y30.371 E.09534
G1 X144.204 Y31.07 E.09541
G1 X146.466 Y32.802 E.14298
G1 X148.234 Y35.359 E.15601
G1 X149.04 Y38.405 E.15813
G1 X149.04 Y181.656 E7.18918
G1 X148.4 Y184.341 E.13852
G1 X147.107 Y186.549 E.12841
G1 X145.293 Y188.311 E.12691
G1 X143.078 Y189.499 E.12614
G1 X140.643 Y190.04 E.12518
G1 X79.344 Y190.04 E3.07635
G1 X76.659 Y189.4 E.13852
G1 X74.451 Y188.107 E.12841
G1 X72.689 Y186.293 E.12691
G1 X71.501 Y184.078 E.12614
G1 X70.96 Y181.644 E.12513
G1 X70.96 Y38.427 E7.18748
G1 X71.524 Y36.06 E.12212
G1 X71.853 Y36.138 F10200
G1 F1200
G1 X71.911 Y35.893 E.01264
G1 X73.151 Y33.764 E.12365
G1 X74.892 Y32.064 E.12212
G1 X77.021 Y30.916 E.12139
G1 X79.376 Y30.389 E.12111
G1 X140.549 Y30.392 E3.07002
G1 X142.359 Y30.707 E.0922
G1 X144.054 Y31.382 E.09156
G1 X146.234 Y33.059 E.13803
G1 X147.933 Y35.53 E.15049
G1 X148.695 Y38.427 E.15033
G1 X148.695 Y181.636 E7.18707
G1 X148.089 Y184.19 E.13173
G1 X146.849 Y186.319 E.12365
G1 X145.108 Y188.019 E.12212
G1 X142.979 Y189.168 E.12141
G1 X140.624 Y189.695 E.12111
G1 X79.364 Y189.695 E3.07439
G1 X76.81 Y189.089 E.13173
G1 X74.681 Y187.849 E.12365
G1 X72.981 Y186.108 E.12212
G1 X71.832 Y183.979 E.12141
G1 X71.305 Y181.624 E.12111
G1 X71.305 Y38.447 E7.18547
G1 X71.839 Y36.196 E.1161
G1 X72.174 Y36.276 F10200
G1 F1200
G1 X72.24 Y35.999 E.01429
G1 X73.437 Y33.959 E.1187
G1 X75.115 Y32.329 E.1174
G1 X77.12 Y31.247 E.11434
G1 X79.395 Y30.734 E.11704
G1 X140.534 Y30.737 E3.06832
G1 X142.248 Y31.034 E.0873
G1 X143.904 Y31.693 E.08945
G1 X146.001 Y33.315 E.13305
G1 X147.608 Y35.647 E.14213
G1 X148.35 Y38.449 E.14547
G1 X148.35 Y181.616 E7.18497
G1 X147.76 Y184.085 E.1274
G1 X146.563 Y186.124 E.11866
G1 X144.885 Y187.755 E.11744
G1 X142.88 Y188.836 E.11432
G1 X140.605 Y189.35 E.11705
G1 X79.384 Y189.35 E3.07243
G1 X76.916 Y188.76 E.12735
G1 X74.876 Y187.563 E.1187
G1 X73.245 Y185.885 E.11744
G1 X72.164 Y183.88 E.11432
G1 X71.65 Y181.605 E.11705
G1 X71.65 Y38.468 E7.18346
G1 X72.16 Y36.335 E.11006
G1 X72.488 Y36.413 F10200
G1 F1200
G1 X72.551 Y36.15 E.01357
G1 X73.694 Y34.189 E.11391
G1 X75.301 Y32.62 E.11271
G1 X77.22 Y31.578 E.10959
G1 X79.415 Y31.078 E.11298
G1 X140.519 Y31.082 E3.06656
G1 X142.17 Y31.371 E.08412
G1 X143.753 Y32.004 E.08556
G1 X145.768 Y33.571 E.1281
G1 X147.306 Y35.817 E.13661
G1 X148.005 Y38.472 E.13778
G1 X148.005 Y181.596 E7.18281
G1 X147.449 Y183.933 E.12056
G1 X146.306 Y185.894 E.11391
G1 X144.699 Y187.463 E.11271
G1 X142.78 Y188.506 E.10961
G1 X140.586 Y189.005 E.11292
G1 X79.404 Y189.005 E3.07047
G1 X77.067 Y188.449 E.12056
G1 X75.106 Y187.306 E.11391
G1 X73.537 Y185.699 E.11271
G1 X72.494 Y183.78 E.10961
G1 X71.995 Y181.586 E.11292
G1 X71.995 Y38.488 E7.1815
