; generated by Slic3r 1.3.0 on 2023-06-19 at 23:32:09

; external perimeters extrusion width = 0.44mm (2.38mm^3/s)
; perimeters extrusion width = 0.56mm (6.20mm^3/s)
; infill extrusion width = 0.50mm (8.23mm^3/s)
; solid infill extrusion width = 0.56mm (2.07mm^3/s)
; top infill extrusion width = 0.56mm (1.55mm^3/s)
; support material extrusion width = 0.44mm (4.76mm^3/s)

M190 S100 ; set bed temperature and wait for it to be reached
M104 S240 ; set temperature
G28 ; home all axes
G29 ; auto-bed-level
G1 Z5 F5000 ; lift nozzle

; Filament gcode

M109 S240 ; set temperature and wait for it to be reached
G21 ; set units to millimeters
G90 ; use absolute coordinates
M82 ; use absolute distances for extrusion
G92 E0
G1 Z0.350 F10200.000
G1 E-2.00000 F2400.00000
G92 E0
G1 X77.285 Y107.181 F10200.000
G1 E2.00000 F2400.00000
G1 F1800
G1 X78.784 Y99.568 E2.70572
G1 X81.643 Y96.824 E3.06602
G1 X82.533 Y95.918 E3.18153
G1 X82.741 Y95.677 E3.21051
G1 X82.974 Y95.341 E3.24771
G1 X83.205 Y94.921 E3.29128
G1 X83.423 Y94.411 E3.34172
G1 X83.614 Y93.817 E3.39846
G1 X83.750 Y93.192 E3.45663
G1 X83.816 Y92.642 E3.50707
G1 X83.826 Y92.163 E3.55066
G1 X83.792 Y91.755 E3.58783
G1 X83.732 Y91.442 E3.61682
G1 X83.415 Y90.212 E3.73235
G1 X82.532 Y87.169 E4.02049
G1 X83.928 Y80.781 E4.61521
G1 X86.035 Y78.342 E4.90830
G1 X87.077 Y77.077 E5.05738
G1 X87.569 Y76.401 E5.13345
G1 X88.090 Y75.535 E5.22534
G1 X88.571 Y74.557 E5.32450
G1 X89.056 Y73.333 E5.44420
G1 X89.444 Y72.072 E5.56419
G1 X89.738 Y70.787 E5.68407
G1 X89.923 Y69.543 E5.79846
G1 X90.000 Y68.406 E5.90206
G1 X89.983 Y67.411 E5.99261
G1 X89.894 Y66.564 E6.07002
G1 X89.623 Y64.943 E6.21953
G1 X89.359 Y63.563 E6.34733
G1 X89.465 Y60.651 E6.61234
G1 X95.283 Y38.938 E8.65666
G1 X95.495 Y38.288 E8.71885
G1 X96.004 Y36.968 E8.84750
G1 X96.623 Y35.759 E8.97108
G1 X97.576 Y34.301 E9.12943
G1 X98.419 Y33.264 E9.25102
G1 X99.639 Y32.047 E9.40768
G1 X100.659 Y31.218 E9.52721
G1 X101.822 Y30.476 E9.65271
G1 X102.939 Y29.856 E9.76889
G1 X104.068 Y29.363 E9.88095
G1 X105.628 Y28.855 E10.03013
G1 X106.732 Y28.599 E10.13325
G1 X108.289 Y28.381 E10.27619
G1 X109.349 Y28.321 E10.37275
G1 X110.874 Y28.360 E10.51153
G1 X111.887 Y28.466 E10.60415
G1 X113.121 Y28.695 E10.71825
G1 X113.610 Y28.806 E10.76389
G1 X139.291 Y35.687 E13.18181
G1 X140.755 Y36.114 E13.32051
G1 X142.142 Y36.578 E13.45359
G1 X143.510 Y37.096 E13.58658
G1 X144.858 Y37.666 E13.71966
G1 X145.959 Y38.179 E13.83019
G1 X147.264 Y38.843 E13.96328
G1 X148.540 Y39.557 E14.09633
G1 X150.000 Y40.455 E14.25213
G1 X151.211 Y41.272 E14.38500
G1 X152.194 Y41.987 E14.49562
G1 X153.537 Y43.046 E14.65113
G1 X154.650 Y44.000 E14.78445
G1 X155.721 Y44.995 E14.91739
G1 X156.582 Y45.852 E15.02786
G1 X157.582 Y46.921 E15.16104
G1 X158.697 Y48.219 E15.31661
G1 X159.453 Y49.170 E15.42716
G1 X160.322 Y50.346 E15.56009
G1 X161.146 Y51.557 E15.69327
G1 X162.048 Y53.011 E15.84896
G1 X162.649 Y54.067 E15.95941
G1 X163.326 Y55.364 E16.09248
G1 X164.055 Y56.912 E16.24810
G1 X165.320 Y59.897 E16.54294
G1 X165.620 Y64.192 E16.93455
G1 X145.895 Y137.806 E23.86555
G1 X145.947 Y137.982 E23.88224
G1 X147.263 Y139.188 E24.04462
G1 X148.976 Y140.542 E24.24319
G1 X150.782 Y141.769 E24.44175
G1 X152.661 Y142.857 E24.63924
G1 X154.625 Y143.811 E24.83781
G1 X156.653 Y144.621 E25.03637
G1 X158.734 Y145.282 E25.23494
G1 X160.857 Y145.790 E25.43351
G1 X163.023 Y146.145 E25.63315
G1 X177.912 Y147.488 E26.99274
G1 X176.806 Y172.074 E29.23103
G1 X30.168 Y172.074 E42.56707
G1 X22.628 Y164.534 E43.53687
G1 X22.628 Y127.642 E46.89205
G1 X24.588 Y122.911 E47.35776
G1 X38.209 Y109.290 E49.10964
G1 X42.940 Y107.330 E49.57536
G1 X77.103 Y107.330 E52.68240
G1 X77.239 Y107.219 E52.69833
G1 X77.755 Y107.955 F10200.000
G1 F1800
G1 X77.949 Y107.657 E52.73070
G1 X77.865 Y107.468 E52.74951
G1 X79.360 Y99.882 E53.45269
G1 X82.083 Y97.268 E53.79602
G1 X82.989 Y96.346 E53.91357
G1 X83.236 Y96.060 E53.94793
G1 X83.506 Y95.671 E53.99100
G1 X83.767 Y95.196 E54.04025
G1 X84.009 Y94.631 E54.09623
G1 X84.218 Y93.978 E54.15854
G1 X84.367 Y93.296 E54.22207
G1 X84.440 Y92.684 E54.27806
G1 X84.451 Y92.143 E54.32733
G1 X84.412 Y91.671 E54.37037
G1 X84.342 Y91.300 E54.40474
G1 X84.018 Y90.048 E54.52231
G1 X83.176 Y87.148 E54.79698
G1 X84.504 Y81.069 E55.36283
G1 X86.514 Y78.744 E55.64234
G1 X87.565 Y77.469 E55.79260
G1 X88.091 Y76.747 E55.87388
G1 X88.639 Y75.834 E55.97067
G1 X89.136 Y74.825 E56.07300
G1 X89.648 Y73.536 E56.19911
G1 X90.048 Y72.234 E56.32300
G1 X90.351 Y70.907 E56.44679
G1 X90.544 Y69.618 E56.56533
G1 X90.625 Y68.422 E56.67437
G1 X90.607 Y67.372 E56.76981
G1 X90.512 Y66.469 E56.85243
G1 X90.239 Y64.835 E57.00312
G1 X89.986 Y63.515 E57.12535
G1 X90.087 Y60.744 E57.37749
G1 X95.882 Y39.116 E59.41386
G1 X96.084 Y38.497 E59.47304
G1 X96.575 Y37.224 E59.59717
G1 X97.165 Y36.073 E59.71475
G1 X98.081 Y34.671 E59.86716
G1 X98.884 Y33.684 E59.98284
G1 X100.058 Y32.512 E60.13366
G1 X101.028 Y31.723 E60.24738
G1 X102.135 Y31.016 E60.36686
G1 X103.216 Y30.417 E60.47925
G1 X104.290 Y29.948 E60.58587
G1 X105.795 Y29.457 E60.72982
G1 X106.846 Y29.214 E60.82794
G1 X108.350 Y29.003 E60.96602
G1 X109.359 Y28.946 E61.05789
G1 X110.834 Y28.984 E61.19208
G1 X111.797 Y29.085 E61.28021
G1 X112.994 Y29.308 E61.39094
G1 X113.460 Y29.413 E61.43437
G1 X139.126 Y36.290 E63.85091
G1 X140.564 Y36.709 E63.98714
G1 X141.929 Y37.166 E64.11802
G1 X143.274 Y37.675 E64.24882
G1 X144.599 Y38.235 E64.37970
G1 X145.690 Y38.743 E64.48913
G1 X146.973 Y39.396 E64.62003
G1 X148.229 Y40.098 E64.75088
G1 X149.657 Y40.977 E64.90338
G1 X150.848 Y41.781 E65.03406
G1 X151.822 Y42.489 E65.14358
G1 X153.136 Y43.525 E65.29581
G1 X154.230 Y44.464 E65.42692
G1 X155.284 Y45.442 E65.55766
G1 X156.136 Y46.290 E65.66703
G1 X157.120 Y47.342 E65.79802
G1 X158.212 Y48.612 E65.95030
G1 X158.960 Y49.554 E66.05975
G1 X159.814 Y50.711 E66.19048
G1 X160.624 Y51.902 E66.32146
G1 X161.508 Y53.325 E66.47386
G1 X162.102 Y54.371 E66.58321
G1 X162.769 Y55.646 E66.71408
G1 X163.482 Y57.162 E66.86642
G1 X164.704 Y60.044 E67.15120
G1 X164.989 Y64.131 E67.52380
G1 X145.193 Y138.010 E74.47978
G1 X145.245 Y138.187 E74.49647
G1 X146.858 Y139.664 E74.69540
G1 X148.606 Y141.047 E74.89808
G1 X150.449 Y142.299 E75.10077
G1 X152.378 Y143.415 E75.30345
G1 X154.372 Y144.383 E75.50506
G1 X156.442 Y145.210 E75.70775
G1 X158.566 Y145.884 E75.91043
G1 X160.734 Y146.403 E76.11312
G1 X162.945 Y146.765 E76.31688
G1 X177.261 Y148.057 E77.62419
G1 X176.208 Y171.449 E79.75380
G1 X30.427 Y171.449 E93.01195
G1 X23.253 Y164.275 E93.93466
G1 X23.253 Y127.766 E97.25499
G1 X25.117 Y123.265 E97.69809
G1 X38.563 Y109.820 E99.42736
G1 X43.064 Y107.955 E99.87046
G1 X77.695 Y107.955 E103.02002
G1 E101.02002 F2400.00000
G92 E0
G1 X144.498 Y138.190 F10200.000
G1 E2.00000 F2400.00000
G1 F1800
G1 X144.540 Y138.355 E2.01553
G1 X144.767 Y138.596 E2.04558
G1 X146.452 Y140.140 E2.25347
G1 X148.226 Y141.544 E2.45919
G1 X150.106 Y142.822 E2.66599
G1 X152.085 Y143.967 E2.87388
G1 X154.130 Y144.960 E3.08068
G1 X156.243 Y145.803 E3.28749
G1 X158.399 Y146.487 E3.49321
G1 X160.610 Y147.016 E3.70002
G1 X162.854 Y147.384 E3.90682
G1 X176.610 Y148.626 E5.16293
G1 X175.611 Y170.824 E7.18386
G1 X30.686 Y170.824 E20.36413
G1 X23.878 Y164.016 E21.23975
G1 X23.878 Y127.891 E24.52523
G1 X25.647 Y123.619 E24.94571
G1 X38.917 Y110.350 E26.65237
G1 X43.188 Y108.580 E27.07286
G1 X78.716 Y108.580 E30.30392
G1 X78.910 Y108.282 E30.33629
G1 X78.517 Y107.395 E30.42452
G1 X79.935 Y100.196 E31.09181
G1 X82.524 Y97.712 E31.41817
G1 X83.453 Y96.766 E31.53873
G1 X83.731 Y96.443 E31.57752
G1 X84.038 Y96.001 E31.62645
G1 X84.329 Y95.472 E31.68138
G1 X84.596 Y94.850 E31.74291
G1 X84.826 Y94.127 E31.81190
G1 X84.984 Y93.399 E31.87967
G1 X85.064 Y92.727 E31.94120
G1 X85.077 Y92.123 E31.99615
G1 X85.033 Y91.587 E32.04505
G1 X84.953 Y91.168 E32.08385
G1 X84.622 Y89.890 E32.20392
G1 X83.821 Y87.126 E32.46563
G1 X85.081 Y81.358 E33.00260
G1 X86.993 Y79.145 E33.26853
G1 X88.053 Y77.861 E33.41998
G1 X88.620 Y77.080 E33.50778
G1 X89.188 Y76.134 E33.60815
G1 X89.742 Y75.003 E33.72263
G1 X90.236 Y73.748 E33.84529
G1 X90.653 Y72.396 E33.97399
G1 X90.998 Y70.824 E34.12033
G1 X91.164 Y69.693 E34.22433
G1 X91.251 Y68.423 E34.34006
G1 X91.232 Y67.334 E34.43916
G1 X91.130 Y66.374 E34.52698
G1 X90.854 Y64.727 E34.67886
G1 X90.613 Y63.467 E34.79550
G1 X90.709 Y60.838 E35.03478
G1 X96.482 Y39.294 E37.06321
G1 X96.673 Y38.707 E37.11936
G1 X97.146 Y37.480 E37.23898
G1 X97.706 Y36.388 E37.35056
G1 X98.587 Y35.040 E37.49703
G1 X99.348 Y34.103 E37.60680
G1 X100.477 Y32.977 E37.75177
G1 X101.397 Y32.228 E37.85970
G1 X102.449 Y31.557 E37.97316
G1 X103.493 Y30.978 E38.08175
G1 X104.513 Y30.533 E38.18293
G1 X105.963 Y30.060 E38.32165
G1 X106.960 Y29.829 E38.41476
G1 X108.411 Y29.626 E38.54799
G1 X109.368 Y29.572 E38.63518
G1 X110.793 Y29.608 E38.76478
G1 X111.707 Y29.704 E38.84840
G1 X112.868 Y29.920 E38.95578
G1 X113.310 Y30.020 E38.99699
G1 X138.961 Y36.893 E41.41215
G1 X140.159 Y37.238 E41.52552
G1 X141.504 Y37.679 E41.65419
G1 X143.038 Y38.253 E41.80320
G1 X144.458 Y38.859 E41.94362
G1 X145.623 Y39.406 E42.06060
G1 X146.682 Y39.950 E42.16890
G1 X148.109 Y40.754 E42.31790
G1 X149.314 Y41.500 E42.44676
G1 X150.590 Y42.366 E42.58701
G1 X151.629 Y43.127 E42.70411
G1 X152.562 Y43.863 E42.81224
G1 X153.642 Y44.778 E42.94100
G1 X154.847 Y45.889 E43.09006
G1 X155.847 Y46.891 E43.21875
G1 X156.808 Y47.931 E43.34756
G1 X157.726 Y49.006 E43.47611
G1 X158.467 Y49.938 E43.58445
G1 X159.307 Y51.076 E43.71300
G1 X160.103 Y52.246 E43.84178
G1 X160.968 Y53.639 E43.99088
G1 X161.664 Y54.872 E44.11965
G1 X162.311 Y56.130 E44.24831
G1 X162.908 Y57.411 E44.37686
G1 X164.088 Y60.192 E44.65159
G1 X164.358 Y64.071 E45.00517
G1 X144.514 Y138.132 E51.97832
G1 E49.97832 F2400.00000
G92 E0
G1 X175.959 Y149.194 F10200.000
G1 E2.00000 F2400.00000
G1 F1800
G1 X175.013 Y170.199 E3.91225
G1 X30.945 Y170.199 E17.01463
G1 X24.503 Y163.758 E17.84316
G1 X24.503 Y128.015 E21.09379
G1 X26.177 Y123.973 E21.49167
G1 X27.899 Y122.251 E21.71311
G1 X39.271 Y110.880 E23.17571
G1 X43.313 Y109.205 E23.57359
G1 X79.676 Y109.205 E26.88070
G1 X79.870 Y108.907 E26.91307
G1 X79.168 Y107.322 E27.07071
G1 X80.510 Y100.511 E27.70211
G1 X82.964 Y98.155 E28.01150
G1 X83.905 Y97.200 E28.13344
G1 X84.237 Y96.812 E28.17984
G1 X84.570 Y96.331 E28.23307
G1 X84.884 Y95.761 E28.29222
G1 X85.176 Y95.084 E28.35932
G1 X85.427 Y94.302 E28.43399
G1 X85.602 Y93.502 E28.50845
G1 X85.690 Y92.754 E28.57699
G1 X85.702 Y92.103 E28.63616
G1 X85.653 Y91.503 E28.69092
G1 X85.561 Y91.018 E28.73578
G1 X85.226 Y89.726 E28.85722
G1 X84.465 Y87.104 E29.10547
G1 X85.658 Y81.646 E29.61356
G1 X87.469 Y79.551 E29.86546
G1 X88.531 Y78.265 E30.01713
G1 X89.142 Y77.426 E30.11154
G1 X89.737 Y76.433 E30.21680
G1 X90.317 Y75.248 E30.33674
G1 X90.827 Y73.951 E30.46354
G1 X91.257 Y72.558 E30.59614
G1 X91.616 Y70.920 E30.74858
G1 X91.785 Y69.768 E30.85452
G1 X91.876 Y68.439 E30.97571
G1 X91.856 Y67.295 E31.07970
G1 X91.749 Y66.278 E31.17272
G1 X91.470 Y64.618 E31.32579
G1 X91.240 Y63.419 E31.43686
G1 X91.331 Y60.931 E31.66326
G1 X97.081 Y39.472 E33.68375
G1 X97.262 Y38.916 E33.73688
G1 X97.717 Y37.735 E33.85199
G1 X98.247 Y36.702 E33.95757
G1 X99.092 Y35.409 E34.09809
G1 X99.813 Y34.523 E34.20196
G1 X100.896 Y33.442 E34.34109
G1 X101.767 Y32.734 E34.44321
G1 X102.763 Y32.098 E34.55065
G1 X103.770 Y31.539 E34.65545
G1 X104.735 Y31.118 E34.75118
G1 X106.131 Y30.663 E34.88468
G1 X107.074 Y30.444 E34.97278
G1 X108.472 Y30.249 E35.10116
G1 X109.378 Y30.197 E35.18366
G1 X110.752 Y30.232 E35.30867
G1 X111.617 Y30.323 E35.38779
G1 X113.160 Y30.627 E35.53078
G1 X138.899 Y37.525 E37.95420
G1 X140.183 Y37.900 E38.07585
G1 X141.301 Y38.270 E38.18303
G1 X142.605 Y38.754 E38.30950
G1 X144.083 Y39.374 E38.45524
G1 X145.342 Y39.964 E38.58177
G1 X146.578 Y40.603 E38.70828
G1 X147.787 Y41.289 E38.83468
G1 X148.971 Y42.022 E38.96133
G1 X150.123 Y42.799 E39.08764
G1 X151.246 Y43.621 E39.21430
G1 X152.335 Y44.484 E39.34060
G1 X153.392 Y45.391 E39.46730
G1 X154.411 Y46.336 E39.59366
G1 X155.393 Y47.320 E39.72016
G1 X156.338 Y48.343 E39.84676
G1 X157.240 Y49.399 E39.97312
G1 X158.102 Y50.490 E40.09952
G1 X158.921 Y51.614 E40.22603
G1 X159.698 Y52.770 E40.35267
G1 X160.427 Y53.953 E40.47911
G1 X161.111 Y55.165 E40.60568
G1 X161.653 Y56.210 E40.71275
G1 X162.249 Y57.466 E40.83916
G1 X163.472 Y60.340 E41.12318
G1 X163.728 Y64.010 E41.45775
G1 X143.804 Y138.365 E48.45858
G1 X143.846 Y138.531 E48.47411
G1 X144.328 Y139.041 E48.53795
G1 X146.046 Y140.616 E48.74996
G1 X147.865 Y142.055 E48.96088
G1 X149.774 Y143.352 E49.17072
G1 X151.791 Y144.520 E49.38272
G1 X153.878 Y145.532 E49.59365
G1 X156.032 Y146.392 E49.80457
G1 X158.231 Y147.089 E50.01442
G1 X160.487 Y147.629 E50.22534
G1 X162.775 Y148.005 E50.43626
G1 X175.899 Y149.189 E51.63463
G1 X175.307 Y149.763 F10200.000
G1 F1800
G1 X174.416 Y169.574 E53.43820
G1 X31.204 Y169.574 E66.46270
G1 X25.128 Y163.499 E67.24415
G1 X25.128 Y128.139 E70.45992
G1 X26.707 Y124.327 E70.83519
G1 X28.341 Y122.693 E71.04532
G1 X39.625 Y111.409 E72.49662
G1 X43.437 Y109.830 E72.87188
G1 X80.637 Y109.830 E76.25504
G1 X80.831 Y109.532 E76.28741
G1 X79.819 Y107.250 E76.51446
G1 X81.085 Y100.825 E77.10998
G1 X83.409 Y98.595 E77.40291
G1 X84.356 Y97.633 E77.52571
G1 X84.732 Y97.195 E77.57817
G1 X85.101 Y96.661 E77.63726
G1 X85.446 Y96.036 E77.70210
G1 X85.757 Y95.315 E77.77357
G1 X86.031 Y94.464 E77.85486
G1 X86.218 Y93.610 E77.93438
G1 X86.314 Y92.796 E78.00887
G1 X86.328 Y92.083 E78.07372
G1 X86.273 Y91.419 E78.13435
G1 X86.169 Y90.869 E78.18525
G1 X85.829 Y89.562 E78.30808
G1 X85.110 Y87.083 E78.54286
G1 X86.235 Y81.935 E79.02207
G1 X87.948 Y79.952 E79.26039
G1 X89.018 Y78.656 E79.41325
G1 X89.663 Y77.771 E79.51286
G1 X90.287 Y76.733 E79.62302
G1 X90.892 Y75.494 E79.74840
G1 X91.419 Y74.154 E79.87935
G1 X91.861 Y72.720 E80.01585
G1 X92.190 Y71.277 E80.15043
G1 X92.233 Y71.017 E80.17443
G1 X92.406 Y69.843 E80.28232
G1 X92.502 Y68.454 E80.40895
G1 X92.481 Y67.257 E80.51784
G1 X92.367 Y66.183 E80.61606
G1 X92.086 Y64.510 E80.77031
G1 X91.868 Y63.371 E80.87580
G1 X91.953 Y61.024 E81.08934
G1 X97.680 Y39.649 E83.10188
G1 X97.851 Y39.125 E83.15200
G1 X98.289 Y37.991 E83.26259
G1 X98.788 Y37.016 E83.36217
G1 X99.598 Y35.778 E83.49675
G1 X100.277 Y34.942 E83.59472
G1 X101.315 Y33.907 E83.72800
G1 X102.136 Y33.239 E83.82432
G1 X103.076 Y32.639 E83.92573
G1 X104.047 Y32.100 E84.02674
G1 X104.957 Y31.703 E84.11704
G1 X106.298 Y31.265 E84.24530
G1 X107.188 Y31.060 E84.32839
G1 X108.534 Y30.871 E84.45193
G1 X109.388 Y30.822 E84.52973
G1 X110.711 Y30.856 E84.65015
G1 X111.527 Y30.942 E84.72478
G1 X113.010 Y31.234 E84.86219
G1 X138.728 Y38.126 E87.28369
G1 X139.992 Y38.495 E87.40341
G1 X141.099 Y38.862 E87.50949
G1 X142.380 Y39.337 E87.63377
G1 X143.825 Y39.943 E87.77621
G1 X145.062 Y40.523 E87.90054
G1 X146.277 Y41.151 E88.02486
G1 X147.465 Y41.825 E88.14907
G1 X148.628 Y42.545 E88.27351
G1 X149.760 Y43.308 E88.39764
G1 X150.864 Y44.116 E88.52209
G1 X151.934 Y44.964 E88.64621
G1 X152.973 Y45.855 E88.77070
G1 X153.974 Y46.783 E88.89487
G1 X154.940 Y47.750 E89.01917
G1 X155.868 Y48.755 E89.14357
G1 X156.755 Y49.793 E89.26774
G1 X157.602 Y50.864 E89.39195
G1 X158.407 Y51.969 E89.51626
G1 X159.170 Y53.105 E89.64069
G1 X159.887 Y54.267 E89.76494
G1 X160.559 Y55.458 E89.88931
G1 X161.096 Y56.493 E89.99528
G1 X161.680 Y57.727 E90.11950
G1 X162.855 Y60.488 E90.39237
G1 X163.097 Y63.949 E90.70793
G1 X143.110 Y138.540 E97.73098
G1 X143.152 Y138.706 E97.74652
G1 X143.889 Y139.487 E97.84415
G1 X145.641 Y141.092 E98.06027
G1 X147.486 Y142.552 E98.27423
G1 X149.441 Y143.882 E98.48927
G1 X151.498 Y145.072 E98.70539
G1 X153.625 Y146.104 E98.92044
G1 X155.821 Y146.980 E99.13548
G1 X158.075 Y147.695 E99.35052
G1 X160.363 Y148.243 E99.56449
G1 X162.697 Y148.625 E99.77953
G1 X175.248 Y149.758 E100.92562
G1 X174.656 Y150.332 F10200.000
G1 F1800
G1 X173.818 Y168.949 E102.62050
G1 X31.463 Y168.949 E115.56712
G1 X25.753 Y163.240 E116.30148
G1 X25.753 Y128.264 E119.48241
G1 X27.237 Y124.681 E119.83505
G1 X28.783 Y123.135 E120.03389
G1 X39.979 Y111.939 E121.47387
