; generated by Slic3r 1.3.0 on 2023-06-20 at 21:02:58

; external perimeters extrusion width = 0.44mm (2.38mm^3/s)
; perimeters extrusion width = 0.56mm (6.20mm^3/s)
; infill extrusion width = 0.50mm (8.23mm^3/s)
; solid infill extrusion width = 0.56mm (2.07mm^3/s)
; top infill extrusion width = 0.56mm (1.55mm^3/s)
; support material extrusion width = 0.44mm (4.76mm^3/s)

M190 S100 ; set bed temperature and wait for it to be reached
M104 S240 ; set temperature
G28 ; home all axes
G29 ; auto-bed-level
G1 Z5 F5000 ; lift nozzle

; Filament gcode

M109 S240 ; set temperature and wait for it to be reached
G21 ; set units to millimeters
G90 ; use absolute coordinates
M82 ; use absolute distances for extrusion
G92 E0
G1 Z0.350 F10200.000
G1 E-2.00000 F2400.00000
G92 E0
G1 X54.324 Y108.817 F10200.000
G1 E2.00000 F2400.00000
G1 F1800
G1 X54.402 Y108.574 E2.02315
G1 X53.897 Y107.476 E2.13310
G1 X55.498 Y99.316 E2.88937
G1 X59.168 Y95.883 E3.34638
G1 X59.374 Y95.645 E3.37500
G1 X59.616 Y95.296 E3.41366
G1 X59.876 Y94.815 E3.46342
G1 X60.104 Y94.275 E3.51670
G1 X60.303 Y93.647 E3.57657
G1 X60.447 Y92.991 E3.63769
G1 X60.521 Y92.410 E3.69096
G1 X60.536 Y91.863 E3.74071
G1 X60.501 Y91.439 E3.77936
G1 X60.441 Y91.130 E3.80799
G1 X59.214 Y87.093 E4.19172
G1 X60.641 Y80.543 E4.80141
G1 X63.688 Y77.096 E5.21984
G1 X64.203 Y76.388 E5.29942
G1 X64.770 Y75.425 E5.40106
G1 X65.289 Y74.345 E5.51001
G1 X65.744 Y73.174 E5.62434
G1 X66.130 Y71.913 E5.74424
G1 X66.426 Y70.629 E5.86414
G1 X66.517 Y70.078 E5.91484
G1 X66.619 Y69.385 E5.97863
G1 X66.659 Y68.960 E6.01738
G1 X66.716 Y67.935 E6.11078
G1 X66.700 Y67.046 E6.19168
G1 X66.611 Y66.209 E6.26819
G1 X66.063 Y63.506 E6.51898
G1 X66.155 Y60.520 E6.79069
G1 X71.997 Y38.718 E8.84345
G1 X72.250 Y37.963 E8.91584
G1 X72.840 Y36.510 E9.05848
G1 X73.595 Y35.147 E9.20019
G1 X74.717 Y33.598 E9.37413
G1 X75.708 Y32.516 E9.50757
G1 X77.084 Y31.318 E9.67349
G1 X78.189 Y30.544 E9.79619
G1 X79.700 Y29.705 E9.95336
G1 X80.829 Y29.213 E10.06543
G1 X82.387 Y28.705 E10.21441
G1 X83.491 Y28.449 E10.31755
G1 X85.048 Y28.231 E10.46051
G1 X86.108 Y28.171 E10.55705
G1 X87.634 Y28.210 E10.69591
G1 X88.647 Y28.316 E10.78855
G1 X89.879 Y28.545 E10.90252
G1 X90.369 Y28.656 E10.94819
G1 X114.104 Y35.016 E13.18291
G1 X114.706 Y35.209 E13.24039
G1 X115.960 Y35.681 E13.36229
G1 X117.095 Y36.241 E13.47732
G1 X118.502 Y37.116 E13.62801
G1 X119.505 Y37.886 E13.74302
G1 X120.714 Y39.018 E13.89369
G1 X121.548 Y39.969 E14.00867
G1 X122.512 Y41.315 E14.15931
G1 X123.145 Y42.411 E14.27440
G1 X123.829 Y43.919 E14.42501
G1 X124.235 Y45.117 E14.54004
G1 X124.612 Y46.730 E14.69067
G1 X124.777 Y47.985 E14.80578
G1 X124.831 Y49.641 E14.95644
G1 X124.748 Y50.902 E15.07145
G1 X124.530 Y52.225 E15.19335
G1 X124.397 Y52.843 E15.25087
G1 X123.037 Y57.916 E15.72851
G1 X123.173 Y58.152 E15.75323
G1 X128.246 Y59.511 E16.23085
G1 X128.848 Y59.704 E16.28832
G1 X130.102 Y60.176 E16.41025
G1 X131.237 Y60.736 E16.52533
G1 X132.643 Y61.611 E16.67594
G1 X133.647 Y62.380 E16.79096
G1 X134.856 Y63.513 E16.94167
G1 X135.690 Y64.464 E17.05663
G1 X136.655 Y65.810 E17.20729
G1 X137.287 Y66.906 E17.32235
G1 X137.971 Y68.415 E17.47299
G1 X138.378 Y69.612 E17.58802
G1 X138.754 Y71.227 E17.73879
G1 X138.919 Y72.480 E17.85378
G1 X138.973 Y74.136 E18.00443
G1 X138.890 Y75.399 E18.11953
G1 X138.672 Y76.721 E18.24142
G1 X138.539 Y77.338 E18.29885
G1 X122.395 Y137.586 E23.97142
G1 X122.447 Y137.762 E23.98811
G1 X123.763 Y138.968 E24.15049
G1 X125.476 Y140.323 E24.34905
G1 X127.282 Y141.550 E24.54762
G1 X129.161 Y142.637 E24.74511
G1 X131.125 Y143.592 E24.94368
G1 X133.153 Y144.401 E25.14224
G1 X135.234 Y145.062 E25.34081
G1 X137.357 Y145.570 E25.53938
G1 X139.523 Y145.925 E25.73902
G1 X154.412 Y147.268 E27.09861
G1 X153.306 Y171.855 E29.33690
G1 X53.773 Y171.855 E38.38894
G1 X46.233 Y164.315 E39.35874
G1 X46.233 Y152.009 E40.47792
G1 X47.416 Y148.242 E40.83701
G1 X49.630 Y145.064 E41.18924
G1 X50.184 Y144.046 E41.29458
G1 X50.629 Y142.958 E41.40155
G1 X50.955 Y141.809 E41.51018
G1 X51.149 Y140.648 E41.61717
G1 X51.213 Y139.492 E41.72249
G1 X51.149 Y138.317 E41.82947
G1 X50.955 Y137.157 E41.93646
G1 X50.629 Y136.008 E42.04509
G1 X50.191 Y134.936 E42.15041
G1 X49.630 Y133.902 E42.25739
G1 X47.416 Y130.724 E42.60962
G1 X46.233 Y126.957 E42.96872
G1 X46.233 Y121.615 E43.45457
G1 X46.275 Y120.880 E43.52150
G1 X46.445 Y119.402 E43.65682
G1 X46.772 Y117.985 E43.78912
G1 X47.381 Y116.264 E43.95507
G1 X47.988 Y115.003 E44.08240
G1 X48.926 Y113.499 E44.24355
G1 X49.740 Y112.451 E44.36424
G1 X50.921 Y111.217 E44.51962
G1 X51.869 Y110.402 E44.63332
G1 X53.216 Y109.454 E44.78310
G1 X54.272 Y108.847 E44.89390
G1 X55.138 Y109.141 F10200.000
G1 F1800
G1 X55.233 Y108.886 E44.91865
G1 X54.549 Y107.398 E45.06756
G1 X56.073 Y99.635 E45.78710
G1 X59.620 Y96.316 E46.22883
G1 X59.879 Y96.014 E46.26507
G1 X60.150 Y95.622 E46.30840
G1 X60.438 Y95.089 E46.36349
G1 X60.600 Y94.714 E46.40070
G1 X60.696 Y94.476 E46.42400
G1 X60.907 Y93.809 E46.48763
G1 X61.061 Y93.113 E46.55248
G1 X61.145 Y92.453 E46.61298
G1 X61.161 Y91.847 E46.66806
G1 X61.123 Y91.372 E46.71140
G1 X61.053 Y90.998 E46.74603
G1 X59.860 Y87.067 E47.11964
G1 X61.217 Y80.835 E47.69973
G1 X64.176 Y77.488 E48.10604
G1 X64.732 Y76.720 E48.19226
G1 X65.325 Y75.714 E48.29848
G1 X65.864 Y74.591 E48.41175
G1 X66.335 Y73.376 E48.53023
G1 X66.737 Y72.065 E48.65501
G1 X67.042 Y70.739 E48.77873
G1 X67.240 Y69.460 E48.89645
G1 X67.283 Y69.006 E48.93790
G1 X67.342 Y67.943 E49.03471
G1 X67.323 Y66.995 E49.12092
G1 X67.230 Y66.114 E49.20156
G1 X66.690 Y63.453 E49.44844
G1 X66.778 Y60.612 E49.70696
G1 X72.596 Y38.898 E51.75136
G1 X72.837 Y38.180 E51.82023
G1 X73.405 Y36.780 E51.95769
G1 X74.123 Y35.483 E52.09252
G1 X75.203 Y33.994 E52.25978
G1 X76.145 Y32.964 E52.38674
G1 X77.469 Y31.811 E52.54645
G1 X78.520 Y31.074 E52.66320
G1 X79.977 Y30.266 E52.81465
G1 X81.051 Y29.798 E52.92129
G1 X82.554 Y29.307 E53.06504
G1 X83.605 Y29.064 E53.16318
G1 X85.109 Y28.853 E53.30129
G1 X86.118 Y28.796 E53.39314
G1 X87.594 Y28.834 E53.52740
G1 X88.557 Y28.935 E53.61554
G1 X89.753 Y29.158 E53.72617
G1 X90.219 Y29.263 E53.76961
G1 X113.927 Y35.616 E56.00183
G1 X114.500 Y35.800 E56.05652
G1 X115.711 Y36.256 E56.17423
G1 X116.791 Y36.788 E56.28368
G1 X118.145 Y37.630 E56.42878
G1 X119.100 Y38.363 E56.53821
G1 X120.264 Y39.453 E56.68329
G1 X121.057 Y40.358 E56.79269
G1 X121.987 Y41.654 E56.93775
G1 X122.589 Y42.697 E57.04725
G1 X123.247 Y44.149 E57.19227
G1 X123.634 Y45.289 E57.30172
G1 X123.996 Y46.842 E57.44677
G1 X124.153 Y48.036 E57.55629
G1 X124.205 Y49.630 E57.70137
G1 X124.127 Y50.831 E57.81079
G1 X123.916 Y52.108 E57.92850
G1 X123.789 Y52.696 E57.98323
G1 X122.272 Y58.358 E58.51632
G1 X122.408 Y58.593 E58.54104
G1 X128.069 Y60.111 E59.07410
G1 X128.642 Y60.294 E59.12878
G1 X129.853 Y60.750 E59.24652
G1 X130.933 Y61.283 E59.35601
G1 X132.287 Y62.125 E59.50104
G1 X133.242 Y62.858 E59.61048
G1 X134.407 Y63.948 E59.75560
G1 X135.200 Y64.853 E59.86498
G1 X136.129 Y66.149 E60.01006
G1 X136.731 Y67.192 E60.11953
G1 X137.389 Y68.645 E60.26458
G1 X137.776 Y69.784 E60.37403
G1 X138.138 Y71.339 E60.51921
G1 X138.295 Y72.531 E60.62861
G1 X138.348 Y74.126 E60.77369
G1 X138.269 Y75.327 E60.88319
G1 X138.058 Y76.604 E61.00090
G1 X137.931 Y77.191 E61.05554
G1 X121.693 Y137.791 E66.76120
G1 X121.745 Y137.967 E66.77789
G1 X123.358 Y139.444 E66.97682
G1 X125.106 Y140.827 E67.17950
G1 X126.949 Y142.079 E67.38219
G1 X128.868 Y143.190 E67.58380
G1 X130.872 Y144.164 E67.78649
G1 X132.942 Y144.990 E67.98916
G1 X135.066 Y145.665 E68.19185
G1 X137.234 Y146.184 E68.39454
G1 X139.445 Y146.546 E68.59831
G1 X153.761 Y147.837 E69.90561
G1 X152.708 Y171.230 E72.03522
G1 X54.032 Y171.230 E81.00938
G1 X46.858 Y164.056 E81.93209
G1 X46.858 Y152.104 E83.01900
G1 X47.984 Y148.520 E83.36067
G1 X50.163 Y145.393 E83.70733
G1 X50.749 Y144.314 E83.81896
G1 X51.221 Y143.162 E83.93223
G1 X51.566 Y141.946 E84.04716
G1 X51.769 Y140.735 E84.15879
G1 X51.839 Y139.492 E84.27206
G1 X51.771 Y138.248 E84.38534
G1 X51.566 Y137.020 E84.49862
G1 X51.221 Y135.804 E84.61355
G1 X50.757 Y134.668 E84.72517
G1 X50.163 Y133.573 E84.83845
G1 X47.984 Y130.445 E85.18511
G1 X46.858 Y126.861 E85.52677
G1 X46.858 Y121.633 E86.00228
G1 X46.898 Y120.934 E86.06596
G1 X47.062 Y119.508 E86.19644
G1 X47.373 Y118.160 E86.32232
G1 X47.959 Y116.505 E86.48197
G1 X48.537 Y115.305 E86.60312
G1 X49.439 Y113.857 E86.75824
G1 X50.214 Y112.860 E86.87307
G1 X51.352 Y111.671 E87.02277
G1 X52.254 Y110.895 E87.13094
G1 X53.552 Y109.981 E87.27536
G1 X54.528 Y109.421 E87.37768
G1 X55.084 Y109.166 E87.43331
G1 X55.968 Y109.448 F10200.000
G1 F1800
G1 X56.062 Y109.193 E87.45806
G1 X55.201 Y107.321 E87.64552
G1 X56.647 Y99.953 E88.32835
G1 X60.071 Y96.750 E88.75479
G1 X60.364 Y96.411 E88.79552
G1 X60.684 Y95.946 E88.84683
G1 X61.004 Y95.355 E88.90803
G1 X61.280 Y94.701 E88.97255
G1 X61.511 Y93.971 E89.04218
G1 X61.679 Y93.210 E89.11303
G1 X61.768 Y92.506 E89.17755
G1 X61.786 Y91.834 E89.23873
G1 X61.741 Y91.271 E89.29005
G1 X61.657 Y90.831 E89.33079
G1 X60.505 Y87.041 E89.69106
G1 X61.793 Y81.127 E90.24154
G1 X64.664 Y77.879 E90.63574
G1 X65.265 Y77.047 E90.72916
G1 X65.879 Y76.002 E90.83939
G1 X66.439 Y74.836 E90.95698
G1 X66.927 Y73.579 E91.07961
G1 X67.338 Y72.237 E91.20731
G1 X67.656 Y70.859 E91.33591
G1 X67.861 Y69.535 E91.45778
G1 X67.906 Y69.056 E91.50150
G1 X67.967 Y67.945 E91.60274
G1 X67.947 Y66.945 E91.69366
G1 X67.848 Y66.018 E91.77843
G1 X67.317 Y63.400 E92.02140
G1 X67.400 Y60.704 E92.26672
G1 X73.194 Y39.079 E94.30277
G1 X73.423 Y38.398 E94.36813
G1 X73.970 Y37.050 E94.50040
G1 X74.652 Y35.819 E94.62834
G1 X75.688 Y34.390 E94.78894
G1 X76.582 Y33.412 E94.90942
G1 X77.855 Y32.304 E95.06291
G1 X78.852 Y31.605 E95.17370
G1 X80.254 Y30.827 E95.31945
G1 X81.274 Y30.382 E95.42064
G1 X82.722 Y29.910 E95.55918
G1 X83.720 Y29.679 E95.65230
G1 X85.171 Y29.476 E95.78556
G1 X86.127 Y29.421 E95.87272
G1 X87.553 Y29.458 E96.00239
G1 X88.467 Y29.554 E96.08604
G1 X89.627 Y29.770 E96.19330
G1 X90.069 Y29.870 E96.23453
G1 X113.751 Y36.215 E98.46425
G1 X114.294 Y36.390 E98.51614
G1 X115.462 Y36.830 E98.62967
G1 X116.487 Y37.335 E98.73353
G1 X117.789 Y38.145 E98.87305
G1 X118.695 Y38.840 E98.97689
G1 X119.815 Y39.889 E99.11639
G1 X120.567 Y40.747 E99.22020
G1 X121.461 Y41.993 E99.35968
G1 X122.032 Y42.983 E99.46359
G1 X122.665 Y44.379 E99.60304
G1 X123.032 Y45.461 E99.70690
G1 X123.380 Y46.954 E99.84636
G1 X123.530 Y48.087 E99.95030
G1 X123.580 Y49.620 E100.08979
G1 X123.505 Y50.760 E100.19363
G1 X123.302 Y51.991 E100.30715
G1 X123.181 Y52.549 E100.35908
G1 X121.506 Y58.800 E100.94762
G1 X121.642 Y59.035 E100.97234
G1 X127.893 Y60.710 E101.56085
G1 X128.436 Y60.885 E101.61274
G1 X129.605 Y61.325 E101.72629
G1 X130.629 Y61.830 E101.83020
G1 X131.931 Y62.640 E101.96964
G1 X132.837 Y63.335 E102.07350
G1 X133.957 Y64.384 E102.21303
G1 X134.709 Y65.242 E102.31683
G1 X135.603 Y66.488 E102.45632
G1 X136.174 Y67.478 E102.56021
G1 X136.807 Y68.875 E102.69968
G1 X137.174 Y69.956 E102.80354
G1 X137.523 Y71.451 E102.94313
G1 X137.672 Y72.583 E103.04695
G1 X137.722 Y74.115 E103.18644
G1 X137.647 Y75.256 E103.29036
G1 X137.444 Y76.487 E103.40387
G1 X137.323 Y77.044 E103.45573
G1 X120.998 Y137.970 E109.19213
G1 X121.040 Y138.136 E109.20766
G1 X121.275 Y138.384 E109.23879
G1 X122.952 Y139.920 E109.44559
G1 X124.726 Y141.324 E109.65132
G1 X126.606 Y142.603 E109.85812
G1 X128.585 Y143.748 E110.06601
G1 X130.631 Y144.741 E110.27282
G1 X132.743 Y145.583 E110.47961
G1 X134.899 Y146.267 E110.68534
G1 X137.110 Y146.797 E110.89215
G1 X139.354 Y147.165 E111.09895
G1 X153.110 Y148.406 E112.35506
G1 X152.111 Y170.605 E114.37599
G1 X54.291 Y170.605 E123.27226
G1 X47.483 Y163.797 E124.14788
G1 X47.483 Y152.200 E125.20253
G1 X48.551 Y148.799 E125.52676
G1 X50.695 Y145.722 E125.86785
G1 X51.315 Y144.583 E125.98578
G1 X51.812 Y143.366 E126.10535
G1 X52.177 Y142.084 E126.22657
G1 X52.393 Y140.787 E126.34616
G1 X52.465 Y139.492 E126.46408
G1 X52.393 Y138.179 E126.58365
G1 X52.177 Y136.882 E126.70323
G1 X51.812 Y135.600 E126.82446
G1 X51.323 Y134.399 E126.94237
G1 X50.695 Y133.244 E127.06196
G1 X48.551 Y130.167 E127.40304
G1 X47.483 Y126.765 E127.72727
G1 X47.483 Y121.651 E128.19244
G1 X47.521 Y120.987 E128.25287
G1 X47.679 Y119.615 E128.37851
G1 X47.974 Y118.335 E128.49796
G1 X48.537 Y116.745 E128.65132
G1 X49.085 Y115.606 E128.76628
G1 X49.952 Y114.215 E128.91538
G1 X50.687 Y113.269 E129.02435
G1 X51.782 Y112.125 E129.16835
G1 X52.638 Y111.389 E129.27101
G1 X53.888 Y110.509 E129.41006
G1 X54.814 Y109.977 E129.50716
G1 X55.913 Y109.473 E129.61709
G1 X56.793 Y109.798 F10200.000
G1 F1800
G1 X56.905 Y109.531 E129.64338
G1 X55.853 Y107.243 E129.87245
G1 X57.221 Y100.272 E130.51855
G1 X60.523 Y97.183 E130.92971
G1 X60.859 Y96.794 E130.97649
G1 X61.223 Y96.263 E131.03503
G1 X61.571 Y95.620 E131.10152
G1 X61.868 Y94.914 E131.17120
G1 X62.115 Y94.133 E131.24569
G1 X62.295 Y93.320 E131.32142
G1 X62.391 Y92.560 E131.39109
G1 X62.412 Y91.829 E131.45757
G1 X62.361 Y91.187 E131.51610
G1 X62.265 Y90.682 E131.56289
G1 X61.150 Y87.015 E131.91144
G1 X62.369 Y81.419 E132.43232
G1 X65.151 Y78.271 E132.81440
G1 X65.795 Y77.379 E132.91447
G1 X66.434 Y76.290 E133.02927
G1 X67.014 Y75.082 E133.15118
G1 X67.518 Y73.782 E133.27795
G1 X67.942 Y72.399 E133.40955
G1 X68.269 Y70.979 E133.54206
G1 X68.481 Y69.610 E133.66808
G1 X68.529 Y69.106 E133.71406
G1 X68.592 Y67.946 E133.81973
G1 X68.570 Y66.895 E133.91537
G1 X68.467 Y65.923 E134.00427
G1 X67.944 Y63.347 E134.24332
G1 X68.023 Y60.795 E134.47545
G1 X73.793 Y39.259 E136.50315
G1 X74.009 Y38.615 E136.56499
G1 X74.535 Y37.320 E136.69207
G1 X75.180 Y36.156 E136.81313
G1 X76.173 Y34.785 E136.96706
G1 X77.019 Y33.860 E137.08106
G1 X78.241 Y32.797 E137.22834
G1 X79.184 Y32.135 E137.33316
G1 X80.531 Y31.388 E137.47321
G1 X81.496 Y30.967 E137.56896
G1 X82.890 Y30.513 E137.70227
G1 X83.834 Y30.294 E137.79039
G1 X85.232 Y30.098 E137.91880
G1 X86.137 Y30.047 E138.00128
G1 X87.512 Y30.082 E138.12635
G1 X88.378 Y30.173 E138.20550
G1 X89.919 Y30.477 E138.34840
G1 X113.574 Y36.815 E140.57561
G1 X114.088 Y36.980 E140.62471
G1 X115.213 Y37.404 E140.73405
G1 X116.183 Y37.882 E140.83233
G1 X117.433 Y38.659 E140.96626
G1 X118.290 Y39.317 E141.06452
G1 X119.365 Y40.324 E141.19843
G1 X120.077 Y41.136 E141.29666
G1 X120.935 Y42.332 E141.43056
G1 X121.475 Y43.269 E141.52888
G1 X122.083 Y44.609 E141.66275
G1 X122.430 Y45.633 E141.76102
G1 X122.765 Y47.066 E141.89490
G1 X122.906 Y48.138 E141.99325
G1 X122.954 Y49.610 E142.12716
G1 X122.883 Y50.688 E142.22541
G1 X122.688 Y51.874 E142.33475
G1 X122.574 Y52.402 E142.38389
G1 X120.741 Y59.242 E143.02787
G1 X120.877 Y59.477 E143.05259
G1 X127.716 Y61.310 E143.69655
G1 X128.230 Y61.475 E143.74564
G1 X129.356 Y61.899 E143.85500
G1 X130.325 Y62.377 E143.95332
G1 X131.575 Y63.154 E144.08719
G1 X132.432 Y63.812 E144.18546
G1 X133.507 Y64.819 E144.31941
G1 X134.219 Y65.631 E144.41762
G1 X135.077 Y66.828 E144.55153
G1 X135.617 Y67.764 E144.64983
G1 X136.225 Y69.105 E144.78371
G1 X136.572 Y70.128 E144.88199
G1 X136.907 Y71.563 E145.01600
G1 X137.048 Y72.634 E145.11423
G1 X137.096 Y74.105 E145.24814
G1 X137.025 Y75.184 E145.34646
G1 X136.830 Y76.370 E145.45579
G1 X136.716 Y76.898 E145.50486
G1 X120.304 Y138.146 E151.27160
G1 X120.346 Y138.311 E151.28713
G1 X120.836 Y138.830 E151.35205
G1 X122.546 Y140.397 E151.56297
G1 X124.356 Y141.828 E151.77282
G1 X126.274 Y143.132 E151.98374
G1 X128.291 Y144.300 E152.19574
G1 X130.378 Y145.313 E152.40667
G1 X132.532 Y146.172 E152.61759
G1 X134.743 Y146.873 E152.82852
G1 X136.987 Y147.410 E153.03836
G1 X139.275 Y147.785 E153.24928
G1 X152.459 Y148.975 E154.45311
G1 X151.513 Y169.980 E156.36536
G1 X54.550 Y169.980 E165.18374
G1 X48.108 Y163.538 E166.01228
G1 X48.108 Y152.296 E167.03467
G1 X49.119 Y149.078 E167.34146
G1 X51.228 Y146.051 E167.67698
G1 X51.880 Y144.851 E167.80121
G1 X52.404 Y143.570 E167.92707
G1 X52.787 Y142.221 E168.05460
G1 X53.013 Y140.874 E168.17883
G1 X53.091 Y139.492 E168.30470
G1 X53.013 Y138.092 E168.43222
G1 X52.783 Y136.727 E168.55810
G1 X52.404 Y135.396 E168.68397
