; generated by Slic3r 1.3.0 on 2023-06-20 at 21:03:26

; external perimeters extrusion width = 0.44mm (2.38mm^3/s)
; perimeters extrusion width = 0.56mm (6.20mm^3/s)
; infill extrusion width = 0.50mm (8.23mm^3/s)
; solid infill extrusion width = 0.56mm (2.07mm^3/s)
; top infill extrusion width = 0.56mm (1.55mm^3/s)
; support material extrusion width = 0.44mm (4.76mm^3/s)

M190 S100 ; set bed temperature and wait for it to be reached
M104 S240 ; set temperature
G28 ; home all axes
G29 ; auto-bed-level
G1 Z5 F5000 ; lift nozzle

; Filament gcode

M109 S240 ; set temperature and wait for it to be reached
G21 ; set units to millimeters
G90 ; use absolute coordinates
M82 ; use absolute distances for extrusion
G92 E0
G1 Z0.350 F10200.000
G1 E-2.00000 F2400.00000
G92 E0
G1 X76.827 Y58.152 F10200.000
G1 E2.00000 F2400.00000
G1 F1800
G1 X76.963 Y57.916 E2.02472
G1 X75.603 Y52.843 E2.50236
G1 X75.470 Y52.225 E2.55987
G1 X75.252 Y50.903 E2.68178
G1 X75.169 Y49.641 E2.79675
G1 X75.223 Y47.985 E2.94741
G1 X75.388 Y46.731 E3.06245
G1 X75.765 Y45.117 E3.21315
G1 X76.171 Y43.921 E3.32810
G1 X76.855 Y42.411 E3.47882
G1 X77.487 Y41.316 E3.59387
G1 X78.452 Y39.969 E3.74456
G1 X79.286 Y39.018 E3.85954
G1 X80.495 Y37.886 E4.01021
G1 X81.499 Y37.116 E4.12523
G1 X82.906 Y36.241 E4.27592
G1 X84.040 Y35.681 E4.39095
G1 X85.295 Y35.209 E4.51287
G1 X85.896 Y35.016 E4.57033
G1 X109.631 Y28.656 E6.80504
G1 X110.120 Y28.545 E6.85070
G1 X111.353 Y28.316 E6.96469
G1 X112.366 Y28.210 E7.05733
G1 X113.892 Y28.171 E7.19618
G1 X114.952 Y28.231 E7.29272
G1 X116.509 Y28.449 E7.43569
G1 X117.614 Y28.705 E7.53885
G1 X119.171 Y29.213 E7.68780
G1 X120.300 Y29.705 E7.79987
G1 X121.811 Y30.543 E7.95700
G1 X122.915 Y31.317 E8.07962
G1 X124.293 Y32.516 E8.24569
G1 X125.283 Y33.599 E8.37919
G1 X126.405 Y35.147 E8.55304
G1 X127.160 Y36.510 E8.69473
G1 X127.750 Y37.964 E8.83744
G1 X128.003 Y38.718 E8.90980
G1 X133.845 Y60.520 E10.96254
G1 X133.937 Y63.506 E11.23425
G1 X133.389 Y66.209 E11.48504
G1 X133.300 Y67.046 E11.56155
G1 X133.284 Y67.935 E11.64245
G1 X133.341 Y68.960 E11.73586
G1 X133.381 Y69.385 E11.77460
G1 X133.483 Y70.079 E11.83840
G1 X133.574 Y70.629 E11.88909
G1 X133.870 Y71.913 E12.00899
G1 X134.256 Y73.174 E12.12889
G1 X134.711 Y74.345 E12.24322
G1 X135.230 Y75.426 E12.35218
G1 X135.797 Y76.388 E12.45382
G1 X136.312 Y77.096 E12.53338
G1 X139.359 Y80.543 E12.95182
G1 X140.786 Y87.093 E13.56151
G1 X139.559 Y91.130 E13.94524
G1 X139.497 Y91.456 E13.97543
G1 X139.464 Y91.863 E14.01252
G1 X139.472 Y92.280 E14.05044
G1 X139.552 Y92.991 E14.11552
G1 X139.694 Y93.634 E14.17542
G1 X139.892 Y94.263 E14.23539
G1 X140.128 Y94.824 E14.29075
G1 X140.384 Y95.296 E14.33955
G1 X140.616 Y95.632 E14.37665
G1 X140.820 Y95.870 E14.40522
G1 X144.502 Y99.316 E14.86385
G1 X146.103 Y107.476 E15.62012
G1 X145.598 Y108.574 E15.73006
G1 X145.676 Y108.817 E15.75322
G1 X146.784 Y109.454 E15.86948
G1 X148.131 Y110.402 E16.01925
G1 X149.079 Y111.217 E16.13298
G1 X150.260 Y112.451 E16.28834
G1 X151.074 Y113.499 E16.40902
G1 X152.011 Y115.002 E16.57011
G1 X152.618 Y116.262 E16.69725
G1 X153.228 Y117.985 E16.86350
G1 X153.555 Y119.403 E16.99588
G1 X153.725 Y120.880 E17.13106
G1 X153.767 Y121.615 E17.19800
G1 X153.767 Y126.957 E17.68385
G1 X152.584 Y130.724 E18.04296
G1 X150.370 Y133.902 E18.39518
G1 X149.816 Y134.919 E18.50052
G1 X149.371 Y136.008 E18.60748
G1 X149.045 Y137.157 E18.71612
G1 X148.851 Y138.317 E18.82310
G1 X148.787 Y139.492 E18.93008
G1 X148.853 Y140.666 E19.03705
G1 X149.045 Y141.809 E19.14240
G1 X149.371 Y142.958 E19.25102
G1 X149.809 Y144.030 E19.35634
G1 X150.370 Y145.064 E19.46333
G1 X152.583 Y148.241 E19.81553
G1 X153.767 Y152.008 E20.17465
G1 X153.767 Y164.315 E21.29384
G1 X146.227 Y171.855 E22.26363
G1 X46.694 Y171.855 E31.31568
G1 X45.588 Y147.268 E33.55396
G1 X60.477 Y145.925 E34.91355
G1 X62.631 Y145.573 E35.11212
G1 X64.766 Y145.062 E35.31176
G1 X66.836 Y144.405 E35.50926
G1 X68.864 Y143.596 E35.70782
G1 X70.828 Y142.643 E35.90639
G1 X72.718 Y141.550 E36.10496
G1 X74.524 Y140.323 E36.30352
G1 X76.237 Y138.968 E36.50209
G1 X77.553 Y137.762 E36.66447
G1 X77.605 Y137.586 E36.68116
G1 X61.461 Y77.339 E42.35371
G1 X61.328 Y76.721 E42.41113
G1 X61.110 Y75.399 E42.53305
G1 X61.027 Y74.136 E42.64811
G1 X61.081 Y72.480 E42.79880
G1 X61.246 Y71.226 E42.91382
G1 X61.622 Y69.612 E43.06455
G1 X62.029 Y68.415 E43.17954
G1 X62.713 Y66.906 E43.33022
G1 X63.345 Y65.810 E43.44529
G1 X64.310 Y64.464 E43.59594
G1 X65.144 Y63.513 E43.71091
G1 X66.353 Y62.381 E43.86161
G1 X67.356 Y61.611 E43.97662
G1 X68.763 Y60.736 E44.12730
G1 X69.898 Y60.176 E44.24236
G1 X71.152 Y59.704 E44.36426
G1 X71.754 Y59.511 E44.42172
G1 X76.769 Y58.167 E44.89388
G1 X77.592 Y58.593 F10200.000
G1 F1800
G1 X77.728 Y58.358 E44.91861
G1 X76.211 Y52.696 E45.45169
G1 X76.084 Y52.108 E45.50641
G1 X75.873 Y50.831 E45.62413
G1 X75.795 Y49.631 E45.73352
G1 X75.847 Y48.036 E45.87860
G1 X76.004 Y46.843 E45.98805
G1 X76.366 Y45.289 E46.13316
G1 X76.753 Y44.151 E46.24253
G1 X77.411 Y42.697 E46.38766
G1 X78.013 Y41.655 E46.49713
G1 X78.943 Y40.358 E46.64223
G1 X79.736 Y39.453 E46.75163
G1 X80.900 Y38.363 E46.89671
G1 X81.855 Y37.630 E47.00615
G1 X83.210 Y36.788 E47.15126
G1 X84.289 Y36.255 E47.26070
G1 X85.500 Y35.800 E47.37843
G1 X86.073 Y35.616 E47.43310
G1 X109.781 Y29.263 E49.66531
G1 X110.247 Y29.158 E49.70875
G1 X111.443 Y28.935 E49.81938
G1 X112.406 Y28.834 E49.90752
G1 X113.882 Y28.796 E50.04178
G1 X114.891 Y28.853 E50.13363
G1 X116.395 Y29.064 E50.27175
G1 X117.446 Y29.307 E50.36990
G1 X118.948 Y29.798 E50.51363
G1 X120.023 Y30.266 E50.62026
G1 X121.479 Y31.074 E50.77169
G1 X122.530 Y31.810 E50.88836
G1 X123.855 Y32.964 E51.04820
G1 X124.798 Y33.995 E51.17522
G1 X125.877 Y35.483 E51.34240
G1 X126.595 Y36.780 E51.47722
G1 X127.164 Y38.181 E51.61473
G1 X127.404 Y38.899 E51.68357
G1 X133.222 Y60.612 E53.72796
G1 X133.310 Y63.453 E53.98648
G1 X132.770 Y66.114 E54.23336
G1 X132.677 Y66.995 E54.31400
G1 X132.658 Y67.943 E54.40020
G1 X132.717 Y69.006 E54.49703
G1 X132.760 Y69.460 E54.53846
G1 X132.958 Y70.739 E54.65619
G1 X133.266 Y72.075 E54.78089
G1 X133.665 Y73.376 E54.90469
G1 X134.136 Y74.591 E55.02317
G1 X134.675 Y75.714 E55.13646
G1 X135.268 Y76.720 E55.24266
G1 X135.824 Y77.488 E55.32887
G1 X138.783 Y80.835 E55.73519
G1 X140.140 Y87.067 E56.31528
G1 X138.951 Y90.981 E56.68728
G1 X138.877 Y91.372 E56.72353
G1 X138.839 Y91.847 E56.76686
G1 X138.855 Y92.453 E56.82193
G1 X138.903 Y92.860 E56.85919
G1 X138.939 Y93.113 E56.88243
G1 X139.090 Y93.796 E56.94608
G1 X139.304 Y94.476 E57.01092
G1 X139.562 Y95.089 E57.07143
G1 X139.850 Y95.622 E57.12652
G1 X140.121 Y96.014 E57.16985
G1 X140.368 Y96.304 E57.20448
G1 X143.927 Y99.635 E57.64782
G1 X145.451 Y107.398 E58.36737
G1 X144.767 Y108.886 E58.51628
G1 X144.862 Y109.141 E58.54102
G1 X145.472 Y109.421 E58.60211
G1 X146.448 Y109.981 E58.70444
G1 X147.747 Y110.895 E58.84885
G1 X148.649 Y111.671 E58.95705
G1 X149.786 Y112.860 E59.10672
G1 X150.561 Y113.857 E59.22154
G1 X151.463 Y115.304 E59.37660
G1 X152.040 Y116.502 E59.49757
G1 X152.627 Y118.160 E59.65751
G1 X152.939 Y119.510 E59.78346
G1 X153.102 Y120.934 E59.91381
G1 X153.142 Y121.633 E59.97750
G1 X153.142 Y126.861 E60.45301
G1 X152.016 Y130.445 E60.79468
G1 X149.837 Y133.573 E61.14133
G1 X149.243 Y134.668 E61.25462
G1 X148.779 Y135.804 E61.36623
G1 X148.434 Y137.020 E61.48116
G1 X148.229 Y138.248 E61.59445
G1 X148.161 Y139.492 E61.70772
G1 X148.229 Y140.717 E61.81935
G1 X148.434 Y141.946 E61.93263
G1 X148.779 Y143.162 E62.04755
G1 X149.243 Y144.298 E62.15918
G1 X149.837 Y145.393 E62.27246
G1 X152.016 Y148.520 E62.61909
G1 X153.142 Y152.104 E62.96077
G1 X153.142 Y164.056 E64.04770
G1 X145.968 Y171.230 E64.97041
G1 X47.292 Y171.230 E73.94457
G1 X46.239 Y147.837 E76.07417
G1 X60.555 Y146.546 E77.38148
G1 X62.755 Y146.186 E77.58417
G1 X64.934 Y145.665 E77.78793
G1 X67.047 Y144.994 E77.98954
G1 X69.117 Y144.169 E78.19222
G1 X71.122 Y143.195 E78.39491
G1 X73.051 Y142.079 E78.59760
G1 X74.894 Y140.827 E78.80028
G1 X76.642 Y139.444 E79.00297
G1 X78.255 Y137.967 E79.20190
G1 X78.307 Y137.791 E79.21859
G1 X62.069 Y77.192 E84.92423
G1 X61.942 Y76.604 E84.97886
G1 X61.731 Y75.327 E85.09660
G1 X61.652 Y74.126 E85.20607
G1 X61.705 Y72.531 E85.35118
G1 X61.862 Y71.338 E85.46061
G1 X62.224 Y69.784 E85.60576
G1 X62.611 Y68.645 E85.71516
G1 X63.269 Y67.192 E85.86026
G1 X63.871 Y66.149 E85.96974
G1 X64.800 Y64.853 E86.11480
G1 X65.593 Y63.948 E86.22420
G1 X66.758 Y62.858 E86.36930
G1 X67.713 Y62.125 E86.47874
G1 X69.067 Y61.283 E86.62383
G1 X70.147 Y60.750 E86.73330
G1 X71.358 Y60.294 E86.85101
G1 X71.931 Y60.111 E86.90568
G1 X77.534 Y58.609 E87.43329
G1 X78.358 Y59.035 F10200.000
G1 F1800
G1 X78.494 Y58.800 E87.45802
G1 X76.819 Y52.549 E88.04655
G1 X76.698 Y51.991 E88.09847
G1 X76.495 Y50.760 E88.21200
G1 X76.420 Y49.621 E88.31581
G1 X76.470 Y48.088 E88.45530
G1 X76.620 Y46.955 E88.55917
G1 X76.968 Y45.461 E88.69870
G1 X77.335 Y44.381 E88.80248
G1 X77.968 Y42.983 E88.94203
G1 X78.539 Y41.994 E89.04591
G1 X79.433 Y40.747 E89.18543
G1 X80.185 Y39.889 E89.28925
G1 X81.305 Y38.840 E89.42874
G1 X82.211 Y38.145 E89.53259
G1 X83.514 Y37.335 E89.67212
G1 X84.538 Y36.830 E89.77597
G1 X85.706 Y36.390 E89.88952
G1 X86.249 Y36.215 E89.94140
G1 X109.931 Y29.870 E92.17110
G1 X110.373 Y29.770 E92.21232
G1 X111.533 Y29.554 E92.31960
G1 X112.447 Y29.458 E92.40324
G1 X113.873 Y29.421 E92.53291
G1 X114.829 Y29.476 E92.62007
G1 X116.281 Y29.679 E92.75334
G1 X117.278 Y29.910 E92.84648
G1 X118.726 Y30.382 E92.98499
G1 X119.746 Y30.827 E93.08618
G1 X121.147 Y31.605 E93.23191
G1 X122.144 Y32.303 E93.34262
G1 X123.418 Y33.412 E93.49624
G1 X124.313 Y34.390 E93.61677
G1 X125.348 Y35.819 E93.77729
G1 X126.030 Y37.050 E93.90522
G1 X126.577 Y38.398 E94.03755
G1 X126.806 Y39.079 E94.10288
G1 X132.600 Y60.704 E96.13891
G1 X132.683 Y63.400 E96.38424
G1 X132.152 Y66.018 E96.62720
G1 X132.053 Y66.945 E96.71197
G1 X132.033 Y67.944 E96.80289
G1 X132.094 Y69.056 E96.90415
G1 X132.139 Y69.535 E96.94785
G1 X132.344 Y70.859 E97.06972
G1 X132.662 Y72.237 E97.19833
G1 X133.073 Y73.579 E97.32603
G1 X133.561 Y74.836 E97.44865
G1 X134.121 Y76.002 E97.56626
G1 X134.735 Y77.047 E97.67647
G1 X135.336 Y77.879 E97.76989
G1 X138.207 Y81.127 E98.16409
G1 X139.495 Y87.041 E98.71458
G1 X138.343 Y90.831 E99.07485
G1 X138.257 Y91.288 E99.11715
G1 X138.214 Y91.843 E99.16770
G1 X138.232 Y92.506 E99.22807
G1 X138.283 Y92.939 E99.26774
G1 X138.323 Y93.222 E99.29372
G1 X138.485 Y93.958 E99.36224
G1 X138.716 Y94.689 E99.43195
G1 X138.996 Y95.355 E99.49761
G1 X139.311 Y95.939 E99.55800
G1 X139.625 Y96.397 E99.60855
G1 X139.917 Y96.737 E99.64923
G1 X143.353 Y99.953 E100.07729
G1 X144.799 Y107.321 E100.76012
G1 X143.938 Y109.193 E100.94758
G1 X144.032 Y109.448 E100.97232
G1 X145.186 Y109.977 E101.08771
G1 X146.112 Y110.509 E101.18482
G1 X147.362 Y111.389 E101.32387
G1 X148.218 Y112.125 E101.42655
G1 X149.313 Y113.269 E101.57052
G1 X150.048 Y114.215 E101.67949
G1 X150.914 Y115.606 E101.82853
G1 X151.462 Y116.743 E101.94332
G1 X152.026 Y118.335 E102.09695
G1 X152.322 Y119.616 E102.21647
G1 X152.479 Y120.987 E102.34199
G1 X152.517 Y121.651 E102.40243
G1 X152.517 Y126.765 E102.86760
G1 X151.449 Y130.167 E103.19183
G1 X149.305 Y133.244 E103.53291
G1 X148.685 Y134.383 E103.65085
G1 X148.188 Y135.600 E103.77041
G1 X147.823 Y136.882 E103.89164
G1 X147.607 Y138.179 E104.01122
G1 X147.535 Y139.492 E104.13079
G1 X147.609 Y140.805 E104.25036
G1 X147.823 Y142.084 E104.36830
G1 X148.187 Y143.366 E104.48952
G1 X148.677 Y144.566 E104.60744
G1 X149.305 Y145.722 E104.72702
G1 X151.448 Y148.799 E105.06808
G1 X152.517 Y152.200 E105.39233
G1 X152.517 Y163.797 E106.44699
G1 X145.709 Y170.605 E107.32261
G1 X47.889 Y170.605 E116.21889
G1 X46.890 Y148.406 E118.23981
G1 X60.646 Y147.165 E119.49592
G1 X62.890 Y146.797 E119.70272
G1 X65.090 Y146.270 E119.90845
G1 X67.257 Y145.583 E120.11526
G1 X69.370 Y144.741 E120.32206
G1 X71.415 Y143.748 E120.52887
G1 X73.394 Y142.603 E120.73675
G1 X75.274 Y141.324 E120.94355
G1 X77.048 Y139.920 E121.14928
G1 X78.725 Y138.384 E121.35608
G1 X78.960 Y138.136 E121.38721
G1 X79.002 Y137.970 E121.40274
G1 X62.677 Y77.045 E127.13913
G1 X62.556 Y76.487 E127.19097
G1 X62.353 Y75.256 E127.30452
G1 X62.278 Y74.116 E127.40840
G1 X62.328 Y72.582 E127.54792
G1 X62.477 Y71.450 E127.65178
G1 X62.826 Y69.956 E127.79133
G1 X63.193 Y68.875 E127.89515
G1 X63.826 Y67.478 E128.03466
G1 X64.397 Y66.488 E128.13856
G1 X65.290 Y65.242 E128.27804
G1 X66.043 Y64.384 E128.38185
G1 X67.163 Y63.335 E128.52137
G1 X68.069 Y62.640 E128.62522
G1 X69.371 Y61.830 E128.76473
G1 X70.396 Y61.324 E128.86861
G1 X71.564 Y60.885 E128.98214
G1 X72.107 Y60.710 E129.03402
G1 X78.300 Y59.051 E129.61708
G1 X79.123 Y59.477 F10200.000
G1 F1800
G1 X79.259 Y59.242 E129.64180
G1 X77.426 Y52.402 E130.28577
G1 X77.312 Y51.874 E130.33491
G1 X77.117 Y50.688 E130.44425
G1 X77.046 Y49.610 E130.54248
G1 X77.094 Y48.139 E130.67638
G1 X77.235 Y47.067 E130.77466
G1 X77.570 Y45.633 E130.90861
G1 X77.917 Y44.610 E131.00681
G1 X78.525 Y43.269 E131.14077
G1 X79.065 Y42.333 E131.23906
G1 X79.923 Y41.136 E131.37300
G1 X80.635 Y40.324 E131.47123
G1 X81.710 Y39.317 E131.60514
G1 X82.567 Y38.659 E131.70341
G1 X83.818 Y37.882 E131.83735
G1 X84.787 Y37.404 E131.93562
G1 X85.912 Y36.980 E132.04497
G1 X86.426 Y36.815 E132.09406
G1 X110.081 Y30.477 E134.32126
G1 X111.622 Y30.173 E134.46417
G1 X112.488 Y30.082 E134.54331
G1 X113.863 Y30.047 E134.66839
G1 X114.768 Y30.098 E134.75086
G1 X116.167 Y30.294 E134.87928
G1 X117.111 Y30.513 E134.96741
G1 X118.504 Y30.967 E135.10070
G1 X119.469 Y31.388 E135.19645
G1 X120.815 Y32.135 E135.33647
G1 X121.759 Y32.796 E135.44123
G1 X122.981 Y33.860 E135.58863
G1 X123.827 Y34.786 E135.70268
G1 X124.820 Y36.156 E135.85653
G1 X125.465 Y37.320 E135.97758
G1 X125.991 Y38.615 E136.10471
G1 X126.207 Y39.259 E136.16653
G1 X131.977 Y60.795 E138.19421
G1 X132.056 Y63.347 E138.42634
G1 X131.533 Y65.923 E138.66540
G1 X131.430 Y66.895 E138.75429
G1 X131.408 Y67.946 E138.84993
G1 X131.471 Y69.106 E138.95561
G1 X131.519 Y69.610 E139.00158
G1 X131.731 Y70.979 E139.12760
G1 X132.058 Y72.399 E139.26011
G1 X132.482 Y73.782 E139.39171
G1 X132.986 Y75.082 E139.51848
G1 X133.566 Y76.291 E139.64041
G1 X134.205 Y77.379 E139.75520
G1 X134.849 Y78.271 E139.85526
G1 X137.631 Y81.419 E140.23734
G1 X138.850 Y87.015 E140.75822
G1 X137.735 Y90.682 E141.10677
G1 X137.636 Y91.204 E141.15512
G1 X137.588 Y91.838 E141.21289
G1 X137.609 Y92.560 E141.27857
G1 X137.663 Y93.019 E141.32064
G1 X137.707 Y93.332 E141.34937
G1 X137.881 Y94.120 E141.42276
G1 X138.128 Y94.902 E141.49734
G1 X138.429 Y95.620 E141.56815
G1 X138.777 Y96.263 E141.63464
G1 X139.130 Y96.780 E141.69161
G1 X139.465 Y97.170 E141.73834
G1 X142.779 Y100.272 E142.15111
G1 X144.147 Y107.243 E142.79722
G1 X143.095 Y109.531 E143.02628
G1 X143.207 Y109.798 E143.05257
G1 X143.599 Y109.937 E143.09040
G1 X144.899 Y110.533 E143.22053
G1 X145.775 Y111.037 E143.31241
G1 X146.977 Y111.883 E143.44609
G1 X147.787 Y112.579 E143.54325
G1 X148.839 Y113.678 E143.68154
G1 X149.534 Y114.573 E143.78465
G1 X150.366 Y115.908 E143.92766
G1 X150.884 Y116.984 E144.03628
G1 X151.425 Y118.511 E144.18359
G1 X151.705 Y119.722 E144.29669
G1 X151.856 Y121.041 E144.41738
G1 X151.892 Y121.668 E144.47457
G1 X151.892 Y126.670 E144.92939
G1 X150.881 Y129.888 E145.23619
G1 X148.772 Y132.915 E145.57170
G1 X148.120 Y134.115 E145.69593
G1 X147.596 Y135.396 E145.82180
G1 X147.213 Y136.745 E145.94932
G1 X146.985 Y138.110 E146.07520
G1 X146.909 Y139.492 E146.20107
G1 X146.985 Y140.856 E146.32529
G1 X147.213 Y142.221 E146.45117
G1 X147.596 Y143.570 E146.57869
G1 X148.112 Y144.834 E146.70291
G1 X148.772 Y146.051 E146.82879
G1 X150.881 Y149.078 E147.16428
G1 X151.892 Y152.296 E147.47109
G1 X151.892 Y163.538 E148.49349
G1 X145.450 Y169.980 E149.32202
G1 X48.487 Y169.980 E158.14041
G1 X47.541 Y148.975 E160.05266
G1 X60.725 Y147.785 E161.25648
G1 X63.013 Y147.410 E161.46741
G1 X65.269 Y146.870 E161.67833
G1 X67.468 Y146.172 E161.88818
G1 X69.622 Y145.313 E162.09910
G1 X71.709 Y144.300 E162.31003
G1 X73.726 Y143.132 E162.52203
