; generated by Slic3r 1.3.0 on 2023-06-19 at 17:24:34

; external perimeters extrusion width = 0.44mm (2.38mm^3/s)
; perimeters extrusion width = 0.56mm (6.20mm^3/s)
; infill extrusion width = 0.50mm (8.23mm^3/s)
; solid infill extrusion width = 0.56mm (2.07mm^3/s)
; top infill extrusion width = 0.56mm (1.55mm^3/s)
; support material extrusion width = 0.44mm (4.76mm^3/s)

M190 S100 ; set bed temperature and wait for it to be reached
M104 S240 ; set temperature
G28 ; home all axes
G29 ; auto-bed-level
G1 Z5 F5000 ; lift nozzle

; Filament gcode

M109 S240 ; set temperature and wait for it to be reached
G21 ; set units to millimeters
G90 ; use absolute coordinates
M82 ; use absolute distances for extrusion
G92 E0
G1 Z0.350 F10200.000
G1 E-2.00000 F2400.00000
G92 E0
G1 X21.168 Y66.128 F10200.000
G1 E2.00000 F2400.00000
G1 F1800
G1 X178.832 Y66.128 E16.33882
G1 X186.372 Y73.668 E17.30862
G1 X186.372 Y126.332 E22.09813
G1 X178.832 Y133.872 E23.06793
G1 X21.168 Y133.872 E37.40675
G1 X13.628 Y126.332 E38.37655
G1 X13.628 Y73.668 E43.16607
G1 X21.126 Y66.170 E44.13041
G1 X21.427 Y66.753 F10200.000
G1 F1800
G1 X178.573 Y66.753 E58.42214
G1 X185.747 Y73.927 E59.34485
G1 X185.747 Y126.073 E64.08728
G1 X178.573 Y133.247 E65.00999
G1 X21.427 Y133.247 E79.30172
G1 X14.253 Y126.073 E80.22443
G1 X14.253 Y73.927 E84.96686
G1 X21.385 Y66.795 E85.88411
G1 X21.686 Y67.378 F10200.000
G1 F1800
G1 X178.314 Y67.378 E100.12875
G1 X185.122 Y74.186 E101.00437
G1 X185.122 Y125.814 E105.69971
G1 X178.314 Y132.622 E106.57534
G1 X21.686 Y132.622 E120.81998
G1 X14.878 Y125.814 E121.69560
G1 X14.878 Y74.186 E126.39094
G1 X21.644 Y67.420 E127.26110
G1 X21.945 Y68.003 F10200.000
G1 F1800
G1 X178.055 Y68.003 E141.45866
G1 X184.497 Y74.445 E142.28719
G1 X184.497 Y125.555 E146.93544
G1 X178.055 Y131.997 E147.76397
G1 X21.945 Y131.997 E161.96153
G1 X15.503 Y125.555 E162.79006
G1 X15.503 Y74.445 E167.43831
G1 X21.902 Y68.045 E168.26139
G1 X22.204 Y68.628 F10200.000
G1 F1800
G1 X177.796 Y68.628 E182.41185
G1 X183.872 Y74.704 E183.19329
G1 X183.872 Y125.296 E187.79446
G1 X177.796 Y131.372 E188.57590
G1 X22.204 Y131.372 E202.72637
G1 X16.128 Y125.296 E203.50781
G1 X16.128 Y74.704 E208.10897
G1 X22.161 Y68.670 E208.88496
G1 X22.463 Y69.253 F10200.000
G1 F1800
G1 X177.537 Y69.253 E222.98834
G1 X183.247 Y74.963 E223.72269
G1 X183.247 Y125.037 E228.27677
G1 X177.537 Y130.747 E229.01112
G1 X22.463 Y130.747 E243.11450
G1 X16.753 Y125.037 E243.84885
G1 X16.753 Y74.963 E248.40293
G1 X22.420 Y69.295 E249.13183
G1 X22.722 Y69.878 F10200.000
G1 F1800
G1 X177.278 Y69.878 E263.18811
G1 X182.622 Y75.222 E263.87538
G1 X182.622 Y124.778 E268.38236
G1 X177.278 Y130.122 E269.06963
G1 X22.722 Y130.122 E283.12592
G1 X17.378 Y124.778 E283.81318
G1 X17.378 Y75.222 E288.32017
G1 X22.679 Y69.920 E289.00198
G1 X22.980 Y70.503 F10200.000
G1 F1800
G1 X177.020 Y70.503 E303.01118
G1 X181.997 Y75.480 E303.65136
G1 X181.997 Y124.520 E308.11125
G1 X177.020 Y129.497 E308.75143
G1 X22.980 Y129.497 E322.76063
G1 X18.003 Y124.520 E323.40081
G1 X18.003 Y75.480 E327.86070
G1 X22.938 Y70.545 E328.49543
G1 X23.239 Y71.128 F10200.000
G1 F1800
G1 X176.761 Y71.128 E342.45753
G1 X181.372 Y75.739 E343.05062
G1 X181.372 Y124.261 E347.46343
G1 X176.761 Y128.872 E348.05652
G1 X23.239 Y128.872 E362.01863
G1 X18.628 Y124.261 E362.61172
G1 X18.628 Y75.739 E367.02453
G1 X23.197 Y71.170 E367.61216
G1 X23.498 Y71.753 F10200.000
G1 F1800
G1 X176.502 Y71.753 E381.52718
G1 X180.747 Y75.998 E382.07318
G1 X180.747 Y124.002 E386.43890
G1 X176.502 Y128.247 E386.98490
G1 X23.498 Y128.247 E400.89992
G1 X19.253 Y124.002 E401.44592
G1 X19.253 Y75.998 E405.81164
G1 X23.456 Y71.795 E406.35219
G1 X23.757 Y72.378 F10200.000
G1 F1800
G1 X176.243 Y72.378 E420.22012
G1 X180.122 Y76.257 E420.71903
G1 X180.122 Y123.743 E425.03766
G1 X176.243 Y127.622 E425.53658
G1 X23.757 Y127.622 E439.40451
G1 X19.878 Y123.743 E439.90342
G1 X19.878 Y76.257 E444.22205
G1 X23.715 Y72.420 E444.71551
G1 X24.016 Y73.003 F10200.000
G1 F1800
G1 X175.984 Y73.003 E458.53635
G1 X179.497 Y76.516 E458.98817
G1 X179.497 Y123.484 E463.25972
G1 X175.984 Y126.997 E463.71154
G1 X24.016 Y126.997 E477.53238
G1 X20.503 Y123.484 E477.98421
G1 X20.503 Y76.516 E482.25575
G1 X23.974 Y73.045 E482.70211
G1 X24.275 Y73.628 F10200.000
G1 F1800
G1 X116.725 Y73.628 E491.11007
G1 X116.864 Y73.767 E491.12794
G1 X117.136 Y73.767 E491.15266
G1 X117.275 Y73.628 E491.17053
G1 X175.725 Y73.628 E496.48634
G1 X178.872 Y76.775 E496.89107
G1 X178.872 Y123.225 E501.11553
G1 X175.725 Y126.372 E501.52026
G1 X24.275 Y126.372 E515.29401
G1 X21.128 Y123.225 E515.69875
G1 X21.128 Y76.775 E519.92320
G1 X24.232 Y73.670 E520.32248
G1 E518.32248 F2400.00000
G92 E0
G1 X116.864 Y74.651 F10200.000
G1 E2.00000 F2400.00000
G1 F1800
G1 X117.136 Y74.651 E2.02472
G1 X117.534 Y74.253 E2.07589
G1 X175.466 Y74.253 E7.34460
G1 X178.247 Y77.034 E7.70225
G1 X178.247 Y122.966 E11.87961
G1 X175.466 Y125.747 E12.23726
G1 X24.534 Y125.747 E25.96392
G1 X21.753 Y122.966 E26.32157
G1 X21.753 Y77.034 E30.49894
G1 X24.534 Y74.253 E30.85658
G1 X116.466 Y74.253 E39.21745
G1 X116.822 Y74.608 E39.26316
G1 X116.864 Y75.535 F10200.000
G1 F1800
G1 X117.136 Y75.535 E39.28788
G1 X117.793 Y74.878 E39.37235
G1 X175.207 Y74.878 E44.59397
G1 X177.622 Y77.293 E44.90453
G1 X177.622 Y122.707 E49.03481
G1 X175.207 Y125.122 E49.34536
G1 X24.793 Y125.122 E63.02494
G1 X22.378 Y122.707 E63.33550
G1 X22.378 Y77.293 E67.46577
G1 X24.793 Y74.878 E67.77633
G1 X116.207 Y74.878 E76.09011
G1 X116.822 Y75.492 E76.16912
G1 X116.864 Y76.419 F10200.000
G1 F1800
G1 X117.136 Y76.419 E76.19384
G1 X118.052 Y75.503 E76.31160
G1 X174.949 Y75.503 E81.48614
G1 X176.997 Y77.552 E81.74961
G1 X176.997 Y122.448 E85.83279
G1 X174.949 Y124.497 E86.09626
G1 X25.051 Y124.497 E99.72875
G1 X23.003 Y122.448 E99.99222
G1 X23.003 Y77.552 E104.07541
G1 X25.051 Y75.503 E104.33888
G1 X115.949 Y75.503 E112.60557
G1 X116.822 Y76.376 E112.71787
G1 X116.864 Y77.302 F10200.000
G1 F1800
G1 X117.136 Y77.302 E112.74259
G1 X118.310 Y76.128 E112.89365
G1 X174.690 Y76.128 E118.02110
G1 X176.372 Y77.810 E118.23748
G1 X176.372 Y122.190 E122.27358
G1 X174.690 Y123.872 E122.48996
G1 X25.310 Y123.872 E136.07536
G1 X23.628 Y122.190 E136.29174
G1 X23.628 Y77.810 E140.32784
G1 X25.310 Y76.128 E140.54422
G1 X115.690 Y76.128 E148.76382
G1 X116.822 Y77.260 E148.90942
G1 X116.864 Y78.186 F10200.000
G1 F1800
G1 X117.136 Y78.186 E148.93414
G1 X118.569 Y76.753 E149.11850
G1 X174.431 Y76.753 E154.19885
G1 X175.747 Y78.069 E154.36815
G1 X175.747 Y121.931 E158.35716
G1 X174.431 Y123.247 E158.52645
G1 X25.569 Y123.247 E172.06476
G1 X24.253 Y121.931 E172.23405
G1 X24.253 Y78.069 E176.22306
G1 X25.569 Y76.753 E176.39235
G1 X115.431 Y76.753 E184.56487
G1 X116.822 Y78.144 E184.74376
G1 E182.74376 F2400.00000
G92 E0
G1 X116.122 Y87.186 F10200.000
G1 E2.00000 F2400.00000
G1 F1800
G1 X116.314 Y87.378 E2.02472
G1 X117.686 Y87.378 E2.14946
G1 X117.878 Y87.186 E2.17418
G1 X117.878 Y78.328 E2.97975
G1 X118.828 Y77.378 E3.10195
G1 X174.172 Y77.378 E8.13522
G1 X175.122 Y78.328 E8.25743
G1 X175.122 Y121.672 E12.19935
G1 X174.172 Y122.622 E12.32155
G1 X25.828 Y122.622 E25.81277
G1 X24.878 Y121.672 E25.93498
G1 X24.878 Y78.328 E29.87690
G1 X25.828 Y77.378 E29.99910
G1 X115.172 Y77.378 E38.12453
G1 X116.122 Y78.328 E38.24673
G1 X116.122 Y87.126 E39.04684
G1 X115.689 Y88.003 F10200.000
G1 F1800
G1 X118.311 Y88.003 E39.28526
G1 X118.503 Y87.811 E39.30999
G1 X118.503 Y78.587 E40.14885
G1 X119.087 Y78.003 E40.22396
G1 X173.913 Y78.003 E45.21014
G1 X174.497 Y78.587 E45.28526
G1 X174.497 Y121.413 E49.18009
G1 X173.913 Y121.997 E49.25521
G1 X26.087 Y121.997 E62.69934
G1 X25.503 Y121.413 E62.77445
G1 X25.503 Y78.587 E66.66929
G1 X26.087 Y78.003 E66.74440
G1 X114.913 Y78.003 E74.82274
G1 X115.497 Y78.587 E74.89785
G1 X115.497 Y87.811 E75.73672
G1 X115.647 Y87.961 E75.75598
G1 X114.872 Y88.436 F10200.000
G1 F1800
G1 X115.064 Y88.628 E75.78070
G1 X118.936 Y88.628 E76.13281
G1 X119.128 Y88.436 E76.15753
G1 X119.128 Y78.846 E77.02969
G1 X119.346 Y78.628 E77.05771
G1 X173.654 Y78.628 E81.99681
G1 X173.872 Y78.846 E82.02483
G1 X173.872 Y121.154 E85.87258
G1 X173.654 Y121.372 E85.90060
G1 X26.346 Y121.372 E99.29765
G1 X26.128 Y121.154 E99.32567
G1 X26.128 Y78.846 E103.17342
G1 X26.346 Y78.628 E103.20144
G1 X114.654 Y78.628 E111.23269
G1 X114.872 Y78.846 E111.26072
G1 X114.872 Y88.376 E112.12742
G1 E110.12742 F2400.00000
G92 E0
G1 X119.850 Y89.350 F10200.000
G1 E2.00000 F2400.00000
G1 F1800
G1 X119.850 Y79.350 E2.90930
G1 X173.150 Y79.350 E7.75584
G1 X173.150 Y120.650 E11.51123
G1 X26.850 Y120.650 E24.81423
G1 X26.850 Y79.350 E28.56963
G1 X114.150 Y79.350 E36.50778
G1 X114.150 Y89.350 E37.41708
G1 X119.790 Y89.350 E37.92992
G1 X120.226 Y89.487 F10200.000
G1 X120.475 Y89.975 F10200.000
G1 F1800
G1 X120.475 Y79.975 E38.83922
G1 X172.525 Y79.975 E43.57212
G1 X172.525 Y120.025 E47.21387
G1 X27.475 Y120.025 E60.40323
G1 X27.475 Y79.975 E64.04498
G1 X113.525 Y79.975 E71.86949
G1 X113.525 Y89.975 E72.77879
G1 X120.415 Y89.975 E73.40527
G1 E71.40527 F2400.00000
G92 E0
G1 X166.469 Y105.456 F10200.000
G1 E2.00000 F2400.00000
G1 F1800
G1 X166.679 Y104.948 E2.04992
G1 X167.013 Y104.513 E2.09984
G1 X167.448 Y104.179 E2.14976
G1 X167.956 Y103.969 E2.19968
G1 X168.486 Y103.899 E2.24827
G1 X169.043 Y103.968 E2.29937
G1 X169.552 Y104.179 E2.34940
G1 X169.987 Y104.513 E2.39932
G1 X170.321 Y104.948 E2.44924
G1 X170.531 Y105.456 E2.49916
G1 X170.603 Y106.000 E2.54908
G1 X170.531 Y106.544 E2.59901
G1 X170.321 Y107.052 E2.64892
G1 X169.987 Y107.487 E2.69884
G1 X169.552 Y107.821 E2.74876
G1 X169.044 Y108.031 E2.79868
G1 X168.500 Y108.103 E2.84860
G1 X167.956 Y108.031 E2.89852
G1 X167.462 Y107.827 E2.94711
G1 X167.013 Y107.487 E2.99832
G1 X166.673 Y107.038 E3.04954
G1 X166.469 Y106.544 E3.09813
G1 X166.397 Y106.000 E3.14805
G1 X166.461 Y105.515 E3.19251
G1 X166.469 Y105.456 F10200.000
G1 X165.891 Y105.217 F10200.000
G1 F1800
G1 X166.133 Y104.633 E3.24992
G1 X166.567 Y104.067 E3.31480
G1 X167.133 Y103.633 E3.37968
G1 X167.793 Y103.360 E3.44456
G1 X168.483 Y103.269 E3.50790
G1 X169.204 Y103.358 E3.57395
G1 X169.867 Y103.633 E3.63917
G1 X170.433 Y104.067 E3.70405
G1 X170.867 Y104.633 E3.76892
G1 X171.140 Y105.293 E3.83381
G1 X171.233 Y106.000 E3.89869
G1 X171.140 Y106.707 E3.96357
G1 X170.867 Y107.367 E4.02845
G1 X170.433 Y107.933 E4.09333
G1 X169.867 Y108.367 E4.15822
G1 X169.207 Y108.640 E4.22309
G1 X168.500 Y108.733 E4.28798
G1 X167.793 Y108.640 E4.35286
G1 X167.149 Y108.374 E4.41620
G1 X166.567 Y107.933 E4.48258
G1 X166.126 Y107.351 E4.54897
G1 X165.860 Y106.707 E4.61231
G1 X165.767 Y106.000 E4.67719
G1 X165.868 Y105.272 E4.74402
G1 E2.74402 F2400.00000
G92 E0
G1 X109.531 Y84.544 F10200.000
G1 E2.00000 F2400.00000
G1 F1800
G1 X109.321 Y85.052 E2.04992
G1 X108.986 Y85.489 E2.10007
G1 X108.525 Y85.832 E2.15234
G1 X108.044 Y86.031 E2.19960
G1 X107.500 Y86.103 E2.24952
G1 X106.956 Y86.031 E2.29944
G1 X106.449 Y85.821 E2.34936
G1 X106.013 Y85.487 E2.39928
G1 X105.679 Y85.052 E2.44920
G1 X105.469 Y84.544 E2.49912
G1 X105.397 Y84.000 E2.54904
G1 X105.469 Y83.456 E2.59896
G1 X105.668 Y82.975 E2.64623
G1 X106.011 Y82.514 E2.69850
G1 X106.449 Y82.179 E2.74865
G1 X106.956 Y81.969 E2.79857
G1 X107.471 Y81.901 E2.84583
G1 X108.042 Y81.968 E2.89810
G1 X108.552 Y82.179 E2.94825
G1 X108.987 Y82.513 E2.99817
G1 X109.321 Y82.948 E3.04809
G1 X109.531 Y83.456 E3.09801
G1 X109.603 Y84.000 E3.14793
G1 X109.539 Y84.485 E3.19240
G1 X109.531 Y84.544 F10200.000
G1 X110.109 Y84.784 F10200.000
G1 F1800
G1 X109.867 Y85.367 E3.24979
G1 X109.428 Y85.938 E3.31531
G1 X108.835 Y86.380 E3.38254
G1 X108.207 Y86.640 E3.44436
G1 X107.500 Y86.733 E3.50924
G1 X106.793 Y86.640 E3.57412
G1 X106.133 Y86.367 E3.63900
G1 X105.567 Y85.933 E3.70388
G1 X105.133 Y85.367 E3.76877
G1 X104.860 Y84.707 E3.83365
G1 X104.767 Y84.000 E3.89853
G1 X104.860 Y83.293 E3.96340
G1 X105.120 Y82.665 E4.02522
G1 X105.562 Y82.072 E4.09245
G1 X106.133 Y81.633 E4.15798
G1 X106.793 Y81.360 E4.22286
G1 X107.467 Y81.271 E4.28467
G1 X108.201 Y81.357 E4.35190
G1 X108.867 Y81.633 E4.41743
G1 X109.433 Y82.067 E4.48231
G1 X109.867 Y82.633 E4.54719
G1 X110.140 Y83.293 E4.61207
G1 X110.233 Y84.000 E4.67695
G1 X110.132 Y84.728 E4.74380
G1 E2.74380 F2400.00000
G92 E0
G1 X112.900 Y90.600 F10200.000
G1 E2.00000 F2400.00000
G1 F1800
G1 X121.100 Y90.600 E2.74558
G1 X121.100 Y80.600 E3.65488
G1 X171.900 Y80.600 E8.27414
G1 X171.900 Y104.706 E10.46612
G1 X171.598 Y104.766 E10.49409
G1 X171.413 Y104.318 E10.53818
G1 X170.878 Y103.622 E10.61801
G1 X170.182 Y103.087 E10.69786
G1 X169.365 Y102.749 E10.77824
G1 X168.481 Y102.639 E10.85926
G1 X167.629 Y102.751 E10.93735
G1 X166.818 Y103.087 E11.01720
G1 X166.122 Y103.622 E11.09703
G1 X165.587 Y104.318 E11.17688
G1 X165.251 Y105.130 E11.25672
G1 X165.136 Y106.000 E11.33656
G1 X165.251 Y106.871 E11.41640
G1 X165.580 Y107.664 E11.49449
G1 X166.120 Y108.380 E11.57605
G1 X166.836 Y108.920 E11.65761
G1 X167.629 Y109.249 E11.73570
G1 X168.500 Y109.364 E11.81554
G1 X169.371 Y109.249 E11.89538
G1 X170.182 Y108.913 E11.97522
G1 X170.878 Y108.378 E12.05507
G1 X171.413 Y107.682 E12.13491
G1 X171.598 Y107.234 E12.17899
G1 X171.900 Y107.294 E12.20697
G1 X171.900 Y119.400 E13.30779
G1 X38.794 Y119.400 E25.41108
G1 X38.734 Y119.098 E25.43906
G1 X39.182 Y118.913 E25.48313
G1 X39.878 Y118.378 E25.56298
G1 X40.413 Y117.682 E25.64283
G1 X40.749 Y116.871 E25.72266
G1 X40.864 Y116.000 E25.80251
G1 X40.748 Y115.124 E25.88289
G1 X40.401 Y114.303 E25.96390
G1 X39.878 Y113.622 E26.04200
G1 X39.182 Y113.087 E26.12184
G1 X38.371 Y112.751 E26.20168
G1 X37.500 Y112.636 E26.28152
G1 X36.649 Y112.749 E26.35961
G1 X35.823 Y113.083 E26.44063
G1 X35.122 Y113.622 E26.52101
G1 X34.587 Y114.318 E26.60085
G1 X34.251 Y115.129 E26.68070
G1 X34.139 Y115.981 E26.75878
G1 X34.249 Y116.865 E26.83980
G1 X34.587 Y117.682 E26.92018
G1 X35.122 Y118.378 E27.00002
G1 X35.818 Y118.913 E27.07987
G1 X36.266 Y119.098 E27.12394
G1 X36.206 Y119.400 E27.15192
G1 X28.100 Y119.400 E27.88901
G1 X28.100 Y80.600 E31.41712
G1 X106.206 Y80.600 E38.51929
G1 X106.266 Y80.902 E38.54727
G1 X105.818 Y81.087 E38.59135
G1 X105.112 Y81.629 E38.67224
G1 X104.572 Y82.354 E38.75444
G1 X104.251 Y83.130 E38.83081
G1 X104.136 Y84.000 E38.91064
G1 X104.251 Y84.871 E38.99048
G1 X104.587 Y85.682 E39.07033
G1 X105.122 Y86.378 E39.15017
G1 X105.818 Y86.913 E39.23002
G1 X106.629 Y87.249 E39.30986
G1 X107.500 Y87.364 E39.38970
G1 X108.371 Y87.249 E39.46954
G1 X109.146 Y86.928 E39.54590
G1 X109.871 Y86.388 E39.62810
G1 X110.413 Y85.682 E39.70899
G1 X110.749 Y84.871 E39.78883
G1 X110.864 Y84.000 E39.86868
G1 X110.749 Y83.129 E39.94853
G1 X110.413 Y82.318 E40.02837
G1 X109.878 Y81.622 E40.10820
G1 X109.182 Y81.087 E40.18805
G1 X108.734 Y80.902 E40.23212
G1 X108.794 Y80.600 E40.26010
G1 X112.900 Y80.600 E40.63348
G1 X112.900 Y90.540 E41.53732
G1 X112.275 Y91.225 F10200.000
G1 F1800
G1 X121.725 Y91.225 E42.39654
G1 X121.725 Y81.225 E43.30584
G1 X171.275 Y81.225 E47.81146
G1 X171.275 Y103.139 E49.80408
G1 X170.497 Y102.541 E49.89329
G1 X169.526 Y102.139 E49.98885
G1 X168.479 Y102.009 E50.08483
G1 X167.466 Y102.142 E50.17767
G1 X166.503 Y102.541 E50.27248
G1 X165.676 Y103.176 E50.36727
G1 X165.041 Y104.003 E50.46208
G1 X164.642 Y104.966 E50.55689
G1 X164.506 Y106.000 E50.65169
G1 X164.642 Y107.034 E50.74649
G1 X165.033 Y107.977 E50.83933
G1 X165.674 Y108.826 E50.93607
G1 X166.523 Y109.467 E51.03280
G1 X167.466 Y109.858 E51.12564
G1 X168.500 Y109.994 E51.22044
G1 X169.534 Y109.858 E51.31524
G1 X170.497 Y109.459 E51.41004
G1 X171.275 Y108.862 E51.49926
G1 X171.275 Y118.775 E52.40072
G1 X40.362 Y118.775 E64.30466
G1 X40.959 Y117.997 E64.39388
G1 X41.358 Y117.034 E64.48868
G1 X41.494 Y116.000 E64.58348
G1 X41.357 Y114.958 E64.67904
G1 X40.946 Y113.986 E64.77501
G1 X40.324 Y113.176 E64.86786
G1 X39.497 Y112.541 E64.96266
G1 X38.534 Y112.142 E65.05746
G1 X37.500 Y112.006 E65.15227
G1 X36.488 Y112.139 E65.24510
G1 X35.510 Y112.536 E65.34108
G1 X34.676 Y113.176 E65.43664
G1 X34.041 Y114.003 E65.53144
G1 X33.642 Y114.966 E65.62625
G1 X33.509 Y115.979 E65.71908
