; generated by Slic3r 1.3.0 on 2023-06-19 at 17:27:16

; external perimeters extrusion width = 0.44mm (2.38mm^3/s)
; perimeters extrusion width = 0.56mm (6.20mm^3/s)
; infill extrusion width = 0.50mm (8.23mm^3/s)
; solid infill extrusion width = 0.56mm (2.07mm^3/s)
; top infill extrusion width = 0.56mm (1.55mm^3/s)
; support material extrusion width = 0.44mm (4.76mm^3/s)

M190 S100 ; set bed temperature and wait for it to be reached
M104 S240 ; set temperature
G28 ; home all axes
G29 ; auto-bed-level
G1 Z5 F5000 ; lift nozzle

; Filament gcode

M109 S240 ; set temperature and wait for it to be reached
G21 ; set units to millimeters
G90 ; use absolute coordinates
M82 ; use absolute distances for extrusion
G92 E0
G1 Z0.350 F10200.000
G1 E-2.00000 F2400.00000
G92 E0
G1 X29.168 Y84.628 F10200.000
G1 E2.00000 F2400.00000
G1 F1800
G1 X56.832 Y84.628 E4.51588
G1 X59.782 Y87.578 E4.89530
G1 X59.902 Y87.628 E4.90717
G1 X108.098 Y87.628 E9.29032
G1 X108.218 Y87.578 E9.30219
G1 X112.168 Y83.628 E9.81023
G1 X170.832 Y83.628 E15.14543
G1 X178.372 Y91.168 E16.11523
G1 X178.372 Y104.832 E17.35786
G1 X170.832 Y112.372 E18.32766
G1 X130.902 Y112.372 E21.95907
G1 X130.782 Y112.422 E21.97094
G1 X126.832 Y116.372 E22.47898
G1 X43.168 Y116.372 E30.08782
G1 X40.218 Y113.422 E30.46724
G1 X40.098 Y113.372 E30.47911
G1 X29.168 Y113.372 E31.47309
G1 X21.628 Y105.832 E32.44289
G1 X21.628 Y92.168 E33.68553
G1 X29.126 Y84.670 E34.64987
G1 X29.427 Y85.253 F10200.000
G1 F1800
G1 X56.573 Y85.253 E37.11866
G1 X59.523 Y88.203 E37.49808
G1 X59.643 Y88.253 E37.50995
G1 X108.356 Y88.253 E41.94019
G1 X108.477 Y88.203 E41.95206
G1 X112.427 Y84.253 E42.46010
G1 X170.573 Y84.253 E47.74821
G1 X177.747 Y91.427 E48.67092
G1 X177.747 Y104.573 E49.86647
G1 X170.573 Y111.747 E50.78918
G1 X130.643 Y111.747 E54.42058
G1 X130.523 Y111.797 E54.43246
G1 X126.573 Y115.747 E54.94050
G1 X43.427 Y115.747 E62.50224
G1 X40.477 Y112.797 E62.88167
G1 X40.356 Y112.747 E62.89354
G1 X29.427 Y112.747 E63.88752
G1 X22.253 Y105.573 E64.81023
G1 X22.253 Y92.427 E66.00578
G1 X29.385 Y85.295 E66.92303
G1 X29.686 Y85.878 F10200.000
G1 F1800
G1 X56.314 Y85.878 E69.34473
G1 X59.264 Y88.828 E69.72415
G1 X59.385 Y88.878 E69.73603
G1 X108.615 Y88.878 E74.21335
G1 X108.736 Y88.828 E74.22522
G1 X112.686 Y84.878 E74.73326
G1 X170.314 Y84.878 E79.97428
G1 X177.122 Y91.686 E80.84990
G1 X177.122 Y104.314 E81.99836
G1 X170.314 Y111.122 E82.87398
G1 X130.385 Y111.122 E86.50539
G1 X130.264 Y111.172 E86.51726
G1 X126.314 Y115.122 E87.02530
G1 X43.686 Y115.122 E94.53996
G1 X40.736 Y112.172 E94.91938
G1 X40.615 Y112.122 E94.93126
G1 X29.686 Y112.122 E95.92523
G1 X22.878 Y105.314 E96.80086
G1 X22.878 Y92.686 E97.94932
G1 X29.644 Y85.920 E98.81948
G1 X29.945 Y86.503 F10200.000
G1 F1800
G1 X56.055 Y86.503 E101.19409
G1 X59.005 Y89.453 E101.57352
G1 X59.126 Y89.503 E101.58539
G1 X108.874 Y89.503 E106.10980
G1 X108.995 Y89.453 E106.12167
G1 X112.945 Y85.503 E106.62971
G1 X170.055 Y85.503 E111.82364
G1 X176.497 Y91.945 E112.65218
G1 X176.497 Y104.055 E113.75355
G1 X170.055 Y110.497 E114.58208
G1 X130.126 Y110.497 E118.21349
G1 X130.005 Y110.547 E118.22536
G1 X126.055 Y114.497 E118.73340
G1 X43.945 Y114.497 E126.20097
G1 X40.995 Y111.547 E126.58039
G1 X40.874 Y111.497 E126.59226
G1 X29.945 Y111.497 E127.58624
G1 X23.503 Y105.055 E128.41478
G1 X23.503 Y92.945 E129.51615
G1 X29.902 Y86.545 E130.33922
G1 X30.204 Y87.128 F10200.000
G1 F1800
G1 X55.796 Y87.128 E132.66674
G1 X58.746 Y90.078 E133.04617
G1 X58.867 Y90.128 E133.05804
G1 X109.133 Y90.128 E137.62954
G1 X109.254 Y90.078 E137.64141
G1 X113.204 Y86.128 E138.14945
G1 X169.796 Y86.128 E143.29630
G1 X175.872 Y92.204 E144.07774
G1 X175.872 Y103.796 E145.13202
G1 X169.796 Y109.872 E145.91347
G1 X129.867 Y109.872 E149.54487
G1 X129.746 Y109.922 E149.55675
G1 X125.796 Y113.872 E150.06479
G1 X44.204 Y113.872 E157.48527
G1 X41.254 Y110.922 E157.86469
G1 X41.133 Y110.872 E157.87656
G1 X30.204 Y110.872 E158.87054
G1 X24.128 Y104.796 E159.65198
G1 X24.128 Y93.204 E160.70627
G1 X30.161 Y87.170 E161.48225
G1 X30.463 Y87.753 F10200.000
G1 F1800
G1 X55.537 Y87.753 E163.76269
G1 X58.487 Y90.703 E164.14211
G1 X58.608 Y90.753 E164.15398
G1 X109.392 Y90.753 E168.77257
G1 X109.513 Y90.703 E168.78444
G1 X113.463 Y86.753 E169.29249
G1 X169.537 Y86.753 E174.39224
G1 X175.247 Y92.463 E175.12660
G1 X175.247 Y103.537 E176.13379
G1 X169.537 Y109.247 E176.86814
G1 X129.608 Y109.247 E180.49955
G1 X129.487 Y109.297 E180.51142
G1 X125.537 Y113.247 E181.01946
G1 X44.463 Y113.247 E188.39285
G1 X41.513 Y110.297 E188.77228
G1 X41.392 Y110.247 E188.78415
G1 X30.463 Y110.247 E189.77813
G1 X24.753 Y104.537 E190.51249
G1 X24.753 Y93.463 E191.51968
G1 X30.420 Y87.795 E192.24858
G1 X30.722 Y88.378 F10200.000
G1 F1800
G1 X55.278 Y88.378 E194.48192
G1 X58.228 Y91.328 E194.86135
G1 X58.349 Y91.378 E194.87322
G1 X109.651 Y91.378 E199.53890
G1 X109.771 Y91.328 E199.55077
G1 X113.722 Y87.378 E200.05881
G1 X169.278 Y87.378 E205.11147
G1 X174.622 Y92.722 E205.79874
G1 X174.622 Y103.278 E206.75885
G1 X169.278 Y108.622 E207.44611
G1 X129.349 Y108.622 E211.07752
G1 X129.228 Y108.672 E211.08939
G1 X125.278 Y112.622 E211.59743
G1 X44.722 Y112.622 E218.92373
G1 X41.771 Y109.672 E219.30316
G1 X41.651 Y109.622 E219.31503
G1 X30.722 Y109.622 E220.30901
G1 X25.378 Y104.278 E220.99628
G1 X25.378 Y93.722 E221.95638
G1 X30.679 Y88.420 E222.63819
G1 X30.980 Y89.003 F10200.000
G1 F1800
G1 X55.020 Y89.003 E224.82445
G1 X57.970 Y91.953 E225.20387
G1 X58.090 Y92.003 E225.21574
G1 X109.910 Y92.003 E229.92851
G1 X110.030 Y91.953 E229.94038
G1 X113.980 Y88.003 E230.44842
G1 X169.020 Y88.003 E235.45400
G1 X173.997 Y92.980 E236.09418
G1 X173.997 Y103.020 E237.00719
G1 X169.020 Y107.997 E237.64737
G1 X129.090 Y107.997 E241.27878
G1 X128.970 Y108.047 E241.29065
G1 X125.020 Y111.997 E241.79869
G1 X44.980 Y111.997 E249.07790
G1 X42.030 Y109.047 E249.45733
G1 X41.910 Y108.997 E249.46920
G1 X30.980 Y108.997 E250.46318
G1 X26.003 Y104.020 E251.10336
G1 X26.003 Y93.980 E252.01637
G1 X30.938 Y89.045 E252.65110
G1 X31.239 Y89.628 F10200.000
G1 F1800
G1 X54.761 Y89.628 E254.79026
G1 X57.711 Y92.578 E255.16969
G1 X57.831 Y92.628 E255.18156
G1 X110.169 Y92.628 E259.94141
G1 X110.289 Y92.578 E259.95329
G1 X114.239 Y88.628 E260.46133
G1 X168.761 Y88.628 E265.41981
G1 X173.372 Y93.239 E266.01290
G1 X173.372 Y102.761 E266.87883
G1 X168.761 Y107.372 E267.47192
G1 X128.831 Y107.372 E271.10333
G1 X128.711 Y107.422 E271.11520
G1 X124.761 Y111.372 E271.62324
G1 X45.239 Y111.372 E278.85537
G1 X42.289 Y108.422 E279.23479
G1 X42.169 Y108.372 E279.24666
G1 X31.239 Y108.372 E280.24064
G1 X26.628 Y103.761 E280.83373
G1 X26.628 Y94.239 E281.69966
G1 X31.197 Y89.670 E282.28729
G1 X31.498 Y90.253 F10200.000
G1 F1800
G1 X54.502 Y90.253 E284.37937
G1 X57.452 Y93.203 E284.75879
G1 X57.572 Y93.253 E284.77067
G1 X110.428 Y93.253 E289.57761
G1 X110.548 Y93.203 E289.58948
G1 X114.498 Y89.253 E290.09752
G1 X168.502 Y89.253 E295.00892
G1 X172.747 Y93.498 E295.55492
G1 X172.747 Y102.502 E296.37376
G1 X168.502 Y106.747 E296.91976
G1 X128.572 Y106.747 E300.55117
G1 X128.452 Y106.797 E300.56304
G1 X124.502 Y110.747 E301.07108
G1 X45.498 Y110.747 E308.25612
G1 X42.548 Y107.797 E308.63554
G1 X42.428 Y107.747 E308.64741
G1 X31.498 Y107.747 E309.64139
G1 X27.253 Y103.502 E310.18739
G1 X27.253 Y94.498 E311.00623
G1 X31.456 Y90.295 E311.54678
G1 X31.757 Y90.878 F10200.000
G1 F1800
G1 X54.243 Y90.878 E313.59177
G1 X57.193 Y93.828 E313.97119
G1 X57.314 Y93.878 E313.98306
G1 X110.686 Y93.878 E318.83709
G1 X110.807 Y93.828 E318.84897
G1 X114.757 Y89.878 E319.35701
G1 X168.243 Y89.878 E324.22132
G1 X172.122 Y93.757 E324.72023
G1 X172.122 Y102.243 E325.49198
G1 X168.243 Y106.122 E325.99089
G1 X128.314 Y106.122 E329.62230
G1 X128.193 Y106.172 E329.63417
G1 X124.243 Y110.122 E330.14221
G1 X45.757 Y110.122 E337.28016
G1 X42.807 Y107.172 E337.65958
G1 X42.686 Y107.122 E337.67146
G1 X31.757 Y107.122 E338.66543
G1 X27.878 Y103.243 E339.16435
G1 X27.878 Y94.757 E339.93610
G1 X31.715 Y90.920 E340.42955
G1 X32.016 Y91.503 F10200.000
G1 F1800
G1 X53.984 Y91.503 E342.42745
G1 X56.934 Y94.453 E342.80688
G1 X57.055 Y94.503 E342.81875
G1 X111.311 Y94.503 E347.75311
G1 X111.503 Y94.311 E347.77783
G1 X111.503 Y94.016 E347.80464
G1 X115.016 Y90.503 E348.25647
G1 X167.984 Y90.503 E353.07369
G1 X171.497 Y94.016 E353.52551
G1 X171.497 Y101.984 E354.25018
G1 X167.984 Y105.497 E354.70200
G1 X127.689 Y105.497 E358.36664
G1 X127.497 Y105.689 E358.39137
G1 X127.497 Y105.984 E358.41818
G1 X123.984 Y109.497 E358.87000
G1 X46.016 Y109.497 E365.96086
G1 X43.066 Y106.547 E366.34029
G1 X42.945 Y106.497 E366.35216
G1 X32.016 Y106.497 E367.34614
G1 X28.503 Y102.984 E367.79796
G1 X28.503 Y95.016 E368.52262
G1 X31.974 Y91.545 E368.96899
G1 E366.96899 F2400.00000
G92 E0
G1 X111.936 Y95.128 F10200.000
G1 E2.00000 F2400.00000
G1 F1800
G1 X112.128 Y94.936 E2.02472
G1 X112.128 Y94.275 E2.08483
G1 X115.275 Y91.128 E2.48957
G1 X167.725 Y91.128 E7.25970
G1 X170.872 Y94.275 E7.66444
G1 X170.872 Y101.725 E8.34201
G1 X167.725 Y104.872 E8.74674
G1 X127.064 Y104.872 E12.44469
G1 X126.872 Y105.064 E12.46941
G1 X126.872 Y105.725 E12.52952
G1 X123.725 Y108.872 E12.93425
G1 X46.275 Y108.872 E19.97802
G1 X43.325 Y105.922 E20.35745
G1 X43.204 Y105.872 E20.36932
G1 X32.275 Y105.872 E21.36330
G1 X29.128 Y102.725 E21.76803
G1 X29.128 Y95.275 E22.44561
G1 X32.275 Y92.128 E22.85034
G1 X53.725 Y92.128 E24.80115
G1 X56.675 Y95.078 E25.18058
G1 X56.796 Y95.128 E25.19245
G1 X111.876 Y95.128 E30.20174
G1 X112.561 Y95.753 F10200.000
G1 F1800
G1 X112.753 Y95.561 E30.22646
G1 X112.753 Y94.534 E30.31987
G1 X115.534 Y91.753 E30.67751
G1 X167.466 Y91.753 E35.40056
G1 X170.247 Y94.534 E35.75820
G1 X170.247 Y101.466 E36.38869
G1 X167.466 Y104.247 E36.74633
G1 X126.439 Y104.247 E40.47757
G1 X126.247 Y104.439 E40.50230
G1 X126.247 Y105.466 E40.59570
G1 X123.466 Y108.247 E40.95335
G1 X46.534 Y108.247 E47.95003
G1 X43.753 Y105.466 E48.30768
G1 X43.753 Y105.439 E48.31014
G1 X43.561 Y105.247 E48.33486
G1 X32.534 Y105.247 E49.33773
G1 X29.753 Y102.466 E49.69537
G1 X29.753 Y95.534 E50.32586
G1 X32.534 Y92.753 E50.68350
G1 X53.466 Y92.753 E52.58723
G1 X56.247 Y95.534 E52.94487
G1 X56.247 Y95.561 E52.94733
G1 X56.439 Y95.753 E52.97206
G1 X112.501 Y95.753 E58.07062
G1 X113.186 Y96.378 F10200.000
G1 F1800
G1 X113.378 Y96.186 E58.09534
G1 X113.378 Y94.793 E58.22204
G1 X115.793 Y92.378 E58.53260
G1 X167.207 Y92.378 E63.20856
G1 X169.622 Y94.793 E63.51911
G1 X169.622 Y101.207 E64.10251
G1 X167.207 Y103.622 E64.41307
G1 X125.814 Y103.622 E68.17760
G1 X125.622 Y103.814 E68.20232
G1 X125.622 Y105.207 E68.32903
G1 X123.207 Y107.622 E68.63959
G1 X46.793 Y107.622 E75.58918
G1 X44.378 Y105.207 E75.89974
G1 X44.378 Y104.814 E75.93550
G1 X44.186 Y104.622 E75.96022
G1 X32.793 Y104.622 E76.99638
G1 X30.378 Y102.207 E77.30694
G1 X30.378 Y95.793 E77.89033
G1 X32.793 Y93.378 E78.20089
G1 X53.207 Y93.378 E80.05752
G1 X55.622 Y95.793 E80.36808
G1 X55.622 Y96.186 E80.40384
G1 X55.814 Y96.378 E80.42856
G1 X113.126 Y96.378 E85.64081
G1 X113.811 Y97.003 F10200.000
G1 F1800
G1 X114.003 Y96.811 E85.66553
G1 X114.003 Y95.052 E85.82553
G1 X116.051 Y93.003 E86.08900
G1 X166.949 Y93.003 E90.71786
G1 X168.997 Y95.052 E90.98133
G1 X168.997 Y100.948 E91.51764
G1 X166.949 Y102.997 E91.78111
G1 X125.189 Y102.997 E95.57894
G1 X124.997 Y103.189 E95.60366
G1 X124.997 Y104.948 E95.76366
G1 X122.948 Y106.997 E96.02713
G1 X47.051 Y106.997 E102.92964
G1 X45.003 Y104.948 E103.19311
G1 X45.003 Y104.189 E103.26216
G1 X44.811 Y103.997 E103.28688
G1 X33.051 Y103.997 E104.35634
G1 X31.003 Y101.948 E104.61981
G1 X31.003 Y96.052 E105.15612
G1 X33.051 Y94.003 E105.41959
G1 X52.948 Y94.003 E107.22913
G1 X54.997 Y96.052 E107.49260
G1 X54.997 Y96.811 E107.56166
G1 X55.189 Y97.003 E107.58638
G1 X113.751 Y97.003 E112.91230
G1 X114.436 Y97.628 F10200.000
G1 F1800
G1 X114.628 Y97.436 E112.93703
G1 X114.628 Y95.310 E113.13032
G1 X116.310 Y93.628 E113.34670
G1 X166.690 Y93.628 E117.92848
G1 X168.372 Y95.310 E118.14486
G1 X168.372 Y100.690 E118.63408
G1 X166.690 Y102.372 E118.85046
G1 X124.564 Y102.372 E122.68159
G1 X124.372 Y102.564 E122.70631
G1 X124.372 Y104.690 E122.89961
G1 X122.690 Y106.372 E123.11599
G1 X47.310 Y106.372 E129.97140
G1 X45.628 Y104.690 E130.18779
G1 X45.628 Y103.564 E130.29014
G1 X45.436 Y103.372 E130.31486
G1 X33.310 Y103.372 E131.41761
G1 X31.628 Y101.690 E131.63399
G1 X31.628 Y96.310 E132.12321
G1 X33.310 Y94.628 E132.33959
G1 X52.690 Y94.628 E134.10205
G1 X54.372 Y96.310 E134.31843
G1 X54.372 Y97.436 E134.42078
G1 X54.564 Y97.628 E134.44550
G1 X114.376 Y97.628 E139.88511
G1 X115.061 Y98.253 F10200.000
G1 F1800
G1 X115.253 Y98.061 E139.90983
G1 X115.253 Y95.569 E140.13643
G1 X116.569 Y94.253 E140.30572
G1 X166.431 Y94.253 E144.84041
G1 X167.747 Y95.569 E145.00970
G1 X167.747 Y100.431 E145.45183
G1 X166.431 Y101.747 E145.62112
G1 X123.939 Y101.747 E149.48555
G1 X123.747 Y101.939 E149.51027
G1 X123.747 Y104.431 E149.73686
G1 X122.431 Y105.747 E149.90616
G1 X47.569 Y105.747 E156.71448
G1 X46.253 Y104.431 E156.88377
G1 X46.253 Y102.939 E157.01942
G1 X46.061 Y102.747 E157.04414
G1 X33.569 Y102.747 E158.18020
G1 X32.253 Y101.431 E158.34949
G1 X32.253 Y96.569 E158.79162
G1 X33.569 Y95.253 E158.96091
G1 X52.431 Y95.253 E160.67628
G1 X53.747 Y96.569 E160.84557
G1 X53.747 Y98.061 E160.98122
G1 X53.939 Y98.253 E161.00594
G1 X115.001 Y98.253 E166.55923
G1 X115.686 Y98.878 F10200.000
G1 F1800
G1 X115.878 Y98.686 E166.58395
G1 X115.878 Y95.828 E166.84384
G1 X116.828 Y94.878 E166.96605
G1 X166.172 Y94.878 E171.45365
G1 X167.122 Y95.828 E171.57585
G1 X167.122 Y100.172 E171.97089
G1 X166.172 Y101.122 E172.09309
G1 X123.314 Y101.122 E175.99082
G1 X123.122 Y101.314 E176.01554
G1 X123.122 Y104.172 E176.27543
G1 X122.172 Y105.122 E176.39763
G1 X47.828 Y105.122 E183.15887
G1 X46.878 Y104.172 E183.28107
G1 X46.878 Y102.314 E183.45002
G1 X46.686 Y102.122 E183.47474
G1 X33.828 Y102.122 E184.64409
G1 X32.878 Y101.172 E184.76629
G1 X32.878 Y96.828 E185.16133
G1 X33.828 Y95.878 E185.28353
G1 X52.172 Y95.878 E186.95182
G1 X53.122 Y96.828 E187.07402
G1 X53.122 Y98.686 E187.24296
G1 X53.314 Y98.878 E187.26769
G1 X115.626 Y98.878 E192.93466
G1 X116.311 Y99.503 F10200.000
G1 F1800
G1 X116.503 Y99.311 E192.95938
G1 X116.503 Y96.087 E193.25257
G1 X117.087 Y95.503 E193.32768
G1 X165.913 Y95.503 E197.76819
G1 X166.497 Y96.087 E197.84331
G1 X166.497 Y99.913 E198.19126
G1 X165.913 Y100.497 E198.26637
G1 X122.689 Y100.497 E202.19739
G1 X122.497 Y100.689 E202.22211
G1 X122.497 Y103.913 E202.51530
G1 X121.913 Y104.497 E202.59042
G1 X48.087 Y104.497 E209.30457
G1 X47.503 Y103.913 E209.37968
G1 X47.503 Y101.689 E209.58192
G1 X47.311 Y101.497 E209.60664
G1 X34.087 Y101.497 E210.80929
G1 X33.503 Y100.913 E210.88440
G1 X33.503 Y97.087 E211.23236
G1 X34.087 Y96.503 E211.30747
G1 X51.913 Y96.503 E212.92866
G1 X52.497 Y97.087 E213.00378
G1 X52.497 Y99.311 E213.20602
G1 X52.689 Y99.503 E213.23074
G1 X116.251 Y99.503 E219.01139
G1 X116.936 Y100.128 F10200.000
G1 F1800
G1 X117.128 Y99.936 E219.03612
G1 X117.128 Y96.346 E219.36260
G1 X117.346 Y96.128 E219.39063
G1 X165.654 Y96.128 E223.78405
G1 X165.872 Y96.346 E223.81207
G1 X165.872 Y99.654 E224.11294
G1 X165.654 Y99.872 E224.14096
G1 X122.064 Y99.872 E228.10528
G1 X121.872 Y100.064 E228.13000
G1 X121.872 Y103.654 E228.45649
G1 X121.654 Y103.872 E228.48451
G1 X48.346 Y103.872 E235.15157
G1 X48.128 Y103.654 E235.17960
G1 X48.128 Y101.064 E235.41514
G1 X47.936 Y100.872 E235.43986
G1 X34.346 Y100.872 E236.67580
G1 X34.128 Y100.654 E236.70383
G1 X34.128 Y97.346 E237.00469
G1 X34.346 Y97.128 E237.03272
G1 X51.654 Y97.128 E238.60682
G1 X51.872 Y97.346 E238.63484
G1 X51.872 Y99.936 E238.87038
G1 X52.064 Y100.128 E238.89511
G1 X116.876 Y100.128 E244.78944
G1 X117.850 Y100.850 F10200.000
G1 F1800
G1 X117.850 Y96.850 E245.15316
G1 X165.150 Y96.850 E249.45413
G1 X165.150 Y99.150 E249.66327
G1 X121.150 Y99.150 E253.66418
G1 X121.150 Y103.150 E254.02789
G1 X48.850 Y103.150 E260.60210
G1 X48.850 Y100.150 E260.87489
G1 X34.850 Y100.150 E262.14791
G1 X34.850 Y97.850 E262.35704
