; generated by Slic3r 1.3.0 on 2023-06-21 at 17:11:46

; external perimeters extrusion width = 0.44mm (2.38mm^3/s)
; perimeters extrusion width = 0.56mm (6.20mm^3/s)
; infill extrusion width = 0.50mm (8.23mm^3/s)
; solid infill extrusion width = 0.56mm (2.07mm^3/s)
; top infill extrusion width = 0.56mm (1.55mm^3/s)
; support material extrusion width = 0.44mm (4.76mm^3/s)

M190 S100 ; set bed temperature and wait for it to be reached
M104 S240 ; set temperature
G28 ; home all axes
G29 ; auto-bed-level
G1 Z5 F5000 ; lift nozzle

; Filament gcode

M109 S240 ; set temperature and wait for it to be reached
G21 ; set units to millimeters
G90 ; use absolute coordinates
M82 ; use absolute distances for extrusion
G92 E0
G1 Z0.350 F10200.000
G1 E-2.00000 F2400.00000
G92 E0
G1 X184.340 Y99.864 F10200.000
G1 E2.00000 F2400.00000
G1 F1800
G1 X184.340 Y100.136 E2.02472
G1 X186.372 Y102.168 E2.28611
G1 X186.372 Y142.332 E5.93881
G1 X178.832 Y149.872 E6.90861
G1 X21.168 Y149.872 E21.24743
G1 X13.628 Y142.332 E22.21723
G1 X13.628 Y57.668 E29.91701
G1 X21.168 Y50.128 E30.88681
G1 X178.832 Y50.128 E45.22563
G1 X186.372 Y57.668 E46.19542
G1 X186.372 Y97.832 E49.84812
G1 X184.382 Y99.822 E50.10406
G1 X183.456 Y99.864 F10200.000
G1 F1800
G1 X183.456 Y100.136 E50.12878
G1 X185.747 Y102.427 E50.42347
G1 X185.747 Y142.073 E54.02908
G1 X178.573 Y149.247 E54.95179
G1 X21.427 Y149.247 E69.24352
G1 X14.253 Y142.073 E70.16623
G1 X14.253 Y57.927 E77.81892
G1 X21.427 Y50.753 E78.74163
G1 X178.573 Y50.753 E93.03336
G1 X185.747 Y57.927 E93.95607
G1 X185.747 Y97.573 E97.56168
G1 X183.498 Y99.822 E97.85091
G1 X182.572 Y99.864 F10200.000
G1 F1800
G1 X182.572 Y100.136 E97.87563
G1 X185.122 Y102.686 E98.20362
G1 X185.122 Y141.814 E101.76214
G1 X178.314 Y148.622 E102.63776
G1 X21.686 Y148.622 E116.88240
G1 X14.878 Y141.814 E117.75802
G1 X14.878 Y58.186 E125.36362
G1 X21.686 Y51.378 E126.23925
G1 X178.314 Y51.378 E140.48389
G1 X185.122 Y58.186 E141.35951
G1 X185.122 Y97.314 E144.91803
G1 X182.614 Y99.822 E145.24056
G1 X181.688 Y99.864 F10200.000
G1 F1800
G1 X181.688 Y100.136 E145.26528
G1 X184.497 Y102.945 E145.62656
G1 X184.497 Y141.555 E149.13799
G1 X178.055 Y147.997 E149.96653
G1 X21.945 Y147.997 E164.16408
G1 X15.503 Y141.555 E164.99261
G1 X15.503 Y58.445 E172.55113
G1 X21.945 Y52.003 E173.37966
G1 X178.055 Y52.003 E187.57721
G1 X184.497 Y58.445 E188.40575
G1 X184.497 Y97.055 E191.91718
G1 X181.730 Y99.822 E192.27300
G1 X180.804 Y99.864 F10200.000
G1 F1800
G1 X180.804 Y100.136 E192.29772
G1 X183.872 Y103.204 E192.69230
G1 X183.872 Y141.296 E196.15664
G1 X177.796 Y147.372 E196.93809
G1 X22.204 Y147.372 E211.08855
G1 X16.128 Y141.296 E211.87000
G1 X16.128 Y58.704 E219.38142
G1 X22.204 Y52.628 E220.16287
G1 X177.796 Y52.628 E234.31333
G1 X183.872 Y58.704 E235.09478
G1 X183.872 Y96.796 E238.55912
G1 X180.847 Y99.822 E238.94824
G1 X179.920 Y99.864 F10200.000
G1 F1800
G1 X179.920 Y100.136 E238.97296
G1 X183.247 Y103.463 E239.40084
G1 X183.247 Y141.037 E242.81809
G1 X177.537 Y146.747 E243.55245
G1 X22.463 Y146.747 E257.65582
G1 X16.753 Y141.037 E258.39018
G1 X16.753 Y58.963 E265.85452
G1 X22.463 Y53.253 E266.58887
G1 X177.537 Y53.253 E280.69225
G1 X183.247 Y58.963 E281.42660
G1 X183.247 Y96.537 E284.84386
G1 X179.963 Y99.822 E285.26628
G1 X179.036 Y99.864 F10200.000
G1 F1800
G1 X179.036 Y100.136 E285.29100
G1 X182.622 Y103.722 E285.75217
G1 X182.622 Y140.778 E289.12233
G1 X177.278 Y146.122 E289.80960
G1 X22.722 Y146.122 E303.86589
G1 X17.378 Y140.778 E304.55316
G1 X17.378 Y59.222 E311.97040
G1 X22.722 Y53.878 E312.65767
G1 X177.278 Y53.878 E326.71396
G1 X182.622 Y59.222 E327.40122
G1 X182.622 Y96.278 E330.77139
G1 X179.079 Y99.822 E331.22711
G1 X178.152 Y99.864 F10200.000
G1 F1800
G1 X178.152 Y100.136 E331.25183
G1 X181.997 Y103.980 E331.74630
G1 X181.997 Y140.520 E335.06937
G1 X177.020 Y145.497 E335.70955
G1 X22.980 Y145.497 E349.71875
G1 X18.003 Y140.520 E350.35893
G1 X18.003 Y59.480 E357.72909
G1 X22.980 Y54.503 E358.36927
G1 X177.020 Y54.503 E372.37846
G1 X181.997 Y59.480 E373.01864
G1 X181.997 Y96.020 E376.34172
G1 X178.195 Y99.822 E376.83073
G1 X177.269 Y99.864 F10200.000
G1 F1800
G1 X177.269 Y100.136 E376.85545
G1 X181.372 Y104.239 E377.38322
G1 X181.372 Y140.261 E380.65921
G1 X176.761 Y144.872 E381.25230
G1 X23.239 Y144.872 E395.21440
G1 X18.628 Y140.261 E395.80749
G1 X18.628 Y59.739 E403.13057
G1 X23.239 Y55.128 E403.72366
G1 X176.761 Y55.128 E417.68576
G1 X181.372 Y59.739 E418.27885
G1 X181.372 Y95.761 E421.55484
G1 X177.311 Y99.822 E422.07715
G1 X176.385 Y99.864 F10200.000
G1 F1800
G1 X176.385 Y100.136 E422.10187
G1 X180.747 Y104.498 E422.66294
G1 X180.747 Y140.002 E425.89183
G1 X176.502 Y144.247 E426.43784
G1 X23.498 Y144.247 E440.35286
G1 X19.253 Y140.002 E440.89886
G1 X19.253 Y59.998 E448.17484
G1 X23.498 Y55.753 E448.72084
G1 X176.502 Y55.753 E462.63586
G1 X180.747 Y59.998 E463.18186
G1 X180.747 Y95.502 E466.41076
G1 X176.427 Y99.822 E466.96637
G1 E464.96637 F2400.00000
G92 E0
G1 X167.256 Y100.878 F10200.000
G1 E2.00000 F2400.00000
G1 F1800
G1 X176.243 Y100.878 E2.81733
G1 X180.122 Y104.757 E3.31625
G1 X180.122 Y139.743 E6.49806
G1 X176.243 Y143.622 E6.99697
G1 X23.757 Y143.622 E20.86490
G1 X19.878 Y139.743 E21.36381
G1 X19.878 Y60.257 E28.59271
G1 X23.757 Y56.378 E29.09162
G1 X176.243 Y56.378 E42.95955
G1 X180.122 Y60.257 E43.45846
G1 X180.122 Y95.243 E46.64027
G1 X176.243 Y99.122 E47.13919
G1 X167.256 Y99.122 E47.95652
G1 X167.064 Y99.314 E47.98124
G1 X167.064 Y100.686 E48.10598
G1 X167.213 Y100.836 E48.12525
G1 X166.631 Y101.503 F10200.000
G1 F1800
G1 X175.984 Y101.503 E48.97588
G1 X179.497 Y105.016 E49.42770
G1 X179.497 Y139.484 E52.56243
G1 X175.984 Y142.997 E53.01425
G1 X24.016 Y142.997 E66.83509
G1 X20.503 Y139.484 E67.28692
G1 X20.503 Y60.516 E74.46872
G1 X24.016 Y57.003 E74.92055
G1 X175.984 Y57.003 E88.74139
G1 X179.497 Y60.516 E89.19321
G1 X179.497 Y94.984 E92.32793
G1 X175.984 Y98.497 E92.77976
G1 X166.631 Y98.497 E93.63039
G1 X166.439 Y98.689 E93.65511
G1 X166.439 Y101.311 E93.89353
G1 X166.588 Y101.461 E93.91280
G1 X166.006 Y102.128 F10200.000
G1 F1800
G1 X175.725 Y102.128 E94.79673
G1 X178.872 Y105.275 E95.20146
G1 X178.872 Y139.225 E98.28909
G1 X175.725 Y142.372 E98.69383
G1 X24.275 Y142.372 E112.46758
G1 X21.128 Y139.225 E112.87232
G1 X21.128 Y60.775 E120.00704
G1 X24.275 Y57.628 E120.41177
G1 X175.725 Y57.628 E134.18553
G1 X178.872 Y60.775 E134.59026
G1 X178.872 Y94.725 E137.67789
G1 X175.725 Y97.872 E138.08263
G1 X166.006 Y97.872 E138.96656
G1 X165.814 Y98.064 E138.99128
G1 X165.814 Y101.936 E139.34338
G1 X165.963 Y102.086 E139.36265
G1 X165.381 Y102.753 F10200.000
G1 F1800
G1 X175.466 Y102.753 E140.27987
G1 X178.247 Y105.534 E140.63752
G1 X178.247 Y138.966 E143.67806
G1 X175.466 Y141.747 E144.03571
G1 X24.534 Y141.747 E157.76238
G1 X21.753 Y138.966 E158.12002
G1 X21.753 Y61.034 E165.20765
G1 X24.534 Y58.253 E165.56530
G1 X175.466 Y58.253 E179.29196
G1 X178.247 Y61.034 E179.64961
G1 X178.247 Y94.466 E182.69015
G1 X175.466 Y97.247 E183.04780
G1 X165.381 Y97.247 E183.96502
G1 X165.189 Y97.439 E183.98975
G1 X165.189 Y102.561 E184.45553
G1 X165.338 Y102.711 E184.47480
G1 X164.756 Y103.378 F10200.000
G1 F1800
G1 X175.207 Y103.378 E185.42532
G1 X177.622 Y105.793 E185.73588
G1 X177.622 Y138.707 E188.72933
G1 X175.207 Y141.122 E189.03989
G1 X24.793 Y141.122 E202.71947
G1 X22.378 Y138.707 E203.03003
G1 X22.378 Y61.293 E210.07057
G1 X24.793 Y58.878 E210.38112
G1 X175.207 Y58.878 E224.06070
G1 X177.622 Y61.293 E224.37126
G1 X177.622 Y94.207 E227.36471
G1 X175.207 Y96.622 E227.67527
G1 X164.756 Y96.622 E228.62579
G1 X164.564 Y96.814 E228.65051
G1 X164.564 Y103.186 E229.22998
G1 X164.713 Y103.336 E229.24925
G1 X164.131 Y104.003 F10200.000
G1 F1800
G1 X174.949 Y104.003 E230.23307
G1 X176.997 Y106.052 E230.49654
G1 X176.997 Y138.448 E233.44290
G1 X174.949 Y140.497 E233.70637
G1 X25.051 Y140.497 E247.33886
G1 X23.003 Y138.448 E247.60233
G1 X23.003 Y61.552 E254.59578
G1 X25.051 Y59.503 E254.85925
G1 X174.949 Y59.503 E268.49174
G1 X176.997 Y61.552 E268.75521
G1 X176.997 Y93.948 E271.70157
G1 X174.949 Y95.997 E271.96504
G1 X164.131 Y95.997 E272.94886
G1 X163.939 Y96.189 E272.97358
G1 X163.939 Y103.811 E273.66674
G1 X164.088 Y103.961 E273.68600
G1 X163.506 Y104.628 F10200.000
G1 F1800
G1 X174.690 Y104.628 E274.70311
G1 X176.372 Y106.310 E274.91949
G1 X176.372 Y138.190 E277.81877
G1 X174.690 Y139.872 E278.03515
G1 X25.310 Y139.872 E291.62055
G1 X23.628 Y138.190 E291.83693
G1 X23.628 Y61.810 E298.78330
G1 X25.310 Y60.128 E298.99968
G1 X174.690 Y60.128 E312.58508
G1 X176.372 Y61.810 E312.80146
G1 X176.372 Y93.690 E315.70074
G1 X174.690 Y95.372 E315.91712
G1 X163.506 Y95.372 E316.93423
G1 X163.314 Y95.564 E316.95895
G1 X163.314 Y104.436 E317.76579
G1 X163.463 Y104.586 E317.78505
G1 X162.881 Y105.253 F10200.000
G1 F1800
G1 X174.431 Y105.253 E318.83546
G1 X175.747 Y106.569 E319.00475
G1 X175.747 Y137.931 E321.85694
G1 X174.431 Y139.247 E322.02624
G1 X25.569 Y139.247 E335.56455
G1 X24.253 Y137.931 E335.73384
G1 X24.253 Y62.069 E342.63311
G1 X25.569 Y60.753 E342.80240
G1 X174.431 Y60.753 E356.34071
G1 X175.747 Y62.069 E356.51001
G1 X175.747 Y93.431 E359.36220
G1 X174.431 Y94.747 E359.53149
G1 X162.881 Y94.747 E360.58190
G1 X162.689 Y94.939 E360.60662
G1 X162.689 Y105.061 E361.52714
G1 X162.838 Y105.211 E361.54640
G1 X162.256 Y105.878 F10200.000
G1 F1800
G1 X174.172 Y105.878 E362.63011
G1 X175.122 Y106.828 E362.75231
G1 X175.122 Y137.672 E365.55741
G1 X174.172 Y138.622 E365.67962
G1 X25.828 Y138.622 E379.17084
G1 X24.878 Y137.672 E379.29304
G1 X24.878 Y62.328 E386.14523
G1 X25.828 Y61.378 E386.26743
G1 X174.172 Y61.378 E399.75865
G1 X175.122 Y62.328 E399.88086
G1 X175.122 Y93.172 E402.68596
G1 X174.172 Y94.122 E402.80816
G1 X162.256 Y94.122 E403.89187
G1 X162.064 Y94.314 E403.91659
G1 X162.064 Y105.686 E404.95079
G1 X162.213 Y105.836 E404.97005
G1 X161.439 Y106.311 F10200.000
G1 F1800
G1 X161.631 Y106.503 E404.99477
G1 X173.913 Y106.503 E406.11178
G1 X174.497 Y107.087 E406.18689
G1 X174.497 Y137.413 E408.94491
G1 X173.913 Y137.997 E409.02002
G1 X26.087 Y137.997 E422.46415
G1 X25.503 Y137.413 E422.53927
G1 X25.503 Y62.587 E429.34436
G1 X26.087 Y62.003 E429.41948
G1 X173.913 Y62.003 E442.86361
G1 X174.497 Y62.587 E442.93873
G1 X174.497 Y92.913 E445.69674
G1 X173.913 Y93.497 E445.77185
G1 X161.631 Y93.497 E446.88886
G1 X161.439 Y93.689 E446.91358
G1 X161.439 Y106.251 E448.05600
G1 X160.814 Y106.936 F10200.000
G1 F1800
G1 X161.006 Y107.128 E448.08073
G1 X173.654 Y107.128 E449.23103
G1 X173.872 Y107.346 E449.25905
G1 X173.872 Y137.154 E451.96998
G1 X173.654 Y137.372 E451.99800
G1 X26.346 Y137.372 E465.39505
G1 X26.128 Y137.154 E465.42307
G1 X26.128 Y62.846 E472.18108
G1 X26.346 Y62.628 E472.20911
G1 X173.654 Y62.628 E485.60615
G1 X173.872 Y62.846 E485.63418
G1 X173.872 Y92.654 E488.34510
G1 X173.654 Y92.872 E488.37313
G1 X161.006 Y92.872 E489.52343
G1 X160.814 Y93.064 E489.54815
G1 X160.814 Y106.876 E490.80426
G1 X160.092 Y107.850 F10200.000
G1 F1800
G1 X173.150 Y107.850 E491.99164
G1 X173.150 Y136.650 E494.61042
G1 X26.850 Y136.650 E507.91342
G1 X26.850 Y63.350 E514.57856
G1 X173.150 Y63.350 E527.88156
G1 X173.150 Y92.150 E530.50033
G1 X160.092 Y92.150 E531.68772
G1 X160.092 Y107.790 E533.10986
G1 X160.000 Y108.239 F10200.000
G1 X159.467 Y108.475 F10200.000
G1 F1800
G1 X172.525 Y108.475 E534.29725
G1 X172.525 Y136.025 E536.80238
G1 X27.475 Y136.025 E549.99174
G1 X27.475 Y63.975 E556.54323
G1 X172.525 Y63.975 E569.73259
G1 X172.525 Y91.525 E572.23772
G1 X159.467 Y91.525 E573.42511
G1 X159.467 Y108.415 E574.96089
G1 E572.96089 F2400.00000
G92 E0
G1 X167.449 Y120.179 F10200.000
G1 E2.00000 F2400.00000
G1 F1800
G1 X167.956 Y119.969 E2.04992
G1 X168.486 Y119.899 E2.09851
G1 X169.043 Y119.968 E2.14960
G1 X169.552 Y120.179 E2.19964
G1 X169.987 Y120.513 E2.24956
G1 X170.321 Y120.948 E2.29948
G1 X170.531 Y121.456 E2.34940
G1 X170.603 Y122.000 E2.39932
G1 X170.531 Y122.544 E2.44924
G1 X170.321 Y123.052 E2.49916
G1 X169.987 Y123.487 E2.54908
G1 X169.552 Y123.821 E2.59900
G1 X169.044 Y124.031 E2.64892
G1 X168.500 Y124.103 E2.69884
G1 X167.956 Y124.031 E2.74876
G1 X167.462 Y123.827 E2.79735
G1 X167.013 Y123.487 E2.84856
G1 X166.673 Y123.038 E2.89978
G1 X166.469 Y122.544 E2.94836
G1 X166.397 Y122.000 E2.99828
G1 X166.469 Y121.456 E3.04820
G1 X166.679 Y120.948 E3.09812
G1 X167.013 Y120.513 E3.14805
G1 X167.401 Y120.215 E3.19251
G1 X167.449 Y120.179 F10200.000
G1 X167.209 Y119.601 F10200.000
G1 F1800
G1 X167.793 Y119.360 E3.24991
G1 X168.483 Y119.269 E3.31325
G1 X169.204 Y119.358 E3.37931
G1 X169.867 Y119.633 E3.44452
G1 X170.433 Y120.067 E3.50940
G1 X170.867 Y120.633 E3.57427
G1 X171.140 Y121.293 E3.63916
G1 X171.233 Y122.000 E3.70404
G1 X171.140 Y122.707 E3.76893
G1 X170.867 Y123.367 E3.83380
G1 X170.433 Y123.933 E3.89868
G1 X169.867 Y124.367 E3.96357
G1 X169.207 Y124.640 E4.02845
G1 X168.500 Y124.733 E4.09333
G1 X167.793 Y124.640 E4.15821
G1 X167.149 Y124.374 E4.22155
G1 X166.567 Y123.933 E4.28793
G1 X166.126 Y123.351 E4.35432
G1 X165.860 Y122.707 E4.41766
G1 X165.767 Y122.000 E4.48254
G1 X165.860 Y121.293 E4.54741
G1 X166.133 Y120.633 E4.61230
G1 X166.567 Y120.067 E4.67719
G1 X167.154 Y119.624 E4.74402
G1 E2.74402 F2400.00000
G92 E0
G1 X168.500 Y80.103 F10200.000
G1 E2.00000 F2400.00000
G1 F1800
G1 X167.956 Y80.031 E2.04992
G1 X167.462 Y79.827 E2.09851
G1 X167.013 Y79.487 E2.14972
G1 X166.673 Y79.038 E2.20094
G1 X166.469 Y78.544 E2.24952
G1 X166.397 Y78.000 E2.29944
G1 X166.469 Y77.456 E2.34936
G1 X166.679 Y76.948 E2.39928
G1 X167.013 Y76.513 E2.44921
G1 X167.449 Y76.179 E2.49912
G1 X167.956 Y75.969 E2.54904
G1 X168.486 Y75.899 E2.59764
G1 X169.043 Y75.968 E2.64873
G1 X169.552 Y76.179 E2.69877
G1 X169.987 Y76.513 E2.74869
G1 X170.321 Y76.948 E2.79860
G1 X170.531 Y77.456 E2.84852
G1 X170.603 Y78.000 E2.89844
G1 X170.531 Y78.544 E2.94837
G1 X170.321 Y79.052 E2.99829
G1 X169.987 Y79.487 E3.04820
G1 X169.552 Y79.821 E3.09812
G1 X169.044 Y80.031 E3.14804
G1 X168.560 Y80.095 E3.19251
G1 X168.500 Y80.103 F10200.000
G1 X168.582 Y80.723 F10200.000
G1 F1800
G1 X168.500 Y80.733 E3.19999
G1 X167.793 Y80.640 E3.26487
G1 X167.149 Y80.374 E3.32821
G1 X166.567 Y79.933 E3.39459
G1 X166.126 Y79.351 E3.46098
G1 X165.860 Y78.707 E3.52432
G1 X165.767 Y78.000 E3.58920
G1 X165.860 Y77.293 E3.65408
G1 X166.133 Y76.633 E3.71896
G1 X166.567 Y76.067 E3.78385
G1 X167.133 Y75.633 E3.84872
G1 X167.793 Y75.360 E3.91360
G1 X168.483 Y75.269 E3.97695
G1 X169.204 Y75.358 E4.04300
G1 X169.867 Y75.633 E4.10822
G1 X170.433 Y76.067 E4.17310
G1 X170.867 Y76.633 E4.23797
G1 X171.140 Y77.293 E4.30285
G1 X171.233 Y78.000 E4.36774
G1 X171.140 Y78.707 E4.43262
G1 X170.867 Y79.367 E4.49750
G1 X170.433 Y79.933 E4.56238
G1 X169.867 Y80.367 E4.62726
G1 X169.207 Y80.640 E4.69214
G1 X168.641 Y80.715 E4.74409
G1 E2.74409 F2400.00000
G92 E0
G1 X158.842 Y90.900 F10200.000
G1 E2.00000 F2400.00000
G1 F1800
G1 X158.842 Y109.100 E3.65488
G1 X171.900 Y109.100 E4.84227
G1 X171.900 Y120.706 E5.89763
G1 X171.598 Y120.766 E5.92560
G1 X171.413 Y120.318 E5.96969
G1 X170.878 Y119.622 E6.04953
G1 X170.182 Y119.087 E6.12937
G1 X169.365 Y118.749 E6.20976
G1 X168.481 Y118.639 E6.29077
G1 X167.629 Y118.751 E6.36887
G1 X166.818 Y119.087 E6.44871
G1 X166.122 Y119.622 E6.52854
G1 X165.587 Y120.318 E6.60839
G1 X165.251 Y121.130 E6.68824
G1 X165.136 Y122.000 E6.76807
G1 X165.251 Y122.870 E6.84791
G1 X165.580 Y123.664 E6.92600
G1 X166.120 Y124.380 E7.00757
G1 X166.836 Y124.920 E7.08913
G1 X167.629 Y125.249 E7.16721
G1 X168.500 Y125.364 E7.24706
G1 X169.371 Y125.249 E7.32690
G1 X170.182 Y124.913 E7.40674
G1 X170.878 Y124.378 E7.48659
G1 X171.413 Y123.682 E7.56642
G1 X171.598 Y123.234 E7.61051
G1 X171.900 Y123.294 E7.63849
G1 X171.900 Y135.400 E8.73931
G1 X38.794 Y135.400 E20.84260
G1 X38.734 Y135.098 E20.87058
G1 X39.182 Y134.913 E20.91465
G1 X39.878 Y134.378 E20.99450
G1 X40.413 Y133.682 E21.07435
G1 X40.749 Y132.871 E21.15419
G1 X40.864 Y132.000 E21.23403
G1 X40.749 Y131.130 E21.31386
G1 X40.413 Y130.318 E21.39371
G1 X39.878 Y129.622 E21.47356
G1 X39.182 Y129.087 E21.55340
G1 X38.365 Y128.749 E21.63378
