; generated by PrusaSlicer 2.6.0+win64 on 2023-07-08 at 22:26:22 UTC

; 

; external perimeters extrusion width = 0.42mm
; perimeters extrusion width = 0.44mm
; infill extrusion width = 0.44mm
; solid infill extrusion width = 0.44mm
; top infill extrusion width = 0.40mm
; first layer extrusion width = 0.42mm

M201 X500 Y500 Z100 E5000 ; sets maximum accelerations, mm/sec^2
M203 X500 Y500 Z10 E60 ; sets maximum feedrates, mm / sec
M204 S500 T1000 ; sets acceleration (S) and retract acceleration (R), mm/sec^2
M205 X8.00 Y8.00 Z0.40 E5.00 ; sets the jerk limits, mm/sec
M205 S0 T0 ; sets the minimum extruding and travel feed rate, mm/sec
;TYPE:Custom
G90 ; use absolute coordinates
M83 ; extruder relative mode
M104 S150 ; set temporary nozzle temp to prevent oozing during homing
M140 S100 ; set final bed temp
G4 S30 ; allow partial nozzle warmup
G28 ; home all axis
G29 ; auto-bed-level
G1 Z50 F240
G1 X2.0 Y10 F3000
M104 S240 ; set final nozzle temp
M190 S100 ; wait for bed temp to stabilize
M109 S240 ; wait for nozzle temp to stabilize
G1 Z0.28 F240
G92 E0
G1 X2.0 Y140 E10 F1500 ; prime the nozzle
G1 X2.3 Y140 F5000
G92 E0
G1 X2.3 Y10 E10 F1200 ; prime the nozzle
G92 E0
G21 ; set units to millimeters
G90 ; use absolute coordinates
M83 ; use relative distances for extrusion
; Filament gcode
M107
;LAYER_CHANGE
;Z:0.35
;HEIGHT:0.35
;BEFORE_LAYER_CHANGE
G92 E0
;0.35


G1 E-5 F3600
G1 Z.35 F10200
;AFTER_LAYER_CHANGE
;0.35
G1 X85.041 Y87.599
G1 E5 F2400
M204 S500
;TYPE:Skirt/Brim
;WIDTH:0.42
G1 F1200
G1 X89.888 Y82.997 E.33543
G1 X92.611 Y81.795 E.14938
G1 X95.496 Y81.129 E.14859
G1 X122.617 Y81.121 E1.36109
G1 X125.623 Y81.791 E.15456
G1 X128.409 Y83.065 E.15374
G1 X131.626 Y85.688 E.20831
G1 X133.919 Y88.911 E.19851
G1 X134.65 Y90.734 E.09857
G1 X136.102 Y92.441 E.11247
G1 X137.815 Y95.893 E.1934
G1 X138.559 Y99.812 E.20019
G1 X138.527 Y111.692 E.59621
G1 X137.681 Y115.468 E.1942
G1 X135.886 Y118.949 E.19656
G1 X131.338 Y123.07 E.30801
G1 X128.535 Y124.305 E.15372
G1 X128.498 Y125.856 E.07786
G1 X127.58 Y129.638 E.19531
G1 X125.53 Y133.263 E.209
G1 X122.733 Y136.026 E.19731
G1 X119.299 Y137.957 E.19772
G1 X114.986 Y138.958 E.22221
G1 X96.316 Y138.958 E.93697
G1 X92.893 Y138.298 E.17495
G1 X89.707 Y136.894 E.17473
G1 X84.761 Y131.974 E.35011
G1 X83.425 Y129.028 E.16234
G1 X82.719 Y125.718 E.16985
G1 X82.768 Y120.965 E.23855
G1 X84.067 Y115.606 E.27673
G1 X84.326 Y114.222 E.07066
G1 X84.513 Y112.821 E.07093
G1 X84.625 Y111.412 E.07093
G1 X84.661 Y110.031 E.06933
G1 X84.606 Y108.357 E.08406
G1 X84.513 Y107.179 E.0593
G1 X84.326 Y105.778 E.07093
G1 X84.065 Y104.382 E.07127
G1 X82.744 Y98.857 E.28509
G1 X82.83 Y93.369 E.27545
G1 X83.645 Y90.351 E.15689
G1 X85.014 Y87.653 E.15184
G1 X85.321 Y87.809 F10200
G1 F1200
G1 X90.055 Y83.3 E.3281
G1 X92.705 Y82.128 E.14542
G1 X95.555 Y81.469 E.1468
G1 X122.561 Y81.462 E1.35532
G1 X125.496 Y82.112 E.15086
G1 X128.245 Y83.37 E.15172
G1 X131.39 Y85.941 E.20386
G1 X133.626 Y89.093 E.19395
G1 X134.35 Y90.915 E.09839
G1 X135.803 Y92.614 E.11219
G1 X137.495 Y96.025 E.19109
G1 X138.214 Y99.827 E.19419
G1 X138.183 Y111.672 E.59445
G1 X137.349 Y115.37 E.19025
G1 X135.594 Y118.763 E.19171
G1 X131.128 Y122.795 E.30196
G1 X128.194 Y124.077 E.16069
G1 X128.159 Y125.793 E.08614
G1 X127.251 Y129.533 E.19315
G1 X125.242 Y133.071 E.20419
G1 X122.507 Y135.764 E.19263
G1 X119.197 Y137.627 E.19062
G1 X114.966 Y138.613 E.21803
G1 X96.333 Y138.613 E.93511
G1 X92.978 Y137.963 E.1715
G1 X89.876 Y136.592 E.1702
G1 X85.061 Y131.803 E.34082
G1 X83.759 Y128.937 E.15798
G1 X83.064 Y125.702 E.16606
G1 X83.112 Y120.988 E.23659
G1 X84.404 Y115.679 E.27421
G1 X84.667 Y114.277 E.07159
G1 X84.856 Y112.858 E.07184
G1 X84.969 Y111.431 E.07184
G1 X85.006 Y110.03 E.07033
G1 X84.951 Y108.338 E.08496
G1 X84.856 Y107.142 E.06021
G1 X84.667 Y105.724 E.07179
G1 X84.402 Y104.31 E.0722
G1 X83.085 Y98.798 E.28441
G1 X83.174 Y93.396 E.27114
G1 X83.973 Y90.459 E.15275
G1 X85.294 Y87.863 E.14618
G1 X85.601 Y88.019 F10200
G1 F1200
G1 X85.629 Y87.965 E.00305
G1 X90.221 Y83.604 E.31782
G1 X92.829 Y82.45 E.14313
G1 X95.613 Y81.81 E.14336
G1 X122.505 Y81.803 E1.3496
G1 X125.403 Y82.445 E.14896
G1 X128.081 Y83.674 E.14788
G1 X131.153 Y86.192 E.19934
G1 X133.332 Y89.275 E.18947
G1 X134.051 Y91.095 E.09821
G1 X135.503 Y92.787 E.1119
G1 X137.176 Y96.157 E.18882
G1 X137.869 Y99.842 E.18818
G1 X137.838 Y111.652 E.5927
G1 X137.018 Y115.272 E.18628
G1 X135.302 Y118.576 E.18684
G1 X130.918 Y122.52 E.29595
G1 X127.853 Y123.848 E.16764
G1 X127.819 Y125.73 E.09447
G1 X126.921 Y129.428 E.19098
G1 X124.954 Y132.88 E.19939
G1 X122.318 Y135.475 E.18564
G1 X119.094 Y137.297 E.18585
G1 X114.946 Y138.268 E.2138
G1 X96.349 Y138.268 E.93331
G1 X93.099 Y137.64 E.16612
G1 X90.044 Y136.289 E.16764
G1 X85.362 Y131.631 E.33145
G1 X84.092 Y128.846 E.15361
G1 X83.409 Y125.686 E.16225
G1 X83.457 Y121.011 E.23463
G1 X84.742 Y115.752 E.27169
G1 X85.008 Y114.331 E.07255
G1 X85.199 Y112.894 E.07275
G1 X85.314 Y111.449 E.07275
G1 X85.351 Y110.029 E.07129
G1 X85.295 Y108.318 E.08591
G1 X85.199 Y107.106 E.06102
G1 X85.008 Y105.669 E.07275
G1 X84.74 Y104.239 E.07302
G1 X83.425 Y98.739 E.2838
G1 X83.519 Y93.424 E.26678
G1 X84.301 Y90.568 E.14861
G1 X85.574 Y88.073 E.14057
G1 X85.881 Y88.23 F10200
G1 F1200
G1 X85.923 Y88.148 E.00462
G1 X90.388 Y83.907 E.30905
G1 X92.953 Y82.772 E.14077
G1 X95.671 Y82.15 E.13993
G1 X122.449 Y82.144 E1.34388
G1 X125.276 Y82.766 E.14527
G1 X127.917 Y83.978 E.14583
G1 X130.916 Y86.444 E.19486
G1 X133.038 Y89.456 E.18491
G1 X133.751 Y91.276 E.0981
G1 X135.204 Y92.959 E.11159
G1 X136.856 Y96.289 E.18655
G1 X137.524 Y99.857 E.18217
G1 X137.493 Y111.632 E.59094
G1 X136.686 Y115.174 E.18231
G1 X135.011 Y118.389 E.18193
G1 X130.709 Y122.244 E.2899
G1 X127.512 Y123.619 E.17465
G1 X127.479 Y125.668 E.10284
G1 X126.592 Y129.323 E.18875
G1 X124.667 Y132.688 E.19456
G1 X122.093 Y135.213 E.18096
G1 X118.991 Y136.967 E.17884
G1 X114.926 Y137.923 E.20957
G1 X96.366 Y137.923 E.93145
G1 X93.184 Y137.305 E.16268
G1 X90.213 Y135.987 E.16312
G1 X85.663 Y131.46 E.32211
G1 X84.425 Y128.754 E.14934
G1 X83.754 Y125.67 E.15839
G1 X83.802 Y121.035 E.23262
G1 X85.079 Y115.825 E.26921
G1 X85.348 Y114.386 E.07347
G1 X85.542 Y112.93 E.07372
G1 X85.658 Y111.467 E.07365
G1 X85.696 Y110.028 E.07224
G1 X85.64 Y108.299 E.08682
G1 X85.542 Y107.069 E.06192
G1 X85.348 Y105.615 E.07362
G1 X85.077 Y104.167 E.07393
G1 X83.766 Y98.68 E.28312
G1 X83.863 Y93.452 E.26242
G1 X84.629 Y90.676 E.14452
G1 X85.853 Y88.283 E.13489
G1 X86.16 Y88.441 F10200
G1 F1200
G1 X86.216 Y88.332 E.00615
G1 X90.555 Y84.21 E.30035
G1 X93.046 Y83.105 E.13676
G1 X95.729 Y82.491 E.13813
G1 X122.394 Y82.485 E1.33821
G1 X125.184 Y83.099 E.14337
G1 X127.752 Y84.282 E.14189
G1 X130.678 Y86.695 E.19034
G1 X132.744 Y89.637 E.18042
G1 X133.451 Y91.457 E.09799
G1 X134.905 Y93.133 E.11135
G1 X136.537 Y96.421 E.18422
G1 X137.18 Y99.872 E.17617
G1 X137.148 Y111.612 E.58918
G1 X136.37 Y115.034 E.17612
G1 X134.719 Y118.202 E.17928
G1 X130.501 Y121.968 E.28378
G1 X127.17 Y123.39 E.18176
G1 X127.139 Y125.605 E.11117
G1 X126.263 Y129.218 E.18658
G1 X124.38 Y132.495 E.18968
G1 X121.903 Y134.925 E.17414
G1 X118.887 Y136.637 E.17405
G1 X114.906 Y137.578 E.2053
G1 X96.382 Y137.578 E.92964
G1 X93.27 Y136.97 E.15913
G1 X90.382 Y135.685 E.15864
G1 X85.963 Y131.287 E.31289
G1 X84.758 Y128.662 E.14496
G1 X84.099 Y125.654 E.15454
G1 X84.146 Y121.058 E.23067
G1 X85.416 Y115.898 E.26669
G1 X85.689 Y114.44 E.07444
G1 X85.885 Y112.967 E.07458
G1 X86.003 Y111.485 E.07461
G1 X86.041 Y110.027 E.0732
G1 X85.984 Y108.28 E.08772
G1 X85.885 Y107.033 E.06278
G1 X85.689 Y105.56 E.07458
G1 X85.415 Y104.095 E.0748
G1 X84.106 Y98.622 E.28241
G1 X84.208 Y93.481 E.25806
G1 X84.956 Y90.786 E.14036
G1 X86.133 Y88.494 E.12931
G1 X86.439 Y88.652 F10200
G1 F1200
G1 X86.509 Y88.515 E.00772
G1 X90.722 Y84.513 E.29162
G1 X93.171 Y83.427 E.13445
G1 X95.786 Y82.832 E.13459
G1 X122.338 Y82.826 E1.33254
G1 X125.057 Y83.42 E.13967
G1 X127.587 Y84.585 E.13978
G1 X130.44 Y86.946 E.18585
G1 X132.449 Y89.817 E.17586
G1 X133.151 Y91.638 E.09794
G1 X134.606 Y93.306 E.11108
G1 X136.217 Y96.553 E.18191
G1 X136.835 Y99.887 E.17017
G1 X136.803 Y111.592 E.58743
G1 X136.039 Y114.935 E.1721
G1 X134.429 Y118.014 E.17437
G1 X130.293 Y121.691 E.27774
G1 X126.827 Y123.16 E.18892
G1 X126.8 Y125.543 E.1196
G1 X125.933 Y129.113 E.18437
G1 X124.093 Y132.302 E.18477
G1 X121.678 Y134.662 E.16946
G1 X118.784 Y136.307 E.16706
G1 X114.886 Y137.233 E.20107
G1 X96.399 Y137.233 E.92779
G1 X93.392 Y136.647 E.15375
G1 X90.551 Y135.382 E.15607
G1 X86.264 Y131.115 E.30355
G1 X85.09 Y128.569 E.1407
G1 X84.444 Y125.638 E.15063
G1 X84.491 Y121.082 E.22866
G1 X85.753 Y115.971 E.2642
G1 X86.03 Y114.495 E.07537
G1 X86.228 Y113.003 E.07553
G1 X86.347 Y111.504 E.07547
G1 X86.386 Y110.026 E.0742
G1 X86.328 Y108.26 E.08868
G1 X86.228 Y106.997 E.06358
G1 X86.03 Y105.505 E.07553
G1 X85.752 Y104.023 E.07567
G1 X84.447 Y98.563 E.28173
G1 X84.552 Y93.51 E.25364
G1 X85.283 Y90.896 E.13622
G1 X86.412 Y88.705 E.1237
G1 X86.718 Y88.863 F10200
G1 F1200
G1 X86.802 Y88.699 E.00925
G1 X90.889 Y84.817 E.28289
G1 X93.295 Y83.749 E.13211
G1 X95.844 Y83.172 E.13116
G1 X122.283 Y83.166 E1.32687
G1 X124.965 Y83.753 E.13778
G1 X127.422 Y84.889 E.13585
G1 X130.202 Y87.196 E.1813
G1 X132.154 Y89.997 E.17134
G1 X132.851 Y91.819 E.0979
G1 X134.307 Y93.479 E.11081
G1 X135.897 Y96.684 E.17955
G1 X136.49 Y99.902 E.16422
G1 X136.458 Y111.572 E.58567
G1 X135.708 Y114.836 E.16808
G1 X134.138 Y117.826 E.16948
G1 X130.086 Y121.414 E.27162
G1 X126.484 Y122.93 E.19613
G1 X126.46 Y125.481 E.12803
G1 X125.604 Y129.007 E.1821
G1 X123.807 Y132.109 E.17991
G1 X121.488 Y134.374 E.16268
G1 X118.679 Y135.977 E.16231
G1 X114.865 Y136.888 E.19679
G1 X96.416 Y136.888 E.92588
G1 X93.478 Y136.312 E.15025
G1 X90.721 Y135.08 E.15155
G1 X86.564 Y130.942 E.29436
G1 X85.423 Y128.476 E.13636
G1 X84.789 Y125.622 E.14672
G1 X84.836 Y121.106 E.22665
G1 X86.09 Y116.044 E.26172
G1 X86.37 Y114.549 E.07633
G1 X86.571 Y113.04 E.0764
G1 X86.692 Y111.522 E.07642
G1 X86.731 Y110.025 E.07515
G1 X86.673 Y108.241 E.08958
G1 X86.571 Y106.96 E.06449
G1 X86.37 Y105.451 E.0764
G1 X86.09 Y103.951 E.07658
G1 X84.787 Y98.504 E.28108
G1 X84.896 Y93.54 E.24918
G1 X85.611 Y91.007 E.13209
G1 X86.69 Y88.916 E.11809
G1 X86.996 Y89.075 F10200
G1 F1200
G1 X87.095 Y88.884 E.0108
G1 X91.056 Y85.12 E.27422
G1 X93.388 Y84.081 E.12812
G1 X95.901 Y83.513 E.1293
G1 X122.228 Y83.507 E1.32124
G1 X124.837 Y84.074 E.13399
G1 X127.256 Y85.192 E.13374
G1 X129.963 Y87.446 E.17678
G1 X131.858 Y90.176 E.16678
G1 X132.551 Y92 E.09792
G1 X134.008 Y93.653 E.11058
G1 X135.578 Y96.816 E.17722
G1 X136.145 Y99.917 E.15821
G1 X136.114 Y111.551 E.58386
G1 X135.377 Y114.737 E.16411
G1 X133.848 Y117.637 E.16453
G1 X129.879 Y121.136 E.26554
G1 X126.141 Y122.7 E.20335
G1 X126.12 Y125.419 E.13646
G1 X125.275 Y128.901 E.17982
G1 X123.521 Y131.915 E.17501
G1 X121.297 Y134.086 E.15598
G1 X118.575 Y135.648 E.1575
G1 X114.845 Y136.544 E.19252
G1 X96.433 Y136.544 E.92402
G1 X93.564 Y135.978 E.14676
G1 X90.89 Y134.779 E.14707
G1 X86.864 Y130.769 E.28517
G1 X85.755 Y128.383 E.13205
G1 X85.134 Y125.605 E.14286
G1 X85.18 Y121.129 E.22464
G1 X86.428 Y116.118 E.25916
G1 X86.711 Y114.604 E.0773
G1 X86.914 Y113.076 E.07736
G1 X87.036 Y111.54 E.07733
G1 X87.076 Y110.024 E.07611
G1 X87.017 Y108.222 E.09048
G1 X86.914 Y106.924 E.06535
G1 X86.711 Y105.396 E.07736
G1 X86.427 Y103.879 E.07745
G1 X85.128 Y98.446 E.28035
G1 X85.24 Y93.57 E.24477
G1 X85.937 Y91.118 E.12793
G1 X86.969 Y89.128 E.1125
G1 X87.274 Y89.287 F10200
G1 F1200
G1 X87.388 Y89.068 E.01239
G1 X91.223 Y85.423 E.26553
G1 X93.513 Y84.403 E.12581
G1 X95.958 Y83.853 E.12577
G1 X122.173 Y83.848 E1.31562
G1 X124.71 Y84.395 E.13025
G1 X127.091 Y85.496 E.13165
G1 X129.724 Y87.695 E.17216
G1 X131.563 Y90.355 E.16229
G1 X132.251 Y92.181 E.09793
G1 X133.71 Y93.827 E.11039
G1 X135.258 Y96.947 E.17479
G1 X135.8 Y99.932 E.15225
G1 X135.769 Y111.531 E.58211
G1 X135.046 Y114.637 E.16004
G1 X133.558 Y117.447 E.15957
G1 X129.673 Y120.858 E.25946
G1 X125.797 Y122.469 E.21065
G1 X125.78 Y125.358 E.14499
G1 X124.946 Y128.795 E.17749
G1 X123.235 Y131.721 E.17011
G1 X121.072 Y133.823 E.15137
G1 X118.47 Y135.318 E.1506
G1 X114.824 Y136.199 E.18824
G1 X96.45 Y136.199 E.92212
G1 X93.651 Y135.643 E.14321
G1 X91.06 Y134.477 E.14259
G1 X87.163 Y130.596 E.27602
G1 X86.088 Y128.289 E.12773
G1 X85.479 Y125.589 E.13891
G1 X85.525 Y121.153 E.22264
G1 X86.765 Y116.191 E.25668
G1 X87.052 Y114.659 E.07822
G1 X87.257 Y113.113 E.07827
G1 X87.381 Y111.558 E.07829
G1 X87.421 Y110.022 E.07711
G1 X87.362 Y108.202 E.09139
G1 X87.257 Y106.887 E.0662
G1 X87.052 Y105.342 E.07822
G1 X86.764 Y103.807 E.07838
G1 X85.469 Y98.388 E.27962
G1 X85.585 Y93.601 E.24031
G1 X86.264 Y91.23 E.12377
G1 X87.246 Y89.34 E.10689
G1 X87.552 Y89.5 F10200
G1 F1200
G1 X87.681 Y89.253 E.01398
G1 X91.39 Y85.726 E.25686
G1 X93.637 Y84.725 E.12345
G1 X96.015 Y84.194 E.12228
G1 X122.118 Y84.189 E1.31
G1 X124.618 Y84.728 E.12835
G1 X126.925 Y85.799 E.12765
G1 X129.484 Y87.944 E.16758
G1 X131.266 Y90.532 E.15769
G1 X131.95 Y92.362 E.09805
G1 X133.411 Y94.001 E.11019
G1 X134.938 Y97.079 E.17244
G1 X135.455 Y99.946 E.1462
G1 X135.424 Y111.511 E.5804
G1 X134.731 Y114.495 E.15374
G1 X133.268 Y117.258 E.1569
G1 X129.468 Y120.58 E.25331
G1 X125.453 Y122.237 E.21798
G1 X125.44 Y125.297 E.15357
G1 X124.635 Y128.644 E.17276
G1 X122.977 Y131.49 E.1653
G1 X120.881 Y133.536 E.147
G1 X118.364 Y134.989 E.14585
G1 X114.804 Y135.854 E.18386
G1 X96.467 Y135.854 E.92026
G1 X93.774 Y135.321 E.13777
G1 X91.23 Y134.175 E.14003
G1 X87.463 Y130.422 E.26686
G1 X86.42 Y128.194 E.12346
G1 X85.824 Y125.572 E.13494
G1 X85.87 Y121.178 E.22053
G1 X86.696 Y117.939 E.16775
G1 X87.102 Y116.263 E.08654
G1 X87.392 Y114.713 E.07914
G1 X87.6 Y113.149 E.07918
G1 X87.725 Y111.576 E.07919
G1 X87.766 Y110.021 E.07807
G1 X87.706 Y108.183 E.09229
G1 X87.6 Y106.851 E.06706
G1 X87.392 Y105.287 E.07918
G1 X87.102 Y103.735 E.07924
G1 X85.809 Y98.329 E.27896
G1 X85.929 Y93.632 E.2358
G1 X86.591 Y91.342 E.11963
G1 X87.524 Y89.553 E.10126
G1 X87.829 Y89.713 F10200
G1 F1200
G1 X87.973 Y89.438 E.01558
G1 X91.558 Y86.029 E.24827
G1 X93.729 Y85.058 E.11935
G1 X96.071 Y84.535 E.12043
G1 X122.064 Y84.531 E1.30448
G1 X124.491 Y85.049 E.12454
G1 X126.759 Y86.102 E.12549
G1 X129.244 Y88.193 E.16299
G1 X130.97 Y90.709 E.15312
G1 X131.65 Y92.544 E.09821
G1 X133.113 Y94.176 E.11
G1 X134.618 Y97.21 E.16997
G1 X135.11 Y99.961 E.14025
G1 X135.079 Y111.49 E.5786
G1 X134.4 Y114.394 E.14967
G1 X132.979 Y117.068 E.15197
G1 X129.263 Y120.301 E.24719
G1 X125.109 Y122.006 E.22535
G1 X125.1 Y125.236 E.1621
G1 X124.324 Y128.493 E.16803
G1 X122.719 Y131.26 E.16053
G1 X120.689 Y133.248 E.14259
G1 X118.258 Y134.66 E.14109
G1 X114.783 Y135.509 E.17953
G1 X96.484 Y135.509 E.91835
G1 X93.861 Y134.987 E.13422
G1 X91.401 Y133.874 E.13551
G1 X87.762 Y130.248 E.25781
G1 X86.752 Y128.099 E.11917
G1 X86.17 Y125.555 E.13097
G1 X86.214 Y121.202 E.21847
G1 X87.03 Y118.022 E.16476
G1 X87.439 Y116.336 E.08707
G1 X87.733 Y114.768 E.08006
G1 X87.943 Y113.185 E.08014
G1 X88.07 Y111.595 E.08005
G1 X88.112 Y110.02 E.07907
G1 X88.051 Y108.164 E.0932
G1 X87.943 Y106.814 E.06797
G1 X87.733 Y105.233 E.08004
G1 X87.439 Y103.664 E.08011
G1 X86.15 Y98.271 E.27828
G1 X86.273 Y93.664 E.23129
G1 X86.917 Y91.456 E.11543
G1 X87.801 Y89.766 E.09572
G1 X88.106 Y89.926 F10200
G1 F1200
G1 X88.265 Y89.624 E.01713
G1 X91.726 Y86.332 E.23972
G1 X93.854 Y85.38 E.117
G1 X96.128 Y84.876 E.11689
G1 X122.01 Y84.872 E1.29891
G1 X124.399 Y85.382 E.1226
G1 X126.592 Y86.405 E.12144
G1 X129.004 Y88.441 E.15841
G1 X130.673 Y90.886 E.14857
G1 X131.349 Y92.725 E.09833
G1 X132.814 Y94.351 E.10984
G1 X134.298 Y97.341 E.16752
G1 X134.765 Y99.975 E.13425
G1 X134.734 Y111.469 E.57684
G1 X134.07 Y114.293 E.14559
G1 X132.69 Y116.877 E.14702
G1 X129.059 Y120.022 E.24108
G1 X124.764 Y121.774 E.23279
G1 X124.759 Y125.177 E.17078
G1 X124.012 Y128.343 E.16325
G1 X122.46 Y131.031 E.15577
G1 X120.496 Y132.962 E.13823
G1 X118.151 Y134.331 E.13627
