; generated by Slic3r 1.3.0 on 2023-06-20 at 01:30:44

; external perimeters extrusion width = 0.44mm (2.38mm^3/s)
; perimeters extrusion width = 0.56mm (6.20mm^3/s)
; infill extrusion width = 0.50mm (8.23mm^3/s)
; solid infill extrusion width = 0.56mm (2.07mm^3/s)
; top infill extrusion width = 0.56mm (1.55mm^3/s)
; support material extrusion width = 0.44mm (4.76mm^3/s)

M190 S100 ; set bed temperature and wait for it to be reached
M104 S240 ; set temperature
G28 ; home all axes
G29 ; auto-bed-level
G1 Z5 F5000 ; lift nozzle

; Filament gcode

M109 S240 ; set temperature and wait for it to be reached
G21 ; set units to millimeters
G90 ; use absolute coordinates
M82 ; use absolute distances for extrusion
G92 E0
G1 Z0.350 F10200.000
G1 E-2.00000 F2400.00000
G92 E0
G1 X47.740 Y71.128 F10200.000
G1 E2.00000 F2400.00000
G1 F1800
G1 X171.944 Y71.128 E13.29587
G1 X179.484 Y78.668 E14.26567
G1 X179.484 Y121.332 E18.14573
G1 X171.944 Y128.872 E19.11553
G1 X47.740 Y128.872 E30.41141
G1 X47.579 Y128.973 E30.42867
G1 X39.521 Y145.896 E32.13330
G1 X33.224 Y149.872 E32.81060
G1 X19.168 Y149.872 E34.08887
G1 X11.628 Y142.332 E35.05867
G1 X11.628 Y57.668 E42.75845
G1 X19.168 Y50.128 E43.72825
G1 X33.224 Y50.128 E45.00653
G1 X39.521 Y54.104 E45.68382
G1 X47.579 Y71.027 E47.38845
G1 X47.689 Y71.096 E47.40026
G1 X47.345 Y71.753 F10200.000
G1 F1800
G1 X171.685 Y71.753 E58.70848
G1 X178.859 Y78.927 E59.63119
G1 X178.859 Y121.073 E63.46416
G1 X171.685 Y128.247 E64.38687
G1 X47.345 Y128.247 E75.69509
G1 X47.184 Y128.348 E75.71236
G1 X39.034 Y145.464 E77.43643
G1 X33.043 Y149.247 E78.08084
G1 X19.427 Y149.247 E79.31913
G1 X12.253 Y142.073 E80.24184
G1 X12.253 Y57.927 E87.89453
G1 X19.427 Y50.753 E88.81724
G1 X33.043 Y50.753 E90.05553
G1 X39.034 Y54.536 E90.69994
G1 X47.184 Y71.652 E92.42402
G1 X47.294 Y71.721 E92.43583
G1 X46.950 Y72.378 F10200.000
G1 F1800
G1 X171.426 Y72.378 E103.75639
G1 X178.234 Y79.186 E104.63201
G1 X178.234 Y120.814 E108.41789
G1 X171.426 Y127.622 E109.29352
G1 X46.950 Y127.622 E120.61408
G1 X46.790 Y127.723 E120.63135
G1 X38.548 Y145.032 E122.37487
G1 X32.862 Y148.622 E122.98639
G1 X19.686 Y148.622 E124.18469
G1 X12.878 Y141.814 E125.06031
G1 X12.878 Y58.186 E132.66592
G1 X19.686 Y51.378 E133.54154
G1 X32.862 Y51.378 E134.73984
G1 X38.548 Y54.968 E135.35136
G1 X46.790 Y72.277 E137.09489
G1 X46.900 Y72.346 E137.10669
G1 X46.556 Y73.003 F10200.000
G1 F1800
G1 X171.168 Y73.003 E148.43960
G1 X177.609 Y79.445 E149.26814
G1 X177.609 Y120.555 E153.00693
G1 X171.168 Y126.997 E153.83546
G1 X46.556 Y126.997 E165.16837
G1 X46.395 Y127.098 E165.18564
G1 X38.061 Y144.600 E166.94861
G1 X32.681 Y147.997 E167.52725
G1 X19.945 Y147.997 E168.68556
G1 X13.503 Y141.555 E169.51409
G1 X13.503 Y58.445 E177.07261
G1 X19.945 Y52.003 E177.90114
G1 X32.681 Y52.003 E179.05945
G1 X38.061 Y55.400 E179.63809
G1 X46.395 Y72.902 E181.40106
G1 X46.505 Y72.971 E181.41287
G1 X46.161 Y73.628 F10200.000
G1 F1800
G1 X170.909 Y73.628 E192.75812
G1 X176.984 Y79.704 E193.53957
G1 X176.984 Y120.296 E197.23127
G1 X170.909 Y126.372 E198.01272
G1 X46.161 Y126.372 E209.35797
G1 X46.001 Y126.473 E209.37524
G1 X37.574 Y144.168 E211.15765
G1 X32.500 Y147.372 E211.70340
G1 X20.204 Y147.372 E212.82173
G1 X14.128 Y141.296 E213.60317
G1 X14.128 Y58.704 E221.11460
G1 X20.204 Y52.628 E221.89604
G1 X32.500 Y52.628 E223.01437
G1 X37.574 Y55.832 E223.56012
G1 X46.001 Y73.527 E225.34254
G1 X46.110 Y73.596 E225.35434
G1 X45.767 Y74.253 F10200.000
G1 F1800
G1 X170.650 Y74.253 E236.71194
G1 X176.359 Y79.963 E237.44630
G1 X176.359 Y120.037 E241.09092
G1 X170.650 Y125.747 E241.82527
G1 X45.767 Y125.747 E253.18287
G1 X45.606 Y125.848 E253.20014
G1 X37.088 Y143.736 E255.00200
G1 X32.320 Y146.747 E255.51486
G1 X20.463 Y146.747 E256.59320
G1 X14.753 Y141.037 E257.32756
G1 X14.753 Y58.963 E264.79190
G1 X20.463 Y53.253 E265.52625
G1 X32.320 Y53.253 E266.60459
G1 X37.088 Y56.264 E267.11745
G1 X45.606 Y74.152 E268.91932
G1 X45.716 Y74.221 E268.93113
G1 X45.372 Y74.878 F10200.000
G1 F1800
G1 X170.391 Y74.878 E280.30107
G1 X175.734 Y80.222 E280.98834
G1 X175.734 Y119.778 E284.58587
G1 X170.391 Y125.122 E285.27313
G1 X45.372 Y125.122 E296.64308
G1 X45.211 Y125.223 E296.66034
G1 X36.601 Y143.304 E298.48165
G1 X32.139 Y146.122 E298.96163
G1 X20.722 Y146.122 E299.99998
G1 X15.378 Y140.778 E300.68725
G1 X15.378 Y59.222 E308.10450
G1 X20.722 Y53.878 E308.79176
G1 X32.139 Y53.878 E309.83012
G1 X36.601 Y56.696 E310.31009
G1 X45.211 Y74.777 E312.13140
G1 X45.321 Y74.846 E312.14321
G1 X44.977 Y75.503 F10200.000
G1 F1800
G1 X170.132 Y75.503 E323.52550
G1 X175.109 Y80.480 E324.16568
G1 X175.109 Y119.520 E327.71612
G1 X170.132 Y124.497 E328.35630
G1 X44.977 Y124.497 E339.73859
G1 X44.817 Y124.598 E339.75585
G1 X36.115 Y142.872 E341.59661
G1 X31.958 Y145.497 E342.04370
G1 X20.980 Y145.497 E343.04206
G1 X16.003 Y140.520 E343.68224
G1 X16.003 Y59.480 E351.05240
G1 X20.980 Y54.503 E351.69258
G1 X31.958 Y54.503 E352.69094
G1 X36.115 Y57.128 E353.13804
G1 X44.817 Y75.402 E354.97879
G1 X44.927 Y75.471 E354.99060
G1 X44.583 Y76.128 F10200.000
G1 F1800
G1 X169.873 Y76.128 E366.38523
G1 X174.484 Y80.739 E366.97832
G1 X174.484 Y119.261 E370.48168
G1 X169.873 Y123.872 E371.07477
G1 X44.583 Y123.872 E382.46940
G1 X44.422 Y123.973 E382.48667
G1 X35.628 Y142.440 E384.34687
G1 X31.777 Y144.872 E384.76107
G1 X21.239 Y144.872 E385.71945
G1 X16.628 Y140.261 E386.31254
G1 X16.628 Y59.739 E393.63561
G1 X21.239 Y55.128 E394.22870
G1 X31.777 Y55.128 E395.18708
G1 X35.628 Y57.560 E395.60128
G1 X44.422 Y76.027 E397.46149
G1 X44.532 Y76.096 E397.47329
G1 X44.188 Y76.753 F10200.000
G1 F1800
G1 X169.614 Y76.753 E408.88027
G1 X173.859 Y80.998 E409.42627
G1 X173.859 Y119.002 E412.88254
G1 X169.614 Y123.247 E413.42854
G1 X44.188 Y123.247 E424.83552
G1 X44.027 Y123.348 E424.85278
G1 X35.142 Y142.008 E426.73243
G1 X31.596 Y144.247 E427.11375
G1 X21.498 Y144.247 E428.03214
G1 X17.253 Y140.002 E428.57814
G1 X17.253 Y59.998 E435.85412
G1 X21.498 Y55.753 E436.40013
G1 X31.596 Y55.753 E437.31852
G1 X35.142 Y57.992 E437.69984
G1 X44.027 Y76.652 E439.57948
G1 X44.137 Y76.721 E439.59129
G1 X43.793 Y77.378 F10200.000
G1 F1800
G1 X169.355 Y77.378 E451.01062
G1 X173.234 Y81.257 E451.50953
G1 X173.234 Y118.743 E454.91870
G1 X169.355 Y122.622 E455.41762
G1 X43.793 Y122.622 E466.83694
G1 X43.633 Y122.723 E466.85421
G1 X34.655 Y141.577 E468.75330
G1 X31.416 Y143.622 E469.10173
G1 X21.757 Y143.622 E469.98014
G1 X17.878 Y139.743 E470.47905
G1 X17.878 Y60.257 E477.70794
G1 X21.757 Y56.378 E478.20685
G1 X31.416 Y56.378 E479.08526
G1 X34.655 Y58.423 E479.43369
G1 X43.633 Y77.277 E481.33279
G1 X43.743 Y77.346 E481.34459
G1 X43.399 Y78.003 F10200.000
G1 F1800
G1 X169.097 Y78.003 E492.77626
G1 X172.609 Y81.516 E493.22809
G1 X172.609 Y118.484 E496.59017
G1 X169.097 Y121.997 E497.04200
G1 X43.399 Y121.997 E508.47367
G1 X43.238 Y122.098 E508.49093
G1 X34.169 Y141.145 E510.40947
G1 X31.235 Y142.997 E510.72502
G1 X22.016 Y142.997 E511.56344
G1 X18.503 Y139.484 E512.01526
G1 X18.503 Y60.516 E519.19706
G1 X22.016 Y57.003 E519.64889
G1 X31.235 Y57.003 E520.48730
G1 X34.169 Y58.855 E520.80285
G1 X43.238 Y77.902 E522.72139
G1 X43.348 Y77.971 E522.73320
G1 X43.004 Y78.628 F10200.000
G1 F1800
G1 X168.838 Y78.628 E534.17721
G1 X171.984 Y81.775 E534.58195
G1 X171.984 Y118.225 E537.89695
G1 X168.838 Y121.372 E538.30168
G1 X43.004 Y121.372 E549.74570
G1 X42.844 Y121.473 E549.76296
G1 X33.682 Y140.713 E551.70095
G1 X31.054 Y142.372 E551.98361
G1 X22.275 Y142.372 E552.78204
G1 X19.128 Y139.225 E553.18677
G1 X19.128 Y60.775 E560.32149
G1 X22.275 Y57.628 E560.72622
G1 X31.054 Y57.628 E561.52465
G1 X33.682 Y59.287 E561.80731
G1 X42.844 Y78.527 E563.74530
G1 X42.953 Y78.596 E563.75711
G1 X42.610 Y79.253 F10200.000
G1 F1800
G1 X168.579 Y79.253 E575.21347
G1 X171.359 Y82.034 E575.57112
G1 X171.359 Y117.966 E578.83902
G1 X168.579 Y120.747 E579.19667
G1 X42.610 Y120.747 E590.65303
G1 X42.449 Y120.848 E590.67030
G1 X33.195 Y140.281 E592.62773
G1 X30.873 Y141.747 E592.87751
G1 X22.534 Y141.747 E593.63595
G1 X19.753 Y138.966 E593.99359
G1 X19.753 Y61.034 E601.08122
G1 X22.534 Y58.253 E601.43887
G1 X30.873 Y58.253 E602.19731
G1 X33.195 Y59.719 E602.44708
G1 X42.449 Y79.152 E604.40452
G1 X42.559 Y79.221 E604.41632
G1 X42.215 Y79.878 F10200.000
G1 F1800
G1 X168.320 Y79.878 E615.88503
G1 X170.734 Y82.293 E616.19559
G1 X170.734 Y117.707 E619.41641
G1 X168.320 Y120.122 E619.72696
G1 X42.215 Y120.122 E631.19567
G1 X42.054 Y120.223 E631.21293
G1 X32.709 Y139.849 E633.18982
G1 X30.692 Y141.122 E633.40670
G1 X22.793 Y141.122 E634.12516
G1 X20.378 Y138.707 E634.43571
G1 X20.378 Y61.293 E641.47625
G1 X22.793 Y58.878 E641.78681
G1 X30.692 Y58.878 E642.50526
G1 X32.709 Y60.151 E642.72215
G1 X42.054 Y79.777 E644.69903
G1 X42.164 Y79.846 E644.71084
G1 X41.820 Y80.503 F10200.000
G1 F1800
G1 X168.061 Y80.503 E656.19189
G1 X170.109 Y82.552 E656.45536
G1 X170.109 Y117.448 E659.62909
G1 X168.061 Y119.497 E659.89256
G1 X41.820 Y119.497 E671.37361
G1 X41.660 Y119.598 E671.39088
G1 X32.222 Y139.417 E673.38720
G1 X30.512 Y140.497 E673.57121
G1 X23.052 Y140.497 E674.24967
G1 X21.003 Y138.448 E674.51314
G1 X21.003 Y61.552 E681.50659
G1 X23.052 Y59.503 E681.77006
G1 X30.512 Y59.503 E682.44853
G1 X32.222 Y60.583 E682.63253
G1 X41.660 Y80.402 E684.62886
G1 X41.770 Y80.471 E684.64066
G1 X41.426 Y81.128 F10200.000
G1 F1800
G1 X167.802 Y81.128 E696.13406
G1 X169.484 Y82.810 E696.35044
G1 X169.484 Y117.190 E699.47708
G1 X167.802 Y118.872 E699.69346
G1 X41.426 Y118.872 E711.18686
G1 X41.265 Y118.973 E711.20412
G1 X31.736 Y138.985 E713.21990
G1 X30.331 Y139.872 E713.37101
G1 X23.310 Y139.872 E714.00949
G1 X21.628 Y138.190 E714.22587
G1 X21.628 Y61.810 E721.17223
G1 X23.310 Y60.128 E721.38861
G1 X30.331 Y60.128 E722.02709
G1 X31.736 Y61.015 E722.17821
G1 X41.265 Y81.027 E724.19398
G1 X41.375 Y81.096 E724.20579
G1 X41.031 Y81.753 F10200.000
G1 F1800
G1 X167.543 Y81.753 E735.71153
G1 X168.859 Y83.069 E735.88082
G1 X168.859 Y116.931 E738.96038
G1 X167.543 Y118.247 E739.12967
G1 X41.031 Y118.247 E750.63541
G1 X40.870 Y118.348 E750.65267
G1 X31.249 Y138.553 E752.68789
G1 X30.150 Y139.247 E752.80613
G1 X23.569 Y139.247 E753.40462
G1 X22.253 Y137.931 E753.57391
G1 X22.253 Y62.069 E760.47318
G1 X23.569 Y60.753 E760.64247
G1 X30.150 Y60.753 E761.24096
G1 X31.249 Y61.447 E761.35919
G1 X40.870 Y81.652 E763.39441
G1 X40.980 Y81.721 E763.40622
G1 X40.636 Y82.378 F10200.000
G1 F1800
G1 X167.284 Y82.378 E774.92431
G1 X168.234 Y83.328 E775.04651
G1 X168.234 Y116.672 E778.07898
G1 X167.284 Y117.622 E778.20118
G1 X40.636 Y117.622 E789.71926
G1 X40.476 Y117.723 E789.73653
G1 X30.763 Y138.121 E791.79120
G1 X29.969 Y138.622 E791.87654
G1 X23.828 Y138.622 E792.43504
G1 X22.878 Y137.672 E792.55725
G1 X22.878 Y62.328 E799.40943
G1 X23.828 Y61.378 E799.53163
G1 X29.969 Y61.378 E800.09014
G1 X30.763 Y61.879 E800.17548
G1 X40.476 Y82.277 E802.23015
G1 X40.586 Y82.346 E802.24196
G1 X40.242 Y83.003 F10200.000
G1 F1800
G1 X167.025 Y83.003 E813.77239
G1 X167.609 Y83.587 E813.84750
G1 X167.609 Y116.413 E816.83288
G1 X167.025 Y116.997 E816.90799
G1 X40.242 Y116.997 E828.43842
G1 X40.081 Y117.098 E828.45569
G1 X30.276 Y137.689 E830.52980
G1 X29.788 Y137.997 E830.58226
G1 X24.087 Y137.997 E831.10077
G1 X23.503 Y137.413 E831.17589
G1 X23.503 Y62.587 E837.98098
G1 X24.087 Y62.003 E838.05610
G1 X29.788 Y62.003 E838.57461
G1 X30.276 Y62.311 E838.62707
G1 X40.081 Y82.902 E840.70119
G1 X40.191 Y82.971 E840.71299
G1 X39.847 Y83.628 F10200.000
G1 F1800
G1 X166.767 Y83.628 E852.25577
G1 X166.984 Y83.846 E852.28380
G1 X166.984 Y116.154 E855.22208
G1 X166.767 Y116.372 E855.25011
G1 X39.847 Y116.372 E866.79289
G1 X39.687 Y116.473 E866.81015
G1 X29.790 Y137.257 E868.90371
G1 X29.608 Y137.372 E868.92328
G1 X24.346 Y137.372 E869.40181
G1 X24.128 Y137.154 E869.42984
G1 X24.128 Y62.846 E876.18784
G1 X24.346 Y62.628 E876.21587
G1 X29.608 Y62.628 E876.69440
G1 X29.790 Y62.743 E876.71397
G1 X39.687 Y83.527 E878.80753
G1 X39.796 Y83.596 E878.81934
G1 E876.81934 F2400.00000
G92 E0
G1 X39.279 Y115.650 F10200.000
G1 E2.00000 F2400.00000
G1 F1800
G1 X29.279 Y136.650 E4.11497
G1 X24.850 Y136.650 E4.51770
G1 X24.850 Y63.350 E11.18283
G1 X29.279 Y63.350 E11.58556
G1 X39.279 Y84.350 E13.70053
G1 X166.262 Y84.350 E25.24709
G1 X166.262 Y115.650 E28.09318
G1 X39.339 Y115.650 E39.63428
G1 X38.888 Y115.564 F10200.000
G1 X38.884 Y115.025 F10200.000
G1 F1800
G1 X28.884 Y136.025 E41.74925
G1 X25.475 Y136.025 E42.05928
G1 X25.475 Y63.975 E48.61078
G1 X28.884 Y63.975 E48.92081
G1 X38.884 Y84.975 E51.03577
G1 X165.638 Y84.975 E62.56138
G1 X165.638 Y88.101 E62.84567
G1 X165.336 Y88.161 E62.87365
G1 X165.117 Y87.633 E62.92562
G1 X164.693 Y87.081 E62.98896
G1 X164.120 Y86.634 E63.05502
G1 X163.457 Y86.360 E63.12023
G1 X162.750 Y86.267 E63.18511
G1 X162.059 Y86.358 E63.24845
G1 X161.386 Y86.631 E63.31450
G1 X160.817 Y87.067 E63.37971
G1 X160.383 Y87.633 E63.44460
G1 X160.110 Y88.293 E63.50948
G1 X160.017 Y89.000 E63.57436
G1 X160.110 Y89.707 E63.63923
G1 X160.383 Y90.367 E63.70412
G1 X160.817 Y90.933 E63.76900
G1 X161.383 Y91.367 E63.83388
G1 X162.043 Y91.640 E63.89876
G1 X162.750 Y91.733 E63.96365
G1 X163.461 Y91.640 E64.02886
G1 X164.130 Y91.357 E64.09491
G1 X164.683 Y90.933 E64.15825
G1 X165.117 Y90.367 E64.22313
G1 X165.336 Y89.839 E64.27510
G1 X165.638 Y89.899 E64.30308
G1 X165.638 Y110.101 E66.14011
G1 X165.336 Y110.161 E66.16809
G1 X165.117 Y109.633 E66.22006
G1 X164.683 Y109.067 E66.28494
G1 X164.117 Y108.633 E66.34982
G1 X163.457 Y108.360 E66.41470
G1 X162.750 Y108.267 E66.47958
G1 X162.059 Y108.358 E66.54292
G1 X161.386 Y108.631 E66.60897
G1 X160.817 Y109.067 E66.67419
G1 X160.383 Y109.633 E66.73907
G1 X160.110 Y110.293 E66.80395
G1 X160.017 Y111.000 E66.86883
G1 X160.110 Y111.707 E66.93371
G1 X160.383 Y112.367 E66.99859
G1 X160.817 Y112.933 E67.06348
G1 X161.383 Y113.367 E67.12836
G1 X162.043 Y113.640 E67.19324
G1 X162.750 Y113.733 E67.25812
G1 X163.461 Y113.640 E67.32333
G1 X164.130 Y113.357 E67.38939
G1 X164.683 Y112.933 E67.45272
G1 X165.119 Y112.364 E67.51794
G1 X165.334 Y111.833 E67.56998
G1 X165.638 Y111.892 E67.59807
G1 X165.638 Y115.025 E67.88292
G1 X38.944 Y115.025 E79.40307
G1 E77.40307 F2400.00000
G92 E0
G1 X163.977 Y114.100 F10200.000
G1 E2.00000 F2400.00000
G1 F1800
G1 X164.447 Y113.901 E2.04637
G1 X165.013 Y113.467 E2.11120
G1 X165.013 Y114.400 E2.19604
G1 X164.038 Y114.400 E2.28464
G1 X163.989 Y114.159 E2.30706
G1 E0.30706 F2400.00000
G92 E0
G1 X165.013 Y86.538 F10200.000
G1 E2.00000 F2400.00000
G1 F1800
G1 X164.437 Y86.089 E2.06633
G1 X163.984 Y85.902 E2.11094
G1 X164.044 Y85.600 E2.13892
G1 X165.013 Y85.600 E2.22700
G1 X165.013 Y86.478 E2.30682
G1 E0.30682 F2400.00000
G92 E0
G1 X38.490 Y85.600 F10200.000
G1 E2.00000 F2400.00000
G1 F1800
G1 X161.459 Y85.600 E13.18151
G1 X161.518 Y85.903 E13.20959
G1 X161.073 Y86.083 E13.25325
G1 X160.372 Y86.622 E13.33364
G1 X159.837 Y87.318 E13.41349
G1 X159.501 Y88.129 E13.49333
G1 X159.386 Y89.000 E13.57317
G1 X159.501 Y89.870 E13.65300
G1 X159.837 Y90.682 E13.73285
G1 X160.372 Y91.378 E13.81270
G1 X161.068 Y91.913 E13.89254
G1 X161.879 Y92.249 E13.97238
G1 X162.750 Y92.364 E14.05223
G1 X163.626 Y92.248 E14.13261
G1 X164.447 Y91.901 E14.21363
G1 X165.013 Y91.467 E14.27845
G1 X165.013 Y108.533 E15.83023
G1 X164.432 Y108.087 E15.89681
G1 X163.620 Y107.751 E15.97666
G1 X162.750 Y107.636 E16.05649
G1 X161.899 Y107.749 E16.13458
G1 X161.073 Y108.083 E16.21559
G1 X160.372 Y108.622 E16.29598
G1 X159.837 Y109.318 E16.37583
G1 X159.501 Y110.129 E16.45567
G1 X159.386 Y111.000 E16.53551
G1 X159.501 Y111.870 E16.61535
G1 X159.837 Y112.682 E16.69519
G1 X160.372 Y113.378 E16.77504
G1 X161.068 Y113.913 E16.85488
G1 X161.516 Y114.098 E16.89896
G1 X161.456 Y114.400 E16.92694
G1 X38.490 Y114.400 E28.10820
G1 X28.490 Y135.400 E30.22317
G1 X26.100 Y135.400 E30.44050
G1 X26.100 Y64.600 E36.87835
G1 X28.490 Y64.600 E37.09569
G1 X38.464 Y85.546 E39.20520
G1 X38.095 Y86.225 F10200.000
G1 F1800
G1 X159.888 Y86.225 E50.27979
G1 X159.291 Y87.003 E50.36902
G1 X158.892 Y87.966 E50.46381
G1 X158.756 Y89.000 E50.55862
