(G-CODE GENERATED BY FLATCAM v8.994 - www.flatcam.org - Version Date: 2020/11/7)

(Name: G4_Controller_Board-B_Cu.gbr_edit_iso_combined_cnc)
(Type: G-code from Geometry)
(Units: MM)

(Created on Monday, 19 June 2023 at 20:51)

(This preprocessor is the default preprocessor used by FlatCAM.)
(It is made to work with MACH3 compatible motion controllers.)

(TOOL DIAMETER: 0.2388 mm)
(Feedrate_XY: 120.0 mm/min)
(Feedrate_Z: 60.0 mm/min)
(Feedrate rapids 1500.0 mm/min)

(Z_Cut: -0.11 mm)
(Z_Move: 2.0 mm)
(Z Start: None mm)
(Z End: 5.0 mm)
(X,Y End: None mm)
(Steps per circle: 64)
(Preprocessor Geometry: default)

(X range:  -59.0234 ...    0.6649  mm)
(Y range:   -0.6749 ...   39.7749  mm)

(Spindle Speed: 0.0 RPM)
G21
G90
G94

G01 F120.00

M5
G00 Z15.0000
G00 X0.0000 Y0.0000
T1
M6    
(MSG, Change to Tool Dia = 0.2388)
M0
G00 Z15.0000

M03
G01 F120.00
G00 X-2.0619 Y3.6230
G01 F60.00
G01 Z-0.1100
G01 F120.00
G01 X-2.0978 Y3.5633
G01 X-2.1118 Y3.5424
G01 X-2.1691 Y3.4649
G01 X-2.1839 Y3.4459
G01 X-2.1916 Y3.4366
G01 X-2.2570 Y3.3642
G01 X-2.2744 Y3.3459
G01 X-2.2927 Y3.3285
G01 X-2.3651 Y3.2631
G01 X-2.3744 Y3.2554
G01 X-2.3934 Y3.2406
G01 X-2.4709 Y3.1833
G01 X-2.4815 Y3.1761
G01 X-2.5023 Y3.1629
G01 X-2.5739 Y3.1200
G01 X-2.5966 Y3.1071
G01 X-2.6082 Y3.1012
G01 X-2.6937 Y3.0606
G01 X-2.7164 Y3.0505
G01 X-2.7439 Y3.0400
G01 X-2.7164 Y3.0295
G01 X-2.6937 Y3.0194
G01 X-2.6082 Y2.9788
G01 X-2.5851 Y2.9666
G01 X-2.5739 Y2.9600
G01 X-2.5023 Y2.9171
G01 X-2.4815 Y2.9039
G01 X-2.4709 Y2.8967
G01 X-2.3934 Y2.8394
G01 X-2.3744 Y2.8246
G01 X-2.3651 Y2.8169
G01 X-2.2927 Y2.7515
G01 X-2.2744 Y2.7341
G01 X-2.2570 Y2.7158
G01 X-2.1916 Y2.6434
G01 X-2.1839 Y2.6341
G01 X-2.1691 Y2.6151
G01 X-2.1118 Y2.5376
G01 X-2.0978 Y2.5167
G01 X-2.0619 Y2.4570
G01 X-2.0619 Y2.6200
G01 X-2.0613 Y2.6453
G01 X-2.0594 Y2.6704
G01 X-2.0563 Y2.6955
G01 X-2.0543 Y2.7080
G01 X-2.0494 Y2.7328
G01 X-2.0432 Y2.7573
G01 X-2.0397 Y2.7694
G01 X-2.0359 Y2.7814
G01 X-2.0274 Y2.8052
G01 X-2.0227 Y2.8169
G01 X-2.0124 Y2.8400
G01 X-2.0069 Y2.8512
G01 X-1.9950 Y2.8734
G01 X-1.9821 Y2.8949
G01 X-1.9752 Y2.9055
G01 X-1.9608 Y2.9260
G01 X-1.9531 Y2.9360
G01 X-1.9453 Y2.9458
G01 X-1.9289 Y2.9648
G01 X-1.9203 Y2.9740
G01 X-1.9025 Y2.9918
G01 X-1.8839 Y3.0087
G01 X-1.8743 Y3.0168
G01 X-1.8545 Y3.0323
G01 X-1.8438 Y3.0400
G01 X-1.8545 Y3.0477
G01 X-1.8743 Y3.0632
G01 X-1.8839 Y3.0713
G01 X-1.9025 Y3.0882
G01 X-1.9203 Y3.1060
G01 X-1.9289 Y3.1152
G01 X-1.9453 Y3.1342
G01 X-1.9531 Y3.1440
G01 X-1.9608 Y3.1540
G01 X-1.9752 Y3.1745
G01 X-1.9821 Y3.1851
G01 X-1.9950 Y3.2066
G01 X-2.0069 Y3.2288
G01 X-2.0124 Y3.2400
G01 X-2.0227 Y3.2631
G01 X-2.0274 Y3.2748
G01 X-2.0359 Y3.2986
G01 X-2.0397 Y3.3106
G01 X-2.0465 Y3.3350
G01 X-2.0494 Y3.3472
G01 X-2.0543 Y3.3720
G01 X-2.0563 Y3.3845
G01 X-2.0594 Y3.4096
G01 X-2.0613 Y3.4347
G01 X-2.0619 Y3.4600
G01 X-2.0619 Y3.6230
G00 Z2.0000
G00 X-2.0619 Y6.1630
G01 F60.00
G01 Z-0.1100
G01 F120.00
G01 X-2.0978 Y6.1033
G01 X-2.1118 Y6.0824
G01 X-2.1691 Y6.0049
G01 X-2.1839 Y5.9859
G01 X-2.1916 Y5.9766
G01 X-2.2570 Y5.9042
G01 X-2.2744 Y5.8859
G01 X-2.2927 Y5.8685
G01 X-2.3651 Y5.8031
G01 X-2.3744 Y5.7954
G01 X-2.3934 Y5.7806
G01 X-2.4709 Y5.7233
G01 X-2.4815 Y5.7161
G01 X-2.5023 Y5.7029
G01 X-2.5739 Y5.6600
G01 X-2.5966 Y5.6471
G01 X-2.6082 Y5.6412
G01 X-2.6937 Y5.6006
G01 X-2.7164 Y5.5905
G01 X-2.7439 Y5.5800
G01 X-2.7164 Y5.5695
G01 X-2.6937 Y5.5594
G01 X-2.6082 Y5.5188
G01 X-2.5851 Y5.5066
G01 X-2.5739 Y5.5000
G01 X-2.5023 Y5.4571
G01 X-2.4815 Y5.4439
G01 X-2.4709 Y5.4367
G01 X-2.3934 Y5.3794
G01 X-2.3744 Y5.3646
G01 X-2.3651 Y5.3569
G01 X-2.2927 Y5.2915
G01 X-2.2744 Y5.2741
G01 X-2.2570 Y5.2558
G01 X-2.1916 Y5.1834
G01 X-2.1839 Y5.1741
G01 X-2.1691 Y5.1551
G01 X-2.1118 Y5.0776
G01 X-2.0978 Y5.0567
G01 X-2.0619 Y4.9970
G01 X-2.0619 Y5.1600
G01 X-2.0613 Y5.1853
G01 X-2.0594 Y5.2104
G01 X-2.0563 Y5.2355
G01 X-2.0543 Y5.2480
G01 X-2.0494 Y5.2728
G01 X-2.0465 Y5.2850
G01 X-2.0432 Y5.2973
G01 X-2.0359 Y5.3214
G01 X-2.0274 Y5.3452
G01 X-2.0227 Y5.3569
G01 X-2.0124 Y5.3800
G01 X-2.0069 Y5.3912
G01 X-1.9950 Y5.4134
G01 X-1.9821 Y5.4349
G01 X-1.9752 Y5.4455
G01 X-1.9681 Y5.4558
G01 X-1.9531 Y5.4760
G01 X-1.9372 Y5.4954
G01 X-1.9289 Y5.5048
G01 X-1.9203 Y5.5141
G01 X-1.9025 Y5.5318
G01 X-1.8933 Y5.5404
G01 X-1.8743 Y5.5568
G01 X-1.8545 Y5.5723
G01 X-1.8438 Y5.5800
G01 X-1.8545 Y5.5877
G01 X-1.8743 Y5.6032
G01 X-1.8839 Y5.6113
G01 X-1.9025 Y5.6282
G01 X-1.9115 Y5.6370
G01 X-1.9289 Y5.6552
G01 X-1.9372 Y5.6646
G01 X-1.9531 Y5.6840
G01 X-1.9681 Y5.7042
G01 X-1.9752 Y5.7145
G01 X-1.9821 Y5.7251
G01 X-1.9950 Y5.7466
G01 X-2.0011 Y5.7576
G01 X-2.0124 Y5.7800
G01 X-2.0227 Y5.8031
G01 X-2.0274 Y5.8148
G01 X-2.0359 Y5.8386
G01 X-2.0397 Y5.8506
G01 X-2.0432 Y5.8627
G01 X-2.0494 Y5.8872
G01 X-2.0520 Y5.8996
G01 X-2.0563 Y5.9245
G01 X-2.0594 Y5.9496
G01 X-2.0613 Y5.9747
G01 X-2.0619 Y6.0000
G01 X-2.0619 Y6.1630
G00 Z2.0000
G00 X-2.1226 Y7.3699
G01 F60.00
G01 Z-0.1100
G01 F120.00
G01 X-2.1041 Y7.3305
G01 X-2.0968 Y7.3129
G01 X-2.0621 Y7.2160
G01 X-2.0545 Y7.1896
G01 X-2.0319 Y7.0987
G01 X-2.0269 Y7.0719
G01 X-2.0146 Y6.9894
G01 X-2.0124 Y6.9713
G01 X-2.0110 Y6.9521
G01 X-2.0065 Y6.8594
G01 X-2.0069 Y6.8313
G01 X-2.0110 Y6.7479
G01 X-2.0124 Y6.7287
G01 X-2.0146 Y6.7106
G01 X-2.0269 Y6.6281
G01 X-2.0300 Y6.6102
G01 X-2.0342 Y6.5913
G01 X-2.0545 Y6.5104
G01 X-2.0591 Y6.4935
G01 X-2.0654 Y6.4745
G01 X-2.0935 Y6.3960
G01 X-2.1041 Y6.3695
G01 X-2.1435 Y6.2860
G01 X-2.1563 Y6.2613
G01 X-2.2088 Y6.1735
G01 X-2.2249 Y6.1502
G01 X-2.2746 Y6.0832
G01 X-2.2856 Y6.0690
G01 X-2.2983 Y6.0542
G01 X-2.3544 Y5.9924
G01 X-2.3740 Y5.9722
G01 X-2.4427 Y5.9098
G01 X-2.4575 Y5.8971
G01 X-2.4717 Y5.8861
G01 X-2.5387 Y5.8364
G01 X-2.5543 Y5.8253
G01 X-2.5698 Y5.8155
G01 X-2.6414 Y5.7726
G01 X-2.6583 Y5.7631
G01 X-2.6745 Y5.7550
G01 X-2.7499 Y5.7193
G01 X-2.7668 Y5.7118
G01 X-2.7845 Y5.7050
G01 X-2.8630 Y5.6769
G01 X-2.8904 Y5.6682
G01 X-2.9798 Y5.6457
G01 X-2.9987 Y5.6415
G01 X-3.0166 Y5.6384
G01 X-3.0991 Y5.6261
G01 X-3.1172 Y5.6239
G01 X-3.1364 Y5.6225
G01 X-3.2198 Y5.6184
G01 X-3.2385 Y5.6179
G01 X-3.2572 Y5.6184
G01 X-3.3406 Y5.6225
G01 X-3.3598 Y5.6239
G01 X-3.3779 Y5.6261
G01 X-3.4604 Y5.6384
G01 X-3.4783 Y5.6415
G01 X-3.4972 Y5.6457
G01 X-3.5781 Y5.6660
G01 X-3.6045 Y5.6736
G01 X-3.6925 Y5.7050
G01 X-3.7102 Y5.7118
G01 X-3.7271 Y5.7193
G01 X-3.8025 Y5.7550
G01 X-3.8187 Y5.7631
G01 X-3.8356 Y5.7726
G01 X-3.9072 Y5.8155
G01 X-3.9306 Y5.8308
G01 X-4.0053 Y5.8861
G01 X-4.0195 Y5.8971
G01 X-4.0343 Y5.9098
G01 X-4.1030 Y5.9722
G01 X-4.1226 Y5.9924
G01 X-4.1857 Y6.0621
G01 X-4.1970 Y6.0760
G01 X-4.2170 Y6.1027
G01 X-7.3150 Y6.1027
G01 X-7.3350 Y6.0760
G01 X-7.3463 Y6.0621
G01 X-7.4157 Y5.9855
G01 X-7.4359 Y5.9659
G01 X-7.4977 Y5.9098
G01 X-7.5195 Y5.8915
G01 X-7.5937 Y5.8364
G01 X-7.6093 Y5.8253
G01 X-7.6248 Y5.8155
G01 X-7.6964 Y5.7726
G01 X-7.7219 Y5.7586
G01 X-7.8130 Y5.7156
G01 X-7.8395 Y5.7050
G01 X-7.9180 Y5.6769
G01 X-7.9370 Y5.6706
G01 X-7.9539 Y5.6660
G01 X-8.0348 Y5.6457
G01 X-8.0537 Y5.6415
G01 X-8.0716 Y5.6384
G01 X-8.1541 Y5.6261
G01 X-8.1722 Y5.6239
G01 X-8.1914 Y5.6225
G01 X-8.2748 Y5.6184
G01 X-8.3029 Y5.6180
G01 X-8.4052 Y5.6231
G01 X-8.4329 Y5.6261
G01 X-8.5154 Y5.6384
G01 X-8.5333 Y5.6415
G01 X-8.5522 Y5.6457
G01 X-8.6331 Y5.6660
G01 X-8.6500 Y5.6706
G01 X-8.6690 Y5.6769
G01 X-8.7475 Y5.7050
G01 X-8.7652 Y5.7118
G01 X-8.7821 Y5.7193
G01 X-8.8575 Y5.7550
G01 X-8.8822 Y5.7678
G01 X-8.9622 Y5.8155
G01 X-8.9777 Y5.8253
G01 X-8.9933 Y5.8364
G01 X-9.0603 Y5.8861
G01 X-9.0814 Y5.9028
G01 X-9.1511 Y5.9659
G01 X-9.1713 Y5.9855
G01 X-9.2407 Y6.0621
G01 X-9.2520 Y6.0760
G01 X-9.2720 Y6.1027
G01 X-12.7829 Y6.1028
G01 X-12.8290 Y6.1050
G01 X-12.8483 Y6.1064
G01 X-12.8663 Y6.1087
G01 X-12.9028 Y6.1141
G01 X-12.9296 Y6.1190
G01 X-12.9752 Y6.1303
G01 X-13.0017 Y6.1380
G01 X-13.0547 Y6.1569
G01 X-13.0804 Y6.1680
G01 X-13.1212 Y6.1874
G01 X-13.1384 Y6.1965
G01 X-13.1862 Y6.2251
G01 X-13.2018 Y6.2355
G01 X-13.2391 Y6.2631
G01 X-13.2533 Y6.2741
G01 X-13.2681 Y6.2869
G01 X-13.2954 Y6.3116
G01 X-13.3090 Y6.3245
G01 X-16.2522 Y9.2677
G01 X-22.9235 Y9.2677
G01 X-22.9422 Y9.2682
G01 X-22.9887 Y9.2706
G01 X-23.0163 Y9.2737
G01 X-23.0617 Y9.2805
G01 X-23.0796 Y9.2840
G01 X-23.1252 Y9.2953
G01 X-23.1422 Y9.3000
G01 X-23.1611 Y9.3062
G01 X-23.1958 Y9.3186
G01 X-23.2223 Y9.3292
G01 X-23.2637 Y9.3487
G01 X-23.2799 Y9.3568
G01 X-23.2968 Y9.3664
G01 X-23.3284 Y9.3853
G01 X-23.3518 Y9.4005
G01 X-23.3891 Y9.4281
G01 X-23.4033 Y9.4391
G01 X-23.4181 Y9.4519
G01 X-23.4523 Y9.4830
G01 X-23.8722 Y9.9027
G01 X-24.9392 Y9.9027
G01 X-24.9470 Y9.8904
G01 X-24.9581 Y9.8747
G01 X-25.0165 Y9.7959
G01 X-25.0275 Y9.7817
G01 X-25.0403 Y9.7669
G01 X-25.1062 Y9.6942
G01 X-25.1191 Y9.6806
G01 X-25.1327 Y9.6677
G01 X-25.2134 Y9.5948
G01 X-25.2344 Y9.5780
G01 X-25.3132 Y9.5196
G01 X-25.3289 Y9.5085
G01 X-25.3444 Y9.4987
G01 X-25.4286 Y9.4483
G01 X-25.4455 Y9.4387
G01 X-25.4617 Y9.4306
G01 X-25.5507 Y9.3885
G01 X-25.4637 Y9.3473
G01 X-25.4476 Y9.3392
G01 X-25.4307 Y9.3296
G01 X-25.3465 Y9.2792
G01 X-25.3310 Y9.2694
G01 X-25.3153 Y9.2584
G01 X-25.2365 Y9.1999
G01 X-25.2155 Y9.1831
G01 X-25.1348 Y9.1102
G01 X-25.1212 Y9.0973
G01 X-25.1083 Y9.0837
G01 X-25.0424 Y9.0110
G01 X-25.0296 Y8.9962
G01 X-25.0186 Y8.9820
G01 X-24.9601 Y8.9032
G01 X-24.9491 Y8.8875
G01 X-24.9426 Y8.8773
G01 X-17.2085 Y8.8773
G01 X-17.1898 Y8.8768
G01 X-17.1530 Y8.8750
G01 X-17.1337 Y8.8736
G01 X-17.1157 Y8.8713
G01 X-17.0703 Y8.8645
G01 X-17.0524 Y8.8610
G01 X-17.0068 Y8.8497
G01 X-16.9898 Y8.8450
G01 X-16.9709 Y8.8388
G01 X-16.9273 Y8.8231
G01 X-16.9016 Y8.8120
G01 X-16.8683 Y8.7963
G01 X-16.8521 Y8.7882
G01 X-16.8352 Y8.7786
G01 X-16.8036 Y8.7597
G01 X-16.7802 Y8.7445
G01 X-16.7357 Y8.7115
G01 X-16.7139 Y8.6931
G01 X-16.6797 Y8.6620
G01 X-13.0948 Y5.0773
G01 X-9.2571 Y5.0773
G01 X-9.2464 Y5.0910
G01 X-9.2337 Y5.1058
G01 X-9.1776 Y5.1676
G01 X-9.1647 Y5.1812
G01 X-9.1511 Y5.1941
G01 X-9.0893 Y5.2502
G01 X-9.0745 Y5.2629
G01 X-9.0603 Y5.2739
G01 X-8.9933 Y5.3236
G01 X-8.9777 Y5.3347
G01 X-8.9622 Y5.3445
G01 X-8.8906 Y5.3874
G01 X-8.8737 Y5.3969
G01 X-8.8575 Y5.4050
G01 X-8.7821 Y5.4407
G01 X-8.7652 Y5.4482
G01 X-8.7475 Y5.4550
G01 X-8.6690 Y5.4831
G01 X-8.6416 Y5.4918
G01 X-8.5522 Y5.5143
G01 X-8.5333 Y5.5185
G01 X-8.5154 Y5.5216
G01 X-8.4329 Y5.5339
G01 X-8.4148 Y5.5361
G01 X-8.3956 Y5.5375
G01 X-8.3122 Y5.5416
G01 X-8.2935 Y5.5421
G01 X-8.2748 Y5.5416
G01 X-8.1914 Y5.5375
G01 X-8.1722 Y5.5361
G01 X-8.1541 Y5.5339
G01 X-8.0716 Y5.5216
G01 X-8.0537 Y5.5185
G01 X-8.0348 Y5.5143
G01 X-7.9454 Y5.4918
G01 X-7.9180 Y5.4831
G01 X-7.8395 Y5.4550
G01 X-7.8218 Y5.4482
G01 X-7.8049 Y5.4407
G01 X-7.7295 Y5.4050
G01 X-7.7133 Y5.3969
G01 X-7.6964 Y5.3874
G01 X-7.6248 Y5.3445
G01 X-7.6093 Y5.3347
G01 X-7.5937 Y5.3236
G01 X-7.5267 Y5.2739
G01 X-7.5125 Y5.2629
G01 X-7.4977 Y5.2502
G01 X-7.4359 Y5.1941
G01 X-7.4223 Y5.1812
G01 X-7.4094 Y5.1676
G01 X-7.3533 Y5.1058
G01 X-7.3406 Y5.0910
G01 X-7.3299 Y5.0773
G01 X-4.2021 Y5.0773
G01 X-4.1857 Y5.0979
G01 X-4.1226 Y5.1676
G01 X-4.1097 Y5.1812
G01 X-4.0961 Y5.1941
G01 X-4.0343 Y5.2502
G01 X-4.0195 Y5.2629
G01 X-4.0053 Y5.2739
G01 X-3.9383 Y5.3236
G01 X-3.9227 Y5.3347
G01 X-3.9072 Y5.3445
G01 X-3.8356 Y5.3874
G01 X-3.8187 Y5.3969
G01 X-3.8025 Y5.4050
G01 X-3.7271 Y5.4407
G01 X-3.7102 Y5.4482
G01 X-3.6925 Y5.4550
G01 X-3.6140 Y5.4831
G01 X-3.5950 Y5.4894
G01 X-3.5781 Y5.4940
G01 X-3.4972 Y5.5143
G01 X-3.4783 Y5.5185
G01 X-3.4604 Y5.5216
G01 X-3.3779 Y5.5339
G01 X-3.3598 Y5.5361
G01 X-3.3406 Y5.5375
G01 X-3.2572 Y5.5416
G01 X-3.2385 Y5.5421
G01 X-3.2198 Y5.5416
G01 X-3.1364 Y5.5375
G01 X-3.1172 Y5.5361
G01 X-3.0991 Y5.5339
G01 X-3.0166 Y5.5216
G01 X-2.9898 Y5.5166
G01 X-2.8989 Y5.4940
G01 X-2.8820 Y5.4894
G01 X-2.8630 Y5.4831
G01 X-2.7845 Y5.4550
G01 X-2.7668 Y5.4482
G01 X-2.7499 Y5.4407
G01 X-2.6669 Y5.4014
G01 X-2.6414 Y5.3874
G01 X-2.5698 Y5.3445
G01 X-2.5543 Y5.3347
G01 X-2.5387 Y5.3236
G01 X-2.4717 Y5.2739
G01 X-2.4575 Y5.2629
G01 X-2.4427 Y5.2502
G01 X-2.3809 Y5.1941
G01 X-2.3673 Y5.1812
G01 X-2.3544 Y5.1676
G01 X-2.2983 Y5.1058
G01 X-2.2856 Y5.0910
G01 X-2.2746 Y5.0768
G01 X-2.2249 Y5.0098
G01 X-2.2138 Y4.9942
G01 X-2.2040 Y4.9787
G01 X-2.1611 Y4.9071
G01 X-2.1471 Y4.8816
G01 X-2.1078 Y4.7986
G01 X-2.1003 Y4.7817
G01 X-2.0935 Y4.7640
G01 X-2.0621 Y4.6760
G01 X-2.0545 Y4.6496
G01 X-2.0342 Y4.5687
G01 X-2.0300 Y4.5498
G01 X-2.0269 Y4.5319
G01 X-2.0146 Y4.4494
G01 X-2.0124 Y4.4313
G01 X-2.0110 Y4.4121
G01 X-2.0069 Y4.3287
G01 X-2.0065 Y4.3006
G01 X-2.0110 Y4.2079
G01 X-2.0124 Y4.1887
G01 X-2.0146 Y4.1706
G01 X-2.0269 Y4.0881
G01 X-2.0300 Y4.0702
G01 X-2.0342 Y4.0513
G01 X-2.0545 Y3.9704
G01 X-2.0591 Y3.9535
G01 X-2.0654 Y3.9345
G01 X-2.0935 Y3.8560
G01 X-2.1003 Y3.8383
G01 X-2.1078 Y3.8214
G01 X-2.1435 Y3.7460
G01 X-2.1516 Y3.7298
G01 X-2.1611 Y3.7129
G01 X-2.2040 Y3.6413
G01 X-2.2138 Y3.6258
G01 X-2.2249 Y3.6102
G01 X-2.2746 Y3.5432
G01 X-2.2856 Y3.5290
G01 X-2.2983 Y3.5142
G01 X-2.3544 Y3.4524
G01 X-2.3673 Y3.4388
G01 X-2.3809 Y3.4259
G01 X-2.4427 Y3.3698
G01 X-2.4575 Y3.3571
G01 X-2.4717 Y3.3461
G01 X-2.5387 Y3.2964
G01 X-2.5543 Y3.2853
G01 X-2.5698 Y3.2755
G01 X-2.6414 Y3.2326
G01 X-2.6583 Y3.2231
G01 X-2.6745 Y3.2150
G01 X-2.7580 Y3.1756
G01 X-2.7845 Y3.1650
G01 X-2.8725 Y3.1336
G01 X-2.8989 Y3.1260
G01 X-2.9798 Y3.1057
G01 X-3.0076 Y3.0998
G01 X-3.0991 Y3.0861
G01 X-3.1172 Y3.0839
G01 X-3.1364 Y3.0825
G01 X-3.2198 Y3.0784
G01 X-3.2385 Y3.0779
G01 X-3.2572 Y3.0784
G01 X-3.3406 Y3.0825
G01 X-3.3598 Y3.0839
G01 X-3.3779 Y3.0861
G01 X-3.4604 Y3.0984
G01 X-3.4783 Y3.1015
G01 X-3.4972 Y3.1057
G01 X-3.5866 Y3.1282
G01 X-3.6140 Y3.1369
G01 X-3.6925 Y3.1650
G01 X-3.7102 Y3.1718
G01 X-3.7271 Y3.1793
G01 X-3.8025 Y3.2150
G01 X-3.8187 Y3.2231
G01 X-3.8356 Y3.2326
G01 X-3.9072 Y3.2755
G01 X-3.9306 Y3.2908
G01 X-4.0053 Y3.3461
G01 X-4.0195 Y3.3571
G01 X-4.0343 Y3.3698
G01 X-4.1030 Y3.4322
G01 X-4.1226 Y3.4524
G01 X-4.1857 Y3.5221
G01 X-4.1970 Y3.5360
G01 X-4.2170 Y3.5627
G01 X-7.3150 Y3.5627
G01 X-7.3350 Y3.5360
G01 X-7.3463 Y3.5221
G01 X-7.4157 Y3.4455
G01 X-7.4359 Y3.4259
G01 X-7.4977 Y3.3698
G01 X-7.5195 Y3.3515
G01 X-7.5937 Y3.2964
G01 X-7.6093 Y3.2853
G01 X-7.6248 Y3.2755
G01 X-7.6964 Y3.2326
G01 X-7.7219 Y3.2186
G01 X-7.8130 Y3.1756
G01 X-7.8395 Y3.1650
G01 X-7.9180 Y3.1369
G01 X-7.9370 Y3.1306
G01 X-7.9539 Y3.1260
G01 X-8.0348 Y3.1057
G01 X-8.0537 Y3.1015
G01 X-8.0716 Y3.0984
G01 X-8.1631 Y3.0849
G01 X-8.1914 Y3.0825
G01 X-8.2748 Y3.0784
G01 X-8.2935 Y3.0779
G01 X-8.3122 Y3.0784
G01 X-8.3956 Y3.0825
G01 X-8.4148 Y3.0839
G01 X-8.4329 Y3.0861
G01 X-8.5154 Y3.0984
G01 X-8.5333 Y3.1015
G01 X-8.5522 Y3.1057
G01 X-8.6331 Y3.1260
G01 X-8.6500 Y3.1306
G01 X-8.6690 Y3.1369
G01 X-8.7475 Y3.1650
G01 X-8.7652 Y3.1718
G01 X-8.7821 Y3.1793
G01 X-8.8575 Y3.2150
G01 X-8.8737 Y3.2231
G01 X-8.8906 Y3.2326
G01 X-8.9622 Y3.2755
G01 X-8.9777 Y3.2853
G01 X-8.9933 Y3.2964
G01 X-9.0603 Y3.3461
G01 X-9.0814 Y3.3628
G01 X-9.1511 Y3.4259
G01 X-9.1713 Y3.4455
G01 X-9.2407 Y3.5221
G01 X-9.2520 Y3.5360
G01 X-9.2720 Y3.5627
G01 X-13.4179 Y3.5628
G01 X-13.4640 Y3.5650
G01 X-13.4833 Y3.5664
G01 X-13.5013 Y3.5687
G01 X-13.5378 Y3.5741
G01 X-13.5646 Y3.5790
G01 X-13.6102 Y3.5903
G01 X-13.6367 Y3.5980
G01 X-13.6897 Y3.6169
G01 X-13.7154 Y3.6280
G01 X-13.7562 Y3.6474
G01 X-13.7734 Y3.6565
G01 X-13.8212 Y3.6851
G01 X-13.8368 Y3.6955
G01 X-13.8741 Y3.7231
G01 X-13.8883 Y3.7341
G01 X-13.9031 Y3.7469
G01 X-13.9304 Y3.7716
G01 X-13.9440 Y3.7845
G01 X-17.5222 Y7.3627
G01 X-24.9426 Y7.3627
G01 X-24.9491 Y7.3525
G01 X-24.9601 Y7.3368
G01 X-25.0186 Y7.2580
G01 X-25.0296 Y7.2438
G01 X-25.0424 Y7.2290
G01 X-25.1083 Y7.1563
G01 X-25.1212 Y7.1427
G01 X-25.1348 Y7.1298
G01 X-25.2155 Y7.0569
G01 X-25.2365 Y7.0401
G01 X-25.3153 Y6.9816
G01 X-25.3310 Y6.9706
G01 X-25.3465 Y6.9608
G01 X-25.4307 Y6.9104
G01 X-25.4476 Y6.9008
G01 X-25.4637 Y6.8927
G01 X-25.5540 Y6.8500
G01 X-25.4637 Y6.8073
G01 X-25.4476 Y6.7992
G01 X-25.4307 Y6.7896
G01 X-25.3465 Y6.7392
G01 X-25.3310 Y6.7294
G01 X-25.3153 Y6.7184
G01 X-25.2365 Y6.6599
G01 X-25.2223 Y6.6489
G01 X-25.2075 Y6.6361
G01 X-25.1348 Y6.5702
G01 X-25.1212 Y6.5573
G01 X-25.1083 Y6.5437
G01 X-25.0424 Y6.4710
G01 X-25.0296 Y6.4562
G01 X-25.0186 Y6.4420
G01 X-24.9601 Y6.3632
G01 X-24.9491 Y6.3475
G01 X-24.9393 Y6.3320
G01 X-24.8889 Y6.2478
G01 X-24.8793 Y6.2309
G01 X-24.8712 Y6.2148
G01 X-24.8285 Y6.1245
G01 X-24.7858 Y6.2148
G01 X-24.7777 Y6.2309
G01 X-24.7681 Y6.2478
G01 X-24.7177 Y6.3320
G01 X-24.7079 Y6.3475
G01 X-24.6969 Y6.3632
G01 X-24.6384 Y6.4420
G01 X-24.6274 Y6.4562
G01 X-24.6146 Y6.4710
G01 X-24.5487 Y6.5437
G01 X-24.5358 Y6.5573
G01 X-24.5222 Y6.5702
G01 X-24.4495 Y6.6361
G01 X-24.4347 Y6.6489
G01 X-24.4205 Y6.6599
G01 X-24.3417 Y6.7184
G01 X-24.3260 Y6.7294
G01 X-24.3105 Y6.7392
G01 X-24.2263 Y6.7896
G01 X-24.2094 Y6.7992
G01 X-24.1933 Y6.8073
G01 X-24.1045 Y6.8493
G01 X-24.0876 Y6.8568
G01 X-24.0699 Y6.8636
G01 X-23.9775 Y6.8967
G01 X-23.9586 Y6.9029
G01 X-23.9416 Y6.9076
G01 X-23.8464 Y6.9314
G01 X-23.8276 Y6.9356
G01 X-23.8097 Y6.9387
G01 X-23.7126 Y6.9531
G01 X-23.6945 Y6.9554
G01 X-23.6753 Y6.9568
G01 X-23.5679 Y6.9620
G01 X-23.5398 Y6.9616
G01 X-23.4417 Y6.9568
G01 X-23.4225 Y6.9554
G01 X-23.4044 Y6.9531
G01 X-23.3073 Y6.9387
G01 X-23.2894 Y6.9356
G01 X-23.2706 Y6.9314
G01 X-23.1754 Y6.9076
G01 X-23.1584 Y6.9029
G01 X-23.1395 Y6.8967
G01 X-23.0471 Y6.8636
G01 X-23.0294 Y6.8568
G01 X-23.0125 Y6.8493
G01 X-22.9237 Y6.8073
G01 X-22.9076 Y6.7992
G01 X-22.8907 Y6.7896
G01 X-22.8065 Y6.7392
G01 X-22.7910 Y6.7294
G01 X-22.7753 Y6.7184
G01 X-22.6965 Y6.6599
G01 X-22.6823 Y6.6489
G01 X-22.6675 Y6.6361
G01 X-22.5948 Y6.5702
G01 X-22.5812 Y6.5573
G01 X-22.5683 Y6.5437
G01 X-22.5024 Y6.4710
G01 X-22.4896 Y6.4562
G01 X-22.4786 Y6.4420
G01 X-22.4201 Y6.3632
G01 X-22.4091 Y6.3475
G01 X-22.4026 Y6.3373
G01 X-17.2085 Y6.3373
G01 X-17.1898 Y6.3368
G01 X-17.1530 Y6.3350
G01 X-17.1337 Y6.3336
G01 X-17.1157 Y6.3313
G01 X-17.0703 Y6.3245
G01 X-17.0524 Y6.3210
G01 X-17.0068 Y6.3097
G01 X-16.9898 Y6.3050
G01 X-16.9709 Y6.2988
G01 X-16.9273 Y6.2831
G01 X-16.9016 Y6.2720
G01 X-16.8683 Y6.2563
G01 X-16.8521 Y6.2482
G01 X-16.8352 Y6.2386
G01 X-16.8036 Y6.2197
G01 X-16.7802 Y6.2045
G01 X-16.7357 Y6.1715
G01 X-16.7139 Y6.1531
G01 X-16.6797 Y6.1220
G01 X-13.0948 Y2.5373
G01 X-9.5256 Y2.5373
G01 X-9.5256 Y2.6200
G01 X-9.5245 Y2.6482
G01 X-9.5227 Y2.6669
G01 X-9.5199 Y2.6855
G01 X-9.5163 Y2.7039
G01 X-9.5117 Y2.7221
G01 X-9.5062 Y2.7401
G01 X-9.4999 Y2.7578
G01 X-9.4926 Y2.7752
G01 X-9.4846 Y2.7921
G01 X-9.4758 Y2.8086
G01 X-9.4611 Y2.8324
G01 X-9.4503 Y2.8477
G01 X-9.4388 Y2.8625
G01 X-9.4266 Y2.8766
G01 X-9.4070 Y2.8967
G01 X-9.3931 Y2.9093
G01 X-9.3787 Y2.9211
G01 X-9.3637 Y2.9323
G01 X-9.3481 Y2.9427
G01 X-9.3321 Y2.9523
G01 X-9.3072 Y2.9652
G01 X-9.2813 Y2.9764
G01 X-9.2636 Y2.9827
G01 X-9.2456 Y2.9882
G01 X-9.2274 Y2.9928
G01 X-9.1997 Y2.9979
G01 X-9.1810 Y3.0002
G01 X-9.1623 Y3.0016
G01 X-9.1435 Y3.0021
G01 X-7.4435 Y3.0021
G01 X-7.4247 Y3.0016
G01 X-7.3966 Y2.9992
G01 X-7.3780 Y2.9964
G01 X-7.3596 Y2.9928
G01 X-7.3414 Y2.9882
G01 X-7.3234 Y2.9827
G01 X-7.2970 Y2.9729
G01 X-7.2798 Y2.9652
G01 X-7.2631 Y2.9568
G01 X-7.2469 Y2.9476
G01 X-7.2311 Y2.9376
G01 X-7.2158 Y2.9268
G01 X-7.2010 Y2.9153
G01 X-7.1869 Y2.9031
G01 X-7.1733 Y2.8902
G01 X-7.1604 Y2.8766
G01 X-7.1482 Y2.8625
G01 X-7.1367 Y2.8477
G01 X-7.1259 Y2.8324
G01 X-7.1159 Y2.8166
G01 X-7.1067 Y2.8004
G01 X-7.0982 Y2.7837
G01 X-7.0906 Y2.7665
G01 X-7.0808 Y2.7401
G01 X-7.0753 Y2.7221
G01 X-7.0707 Y2.7039
G01 X-7.0656 Y2.6762
G01 X-7.0633 Y2.6575
G01 X-7.0619 Y2.6388
G01 X-7.0614 Y2.6200
G01 X-7.0614 Y2.5373
G01 X-4.2021 Y2.5373
G01 X-4.1857 Y2.5579
G01 X-4.1226 Y2.6276
G01 X-4.1097 Y2.6412
G01 X-4.0961 Y2.6541
G01 X-4.0343 Y2.7102
G01 X-4.0195 Y2.7229
G01 X-4.0053 Y2.7339
G01 X-3.9306 Y2.7892
G01 X-3.9072 Y2.8045
G01 X-3.8356 Y2.8474
G01 X-3.8187 Y2.8569
G01 X-3.8025 Y2.8650
G01 X-3.7271 Y2.9007
G01 X-3.7102 Y2.9082
G01 X-3.6925 Y2.9150
G01 X-3.6140 Y2.9431
G01 X-3.5950 Y2.9494
G01 X-3.5781 Y2.9540
G01 X-3.4972 Y2.9743
G01 X-3.4783 Y2.9785
G01 X-3.4604 Y2.9816
G01 X-3.3779 Y2.9939
G01 X-3.3598 Y2.9961
G01 X-3.3406 Y2.9975
G01 X-3.2572 Y3.0016
G01 X-3.2385 Y3.0021
G01 X-3.2198 Y3.0016
G01 X-3.1268 Y2.9969
G01 X-3.0991 Y2.9939
G01 X-3.0166 Y2.9816
G01 X-2.9987 Y2.9785
G01 X-2.9798 Y2.9743
G01 X-2.8989 Y2.9540
G01 X-2.8725 Y2.9464
G01 X-2.7845 Y2.9150
G01 X-2.7580 Y2.9044
G01 X-2.6745 Y2.8650
G01 X-2.6498 Y2.8522
G01 X-2.5620 Y2.7997
G01 X-2.5387 Y2.7836
G01 X-2.4717 Y2.7339
G01 X-2.4575 Y2.7229
G01 X-2.4427 Y2.7102
G01 X-2.3809 Y2.6541
G01 X-2.3607 Y2.6345
G01 X-2.2983 Y2.5658
G01 X-2.2800 Y2.5440
G01 X-2.2193 Y2.4621
G01 X-2.2040 Y2.4387
G01 X-2.1611 Y2.3671
G01 X-2.1516 Y2.3502
G01 X-2.1435 Y2.3340
G01 X-2.1078 Y2.2586
G01 X-2.1003 Y2.2417
G01 X-2.0935 Y2.2240
G01 X-2.0654 Y2.1455
G01 X-2.0567 Y2.1181
G01 X-2.0342 Y2.0287
G01 X-2.0300 Y2.0098
G01 X-2.0269 Y1.9919
G01 X-2.0146 Y1.9094
G01 X-2.0116 Y1.8817
G01 X-2.0065 Y1.7794
G01 X-2.0069 Y1.7513
G01 X-2.0110 Y1.6679
G01 X-2.0124 Y1.6487
G01 X-2.0146 Y1.6306
G01 X-2.0269 Y1.5481
G01 X-2.0319 Y1.5213
G01 X-2.0545 Y1.4304
G01 X-2.0621 Y1.4040
G01 X-2.0968 Y1.3071
G01 X-2.1041 Y1.2895
G01 X-2.1211 Y1.2533
G01 X-2.1026 Y1.2514
G01 X-2.0844 Y1.2486
G01 X-2.0664 Y1.2449
G01 X-2.0398 Y1.2378
G01 X-2.0190 Y1.2307
G01 X-1.9524 Y1.2060
G01 X-1.9306 Y1.1971
G01 X-1.9306 Y2.6200
G01 X-1.9301 Y2.6388
G01 X-1.9287 Y2.6575
G01 X-1.9264 Y2.6762
G01 X-1.9213 Y2.7039
G01 X-1.9140 Y2.7312
G01 X-1.9081 Y2.7490
G01 X-1.9014 Y2.7666
G01 X-1.8896 Y2.7921
G01 X-1.8808 Y2.8086
G01 X-1.8712 Y2.8246
G01 X-1.8553 Y2.8477
G01 X-1.8438 Y2.8625
G01 X-1.8316 Y2.8766
G01 X-1.8187 Y2.8902
G01 X-1.8051 Y2.9031
G01 X-1.7837 Y2.9211
G01 X-1.7687 Y2.9323
G01 X-1.7531 Y2.9427
G01 X-1.7289 Y2.9568
G01 X-1.7122 Y2.9652
G01 X-1.6951 Y2.9729
G01 X-1.6686 Y2.9827
G01 X-1.6416 Y2.9906
G01 X-1.6232 Y2.9947
G01 X-1.6047 Y2.9979
G01 X-1.5860 Y3.0002
G01 X-1.5673 Y3.0016
G01 X-1.5306 Y3.0021
G01 X-1.5306 Y3.0779
G01 X-1.5579 Y3.0780
G01 X-1.5767 Y3.0790
G01 X-1.5954 Y3.0808
G01 X-1.6140 Y3.0836
G01 X-1.6324 Y3.0872
G01 X-1.6506 Y3.0918
G01 X-1.6686 Y3.0973
G01 X-1.6863 Y3.1036
G01 X-1.7037 Y3.1109
G01 X-1.7206 Y3.1189
G01 X-1.7371 Y3.1277
G01 X-1.7531 Y3.1373
G01 X-1.7687 Y3.1477
G01 X-1.7837 Y3.1589
G01 X-1.7981 Y3.1707
G01 X-1.8187 Y3.1898
G01 X-1.8316 Y3.2034
G01 X-1.8438 Y3.2175
G01 X-1.8608 Y3.2398
G01 X-1.8761 Y3.2634
G01 X-1.8896 Y3.2879
G01 X-1.9014 Y3.3134
G01 X-1.9112 Y3.3399
G01 X-1.9191 Y3.3669
G01 X-1.9249 Y3.3945
G01 X-1.9277 Y3.4131
G01 X-1.9295 Y3.4318
G01 X-1.9306 Y3.4600
G01 X-1.9306 Y5.1600
G01 X-1.9301 Y5.1788
G01 X-1.9287 Y5.1975
G01 X-1.9264 Y5.2162
G01 X-1.9232 Y5.2347
G01 X-1.9167 Y5.2621
G01 X-1.9081 Y5.2890
G01 X-1.8976 Y5.3152
G01 X-1.8853 Y5.3404
G01 X-1.8761 Y5.3566
G01 X-1.8661 Y5.3724
G01 X-1.8553 Y5.3877
G01 X-1.8438 Y5.4025
G01 X-1.8252 Y5.4235
G01 X-1.8051 Y5.4431
G01 X-1.7910 Y5.4553
G01 X-1.7762 Y5.4668
G01 X-1.7609 Y5.4776
G01 X-1.7451 Y5.4876
G01 X-1.7289 Y5.4968
G01 X-1.7122 Y5.5052
G01 X-1.6950 Y5.5129
G01 X-1.6775 Y5.5196
G01 X-1.6506 Y5.5282
G01 X-1.6324 Y5.5328
G01 X-1.6140 Y5.5364
G01 X-1.5954 Y5.5392
G01 X-1.5767 Y5.5410
G01 X-1.5579 Y5.5420
G01 X-1.5306 Y5.5421
G01 X-1.5306 Y5.6179
G01 X-1.5673 Y5.6184
G01 X-1.5954 Y5.6208
G01 X-1.6232 Y5.6253
G01 X-1.6416 Y5.6294
G01 X-1.6597 Y5.6345
G01 X-1.6863 Y5.6436
G01 X-1.7122 Y5.6548
G01 X-1.7371 Y5.6677
G01 X-1.7531 Y5.6773
G01 X-1.7686 Y5.6877
G01 X-1.7910 Y5.7047
G01 X-1.8051 Y5.7169
G01 X-1.8187 Y5.7298
G01 X-1.8378 Y5.7504
G01 X-1.8553 Y5.7723
G01 X-1.8712 Y5.7954
G01 X-1.8808 Y5.8114
G01 X-1.8896 Y5.8279
G01 X-1.9014 Y5.8534
G01 X-1.9112 Y5.8799
G01 X-1.9191 Y5.9069
G01 X-1.9249 Y5.9345
G01 X-1.9287 Y5.9625
G01 X-1.9305 Y5.9906
G01 X-1.9306 Y7.4207
G01 X-1.9552 Y7.4079
G01 X-1.9725 Y7.4001
G01 X-1.9991 Y7.3901
G01 X-2.0249 Y7.3825
G01 X-2.0424 Y7.3784
G01 X-2.0689 Y7.3739
G01 X-2.0935 Y7.3714
G01 X-2.1226 Y7.3699
G00 Z2.0000
G00 X-1.4588 Y10.0403
G01 F60.00
G01 Z-0.1100
G01 F120.00
G01 X-1.3990 Y9.9745
G01 X-1.3283 Y9.9105
G01 X-1.2520 Y9.8539
G01 X-1.1703 Y9.8050
G01 X-1.0845 Y9.7644
G01 X-0.9946 Y9.7322
G01 X-0.9024 Y9.7092
G01 X-0.8087 Y9.6953
G01 X-0.7135 Y9.6906
G01 X-0.6183 Y9.6953
G01 X-0.5246 Y9.7092
G01 X-0.4324 Y9.7322
G01 X-0.3425 Y9.7644
G01 X-0.2567 Y9.8050
G01 X-0.1750 Y9.8539
G01 X-0.0987 Y9.9105
G01 X-0.0280 Y9.9745
G01 X0.0360 Y10.0452
G01 X0.0926 Y10.1215
G01 X0.1415 Y10.2032
G01 X0.1821 Y10.2890
G01 X0.2143 Y10.3789
G01 X0.2373 Y10.4711
G01 X0.2512 Y10.5648
G01 X0.2559 Y10.6600
G01 X0.2512 Y10.7552
G01 X0.2373 Y10.8489
G01 X0.2143 Y10.9411
G01 X0.1821 Y11.0310
G01 X0.1415 Y11.1168
G01 X0.0926 Y11.1985
G01 X0.0360 Y11.2748
G01 X-0.0280 Y11.3455
G01 X-0.0987 Y11.4095
G01 X-0.1750 Y11.4661
G01 X-0.2514 Y11.5120
G01 X-0.2618 Y11.5176
G01 X-0.3425 Y11.5556
G01 X-0.4265 Y11.5858
G01 X-0.4377 Y11.5892
G01 X-0.5187 Y11.6095
G01 X-0.5302 Y11.6118
G01 X-0.6183 Y11.6247
G01 X-0.7135 Y11.6294
G01 X-0.8087 Y11.6247
G01 X-0.9024 Y11.6108
G01 X-0.9946 Y11.5878
G01 X-1.0790 Y11.5577
G01 X-1.0898 Y11.5532
G01 X-1.1703 Y11.5150
G01 X-1.2471 Y11.4692
G01 X-1.2569 Y11.4627
G01 X-1.3239 Y11.4130
G01 X-1.3329 Y11.4055
G01 X-1.3990 Y11.3455
G01 X-1.4588 Y11.2797
G01 X-4.2818 Y11.2797
G01 X-4.9241 Y11.9219
G01 X-4.9241 Y12.4150
G01 X-4.9247 Y12.4267
G01 X-4.9270 Y12.4412
G01 X-4.9311 Y12.4553
G01 X-4.9369 Y12.4688
G01 X-4.9443 Y12.4814
G01 X-4.9531 Y12.4930
G01 X-4.9633 Y12.5035
G01 X-4.9747 Y12.5126
G01 X-4.9820 Y12.5174
G01 X-4.9897 Y12.5216
G01 X-5.0032 Y12.5274
G01 X-5.0173 Y12.5315
G01 X-5.0288 Y12.5335
G01 X-5.0435 Y12.5344
G01 X-5.7935 Y12.5347
G01 X-6.5464 Y12.5344
G01 X-6.5552 Y12.5338
G01 X-6.5640 Y12.5326
G01 X-6.5782 Y12.5292
G01 X-6.5920 Y12.5241
G01 X-6.5999 Y12.5203
G01 X-6.6074 Y12.5158
G01 X-6.6147 Y12.5109
G01 X-6.6215 Y12.5054
G01 X-6.6279 Y12.4994
G01 X-6.6339 Y12.4930
G01 X-6.6427 Y12.4814
G01 X-6.6473 Y12.4739
G01 X-6.6514 Y12.4661
G01 X-6.6568 Y12.4525
G01 X-6.6600 Y12.4412
G01 X-6.6623 Y12.4267
G01 X-6.6629 Y12.4150
G01 X-6.6629 Y11.4150
G01 X-6.6626 Y11.4062
G01 X-6.6616 Y11.3974
G01 X-6.6600 Y11.3888
G01 X-6.6568 Y11.3775
G01 X-6.6538 Y11.3692
G01 X-6.6488 Y11.3586
G01 X-6.6427 Y11.3486
G01 X-6.6376 Y11.3415
G01 X-6.6300 Y11.3327
G01 X-6.6193 Y11.3227
G01 X-6.6099 Y11.3158
G01 X-6.5999 Y11.3097
G01 X-6.5866 Y11.3036
G01 X-6.5754 Y11.2999
G01 X-6.5640 Y11.2974
G01 X-6.5523 Y11.2959
G01 X-6.5435 Y11.2956
G01 X-6.0504 Y11.2956
G01 X-4.9746 Y10.2198
G01 X-4.9314 Y10.1808
G01 X-4.8827 Y10.1447
G01 X-4.8304 Y10.1134
G01 X-4.7810 Y10.0899
G01 X-4.7702 Y10.0854
G01 X-4.7180 Y10.0669
G01 X-4.6592 Y10.0522
G01 X-4.5994 Y10.0434
G01 X-4.5414 Y10.0404
G01 X-1.4588 Y10.0403
G00 Z2.0000
G00 X-4.5301 Y12.9099
G01 F60.00
G01 Z-0.1100
G01 F120.00
G01 X-4.5301 Y12.7150
G01 X-4.5307 Y12.6897
G01 X-4.5315 Y12.6771
G01 X-4.5340 Y12.6520
G01 X-4.5377 Y12.6270
G01 X-4.5400 Y12.6146
G01 X-4.5455 Y12.5900
G01 X-4.5525 Y12.5650
G01 X-4.5455 Y12.5400
G01 X-4.5426 Y12.5278
G01 X-4.5377 Y12.5030
G01 X-4.5340 Y12.4780
G01 X-4.5315 Y12.4529
G01 X-4.5307 Y12.4403
G01 X-4.5301 Y12.4150
G01 X-4.5301 Y12.0851
G01 X-4.1186 Y11.6737
G01 X-1.6238 Y11.6737
G01 X-1.5869 Y11.7069
G01 X-1.5682 Y11.7221
G01 X-1.4916 Y11.7791
G01 X-1.4811 Y11.7867
G01 X-1.4602 Y11.8007
G01 X-1.3781 Y11.8500
G01 X-1.3554 Y11.8629
G01 X-1.3438 Y11.8688
G01 X-1.2473 Y11.9145
G01 X-1.2237 Y11.9243
G01 X-1.2081 Y11.9300
G01 X-1.2237 Y11.9357
G01 X-1.2473 Y11.9455
G01 X-1.3438 Y11.9912
G01 X-1.3554 Y11.9971
G01 X-1.3781 Y12.0100
G01 X-1.4602 Y12.0593
G01 X-1.4811 Y12.0733
G01 X-1.4916 Y12.0809
G01 X-1.5682 Y12.1379
G01 X-1.5869 Y12.1531
G01 X-1.6238 Y12.1863
G01 X-2.4374 Y12.1863
G01 X-2.5032 Y12.1374
G01 X-2.5243 Y12.1226
G01 X-2.5451 Y12.1094
G01 X-2.6124 Y12.0691
G01 X-2.6352 Y12.0562
G01 X-2.6468 Y12.0502
G01 X-2.7278 Y12.0118
G01 X-2.7506 Y12.0017
G01 X-2.7744 Y11.9925
G01 X-2.8483 Y11.9660
G01 X-2.8737 Y11.9577
G01 X-2.8965 Y11.9514
G01 X-2.9727 Y11.9323
G01 X-2.9980 Y11.9267
G01 X-3.0221 Y11.9225
G01 X-3.1119 Y11.9093
G01 X-3.1369 Y11.9069
G01 X-3.1499 Y11.9061
G01 X-3.2283 Y11.9022
G01 X-3.2535 Y11.9016
G01 X-3.2787 Y11.9022
G01 X-3.3571 Y11.9061
G01 X-3.3830 Y11.9080
G01 X-3.4072 Y11.9110
G01 X-3.4849 Y11.9225
G01 X-3.5090 Y11.9267
G01 X-3.5343 Y11.9323
G01 X-3.6105 Y11.9514
G01 X-3.6333 Y11.9577
G01 X-3.6587 Y11.9660
G01 X-3.7326 Y11.9925
G01 X-3.7564 Y12.0017
G01 X-3.7792 Y12.0118
G01 X-3.8501 Y12.0453
G01 X-3.8718 Y12.0562
G01 X-3.8946 Y12.0691
G01 X-3.9619 Y12.1094
G01 X-3.9827 Y12.1226
G01 X-4.0038 Y12.1374
G01 X-4.0669 Y12.1842
G01 X-4.0859 Y12.1990
G01 X-4.1058 Y12.2162
G01 X-4.1640 Y12.2689
G01 X-4.1732 Y12.2775
G01 X-4.1910 Y12.2953
G01 X-4.2523 Y12.3627
G01 X-4.2695 Y12.3826
G01 X-4.2843 Y12.4016
G01 X-4.3311 Y12.4647
G01 X-4.3386 Y12.4751
G01 X-4.3526 Y12.4961
G01 X-4.4060 Y12.5852
G01 X-4.4183 Y12.6083
G01 X-4.4567 Y12.6893
G01 X-4.4668 Y12.7121
G01 X-4.4716 Y12.7239
G01 X-4.5068 Y12.8225
G01 X-4.5141 Y12.8466
G01 X-4.5301 Y12.9099
G00 Z2.0000
G00 X-4.1710 Y13.2562
G01 F60.00
G01 Z-0.1100
G01 F120.00
G01 X-4.1728 Y13.2209
G01 X-4.1729 Y13.2121
G01 X-4.1689 Y13.1307
G01 X-4.1681 Y13.1219
G01 X-4.1553 Y13.0358
G01 X-4.1342 Y12.9511
G01 X-4.1315 Y12.9425
G01 X-4.1050 Y12.8686
G01 X-4.1005 Y12.8578
G01 X-4.0644 Y12.7818
G01 X-4.0211 Y12.7092
G01 X-4.0163 Y12.7018
G01 X-3.9644 Y12.6319
G01 X-3.9036 Y12.5649
G01 X-3.8366 Y12.5041
G01 X-3.7691 Y12.4539
G01 X-3.7593 Y12.4474
G01 X-3.6920 Y12.4071
G01 X-3.6817 Y12.4015
G01 X-3.6054 Y12.3656
G01 X-3.5200 Y12.3351
G01 X-3.4327 Y12.3132
G01 X-3.3494 Y12.3007
G01 X-3.3378 Y12.2996
G01 X-3.2535 Y12.2956
G01 X-3.1692 Y12.2996
G01 X-3.1576 Y12.3007
G01 X-3.0743 Y12.3132
G01 X-2.9896 Y12.3343
G01 X-2.9810 Y12.3370
G01 X-2.9071 Y12.3635
G01 X-2.8963 Y12.3680
G01 X-2.8203 Y12.4041
G01 X-2.7477 Y12.4474
G01 X-2.7379 Y12.4539
G01 X-2.6749 Y12.5007
G01 X-2.6683 Y12.5059
G01 X-2.6055 Y12.5628
G01 X-2.5892 Y12.5803
G01 X-1.4588 Y12.5803
G01 X-1.3990 Y12.5145
G01 X-1.3329 Y12.4545
G01 X-1.3239 Y12.4470
G01 X-1.2569 Y12.3973
G01 X-1.2471 Y12.3908
G01 X-1.1703 Y12.3450
G01 X-1.0898 Y12.3068
G01 X-1.0790 Y12.3023
G01 X-0.9946 Y12.2722
G01 X-0.9024 Y12.2492
G01 X-0.8087 Y12.2353
G01 X-0.7164 Y12.2306
G01 X-0.7076 Y12.2307
G01 X-0.6183 Y12.2353
G01 X-0.5246 Y12.2492
G01 X-0.4324 Y12.2722
G01 X-0.3425 Y12.3044
G01 X-0.2567 Y12.3450
G01 X-0.1750 Y12.3939
G01 X-0.0987 Y12.4505
G01 X-0.0280 Y12.5145
G01 X0.0360 Y12.5852
G01 X0.0926 Y12.6615
G01 X0.1415 Y12.7432
G01 X0.1821 Y12.8290
G01 X0.2143 Y12.9189
G01 X0.2373 Y13.0111
G01 X0.2512 Y13.1048
G01 X0.2559 Y13.1971
G01 X0.2558 Y13.2059
G01 X0.2512 Y13.2952
G01 X0.2383 Y13.3833
G01 X0.2360 Y13.3948
G01 X0.2157 Y13.4758
G01 X0.2123 Y13.4870
G01 X0.1821 Y13.5710
G01 X0.1415 Y13.6568
G01 X0.0926 Y13.7385
G01 X0.0395 Y13.8104
G01 X0.0320 Y13.8194
G01 X-0.0240 Y13.8812
G01 X-0.0323 Y13.8895
G01 X-0.0987 Y13.9495
G01 X-0.1750 Y14.0061
G01 X-0.2567 Y14.0550
G01 X-0.3372 Y14.0932
G01 X-0.3480 Y14.0977
G01 X-0.4265 Y14.1258
G01 X-0.4351 Y14.1285
G01 X-0.5246 Y14.1508
G01 X-0.6127 Y14.1640
G01 X-0.6243 Y14.1652
G01 X-0.7135 Y14.1694
G01 X-0.8027 Y14.1652
G01 X-0.8143 Y14.1640
G01 X-0.9024 Y14.1508
G01 X-0.9946 Y14.1278
G01 X-1.0790 Y14.0977
G01 X-1.0898 Y14.0932
G01 X-1.1703 Y14.0550
G01 X-1.2520 Y14.0061
G01 X-1.3239 Y13.9530
G01 X-1.3329 Y13.9455
G01 X-1.3990 Y13.8855
G01 X-1.4588 Y13.8197
G01 X-2.5620 Y13.8197
G01 X-2.6034 Y13.8651
G01 X-2.6658 Y13.9219
G01 X-2.6749 Y13.9293
G01 X-2.7403 Y13.9778
G01 X-2.7477 Y13.9826
G01 X-2.8203 Y14.0259
G01 X-2.9016 Y14.0644
G01 X-2.9870 Y14.0949
G01 X-3.0684 Y14.1154
G01 X-3.0771 Y14.1173
G01 X-3.1576 Y14.1293
G01 X-3.1662 Y14.1302
G01 X-3.2506 Y14.1344
G01 X-3.2594 Y14.1343
G01 X-3.2947 Y14.1325
G01 X-4.1153 Y14.9532
G01 X-4.1560 Y14.9902
G01 X-4.1650 Y14.9976
G01 X-4.2093 Y15.0303
G01 X-4.2616 Y15.0616
G01 X-4.3163 Y15.0875
G01 X-4.3740 Y15.1081
G01 X-4.4328 Y15.1228
G01 X-4.4869 Y15.1309
G01 X-4.4986 Y15.1321
G01 X-4.5535 Y15.1347
G01 X-6.5435 Y15.1344
G01 X-6.5581 Y15.1335
G01 X-6.5697 Y15.1315
G01 X-6.5838 Y15.1274
G01 X-6.5973 Y15.1216
G01 X-6.6074 Y15.1158
G01 X-6.6193 Y15.1073
G01 X-6.6300 Y15.0973
G01 X-6.6394 Y15.0862
G01 X-6.6443 Y15.0789
G01 X-6.6501 Y15.0688
G01 X-6.6538 Y15.0608
G01 X-6.6568 Y15.0525
G01 X-6.6593 Y15.0441
G01 X-6.6611 Y15.0355
G01 X-6.6623 Y15.0267
G01 X-6.6629 Y15.0179
G01 X-6.6629 Y14.0121
G01 X-6.6616 Y13.9974
G01 X-6.6593 Y13.9859
G01 X-6.6559 Y13.9747
G01 X-6.6501 Y13.9612
G01 X-6.6427 Y13.9486
G01 X-6.6339 Y13.9370
G01 X-6.6237 Y13.9265
G01 X-6.6147 Y13.9191
G01 X-6.6049 Y13.9126
G01 X-6.5973 Y13.9084
G01 X-6.5893 Y13.9047
G01 X-6.5810 Y13.9017
G01 X-6.5726 Y13.8992
G01 X-6.5640 Y13.8974
G01 X-6.5552 Y13.8962
G01 X-6.5464 Y13.8956
G01 X-4.8102 Y13.8953
G01 X-4.1710 Y13.2562
G00 Z2.0000
G00 X-1.4005 Y14.3766
G01 F60.00
G01 Z-0.1100
G01 F120.00
G01 X-1.5635 Y14.3766
G01 X-1.5761 Y14.3767
G01 X-1.6014 Y14.3780
G01 X-1.6265 Y14.3805
G01 X-1.6390 Y14.3822
G01 X-1.6639 Y14.3865
G01 X-1.6885 Y14.3920
G01 X-1.7129 Y14.3988
G01 X-1.7369 Y14.4067
G01 X-1.7487 Y14.4111
G01 X-1.7720 Y14.4208
G01 X-1.7947 Y14.4316
G01 X-1.8059 Y14.4374
G01 X-1.8277 Y14.4498
G01 X-1.8384 Y14.4564
G01 X-1.8593 Y14.4704
G01 X-1.8695 Y14.4777
G01 X-1.8795 Y14.4853
G01 X-1.8989 Y14.5013
G01 X-1.9175 Y14.5182
G01 X-1.9265 Y14.5270
G01 X-1.9439 Y14.5452
G01 X-1.9603 Y14.5642
G01 X-1.9758 Y14.5840
G01 X-1.9831 Y14.5942
G01 X-1.9971 Y14.6151
G01 X-2.0100 Y14.6366
G01 X-2.0161 Y14.6476
G01 X-2.0274 Y14.6700
G01 X-2.0327 Y14.6815
G01 X-2.0424 Y14.7048
G01 X-2.0468 Y14.7166
G01 X-2.0547 Y14.7406
G01 X-2.0615 Y14.7650
G01 X-2.0670 Y14.7896
G01 X-2.0713 Y14.8145
G01 X-2.0744 Y14.8396
G01 X-2.0763 Y14.8647
G01 X-2.0769 Y14.8900
G01 X-2.0769 Y15.0517
G01 X-2.1006 Y15.0779
G01 X-2.1178 Y15.0978
G01 X-2.1326 Y15.1168
G01 X-2.1618 Y15.1562
G01 X-2.1694 Y15.1667
G01 X-2.1834 Y15.1876
G01 X-2.2216 Y15.2515
G01 X-2.2279 Y15.2630
G01 X-2.2388 Y15.2847
G01 X-2.2598 Y15.3290
G01 X-2.2699 Y15.3518
G01 X-2.2791 Y15.3756
G01 X-2.2956 Y15.4218
G01 X-2.3000 Y15.4345
G01 X-2.3066 Y15.4564
G01 X-2.9716 Y16.1214
G01 X-9.3482 Y16.1214
G01 X-7.3304 Y14.1036
G01 X-7.0569 Y14.1036
G01 X-7.0569 Y15.0150
G01 X-7.0563 Y15.0403
G01 X-7.0544 Y15.0654
G01 X-7.0513 Y15.0905
G01 X-7.0470 Y15.1154
G01 X-7.0415 Y15.1400
G01 X-7.0382 Y15.1522
G01 X-7.0309 Y15.1764
G01 X-7.0224 Y15.2002
G01 X-7.0127 Y15.2235
G01 X-7.0074 Y15.2349
G01 X-6.9961 Y15.2574
G01 X-6.9837 Y15.2792
G01 X-6.9771 Y15.2899
G01 X-6.9702 Y15.3005
G01 X-6.9558 Y15.3210
G01 X-6.9403 Y15.3408
G01 X-6.9322 Y15.3504
G01 X-6.9153 Y15.3691
G01 X-6.8975 Y15.3868
G01 X-6.8883 Y15.3954
G01 X-6.8693 Y15.4118
G01 X-6.8495 Y15.4273
G01 X-6.8290 Y15.4417
G01 X-6.8184 Y15.4486
G01 X-6.8077 Y15.4552
G01 X-6.7859 Y15.4676
G01 X-6.7634 Y15.4789
G01 X-6.7520 Y15.4842
G01 X-6.7404 Y15.4892
G01 X-6.7169 Y15.4983
G01 X-6.6929 Y15.5062
G01 X-6.6808 Y15.5097
G01 X-6.6563 Y15.5159
G01 X-6.6316 Y15.5208
G01 X-6.6066 Y15.5245
G01 X-6.5941 Y15.5259
G01 X-6.5689 Y15.5278
G01 X-6.5437 Y15.5284
G01 X-4.5535 Y15.5287
G01 X-4.5283 Y15.5281
G01 X-4.4793 Y15.5256
G01 X-4.4534 Y15.5237
G01 X-4.4291 Y15.5207
G01 X-4.3806 Y15.5135
G01 X-4.3565 Y15.5093
G01 X-4.3445 Y15.5068
G01 X-4.2721 Y15.4887
G01 X-4.2480 Y15.4815
G01 X-4.2353 Y15.4771
G01 X-4.1891 Y15.4606
G01 X-4.1653 Y15.4514
G01 X-4.1425 Y15.4413
G01 X-4.0982 Y15.4203
G01 X-4.0765 Y15.4094
G01 X-4.0650 Y15.4031
G01 X-4.0011 Y15.3649
G01 X-3.9802 Y15.3509
G01 X-3.9697 Y15.3433
G01 X-3.9303 Y15.3141
G01 X-3.9113 Y15.2993
G01 X-3.8914 Y15.2821
G01 X-3.8550 Y15.2491
G01 X-3.8367 Y15.2318
G01 X-3.1273 Y14.5223
G01 X-3.0998 Y14.5190
G01 X-3.0221 Y14.5075
G01 X-2.9980 Y14.5033
G01 X-2.9727 Y14.4977
G01 X-2.8965 Y14.4786
G01 X-2.8737 Y14.4723
G01 X-2.8483 Y14.4640
G01 X-2.7744 Y14.4375
G01 X-2.7506 Y14.4283
G01 X-2.7278 Y14.4182
G01 X-2.6569 Y14.3847
G01 X-2.6352 Y14.3738
G01 X-2.6124 Y14.3609
G01 X-2.5451 Y14.3206
G01 X-2.5243 Y14.3074
G01 X-2.5136 Y14.3001
G01 X-2.4401 Y14.2458
G01 X-2.4211 Y14.2310
G01 X-2.4010 Y14.2137
G01 X-1.6238 Y14.2137
G01 X-1.5869 Y14.2469
G01 X-1.5682 Y14.2621
G01 X-1.4916 Y14.3191
G01 X-1.4811 Y14.3267
G01 X-1.4602 Y14.3407
G01 X-1.4005 Y14.3766
G00 Z2.0000
G00 X-2.4532 Y21.2077
G01 F60.00
G01 Z-0.1100
G01 F120.00
G01 X-1.9442 Y21.2077
G01 X-1.9427 Y21.1931
G01 X-1.9399 Y21.1745
G01 X-1.9363 Y21.1561
G01 X-1.9317 Y21.1379
G01 X-1.9231 Y21.1110
G01 X-1.9164 Y21.0934
G01 X-1.9087 Y21.0763
G01 X-1.8958 Y21.0514
G01 X-1.8862 Y21.0354
G01 X-1.8758 Y21.0198
G01 X-1.8588 Y20.9975
G01 X-1.8466 Y20.9834
G01 X-1.8337 Y20.9698
G01 X-1.8201 Y20.9569
G01 X-1.8060 Y20.9447
G01 X-1.7836 Y20.9277
G01 X-1.7681 Y20.9173
G01 X-1.7521 Y20.9077
G01 X-1.7272 Y20.8948
G01 X-1.7100 Y20.8871
G01 X-1.6925 Y20.8804
G01 X-1.6656 Y20.8718
G01 X-1.6474 Y20.8672
G01 X-1.6290 Y20.8636
G01 X-1.6010 Y20.8598
G01 X-1.5823 Y20.8584
G01 X-1.5635 Y20.8579
G01 X0.1459 Y20.8580
G01 X0.1647 Y20.8590
G01 X0.1927 Y20.8621
G01 X0.2204 Y20.8672
G01 X0.2477 Y20.8745
G01 X0.2743 Y20.8836
G01 X0.3002 Y20.8948
G01 X0.3251 Y20.9077
G01 X0.3489 Y20.9224
G01 X0.3642 Y20.9332
G01 X0.3790 Y20.9447
G01 X0.3931 Y20.9569
G01 X0.4132 Y20.9765
G01 X0.4318 Y20.9975
G01 X0.4433 Y21.0123
G01 X0.4592 Y21.0354
G01 X0.4688 Y21.0514
G01 X0.4817 Y21.0763
G01 X0.4894 Y21.0935
G01 X0.4992 Y21.1199
G01 X0.5047 Y21.1379
G01 X0.5112 Y21.1653
G01 X0.5144 Y21.1838
G01 X0.5167 Y21.2025
G01 X0.5181 Y21.2212
G01 X0.5186 Y21.2400
G01 X0.5185 Y22.9494
G01 X0.5167 Y22.9775
G01 X0.5144 Y22.9962
G01 X0.5093 Y23.0239
G01 X0.5021 Y23.0512
G01 X0.4929 Y23.0778
G01 X0.4817 Y23.1037
G01 X0.4688 Y23.1286
G01 X0.4541 Y23.1524
G01 X0.4433 Y23.1677
G01 X0.4258 Y23.1896
G01 X0.4132 Y23.2035
G01 X0.4000 Y23.2167
G01 X0.3790 Y23.2353
G01 X0.3642 Y23.2468
G01 X0.3411 Y23.2627
G01 X0.3251 Y23.2723
G01 X0.3002 Y23.2852
G01 X0.2830 Y23.2929
G01 X0.2655 Y23.2996
G01 X0.2477 Y23.3055
G01 X0.2296 Y23.3106
G01 X0.2112 Y23.3147
G01 X0.1834 Y23.3192
G01 X0.1647 Y23.3210
G01 X0.1365 Y23.3221
G01 X-1.5635 Y23.3221
G01 X-1.5917 Y23.3210
G01 X-1.6197 Y23.3179
G01 X-1.6382 Y23.3147
G01 X-1.6565 Y23.3106
G01 X-1.6747 Y23.3056
G01 X-1.6925 Y23.2996
G01 X-1.7187 Y23.2892
G01 X-1.7439 Y23.2768
G01 X-1.7601 Y23.2676
G01 X-1.7759 Y23.2576
G01 X-1.7912 Y23.2468
G01 X-1.8060 Y23.2353
G01 X-1.8201 Y23.2231
G01 X-1.8337 Y23.2102
G01 X-1.8528 Y23.1896
G01 X-1.8646 Y23.1752
G01 X-1.8758 Y23.1601
G01 X-1.8862 Y23.1446
G01 X-1.8958 Y23.1286
G01 X-1.9087 Y23.1037
G01 X-1.9164 Y23.0865
G01 X-1.9231 Y23.0690
G01 X-1.9317 Y23.0421
G01 X-1.9363 Y23.0239
G01 X-1.9399 Y23.0055
G01 X-1.9427 Y22.9869
G01 X-1.9442 Y22.9723
G01 X-2.4532 Y22.9723
G01 X-2.4823 Y22.9985
G01 X-2.4962 Y23.0099
G01 X-2.5664 Y23.0621
G01 X-2.5898 Y23.0781
G01 X-2.6650 Y23.1233
G01 X-2.6819 Y23.1328
G01 X-2.6980 Y23.1409
G01 X-2.7690 Y23.1745
G01 X-2.7947 Y23.1855
G01 X-2.8776 Y23.2153
G01 X-2.8965 Y23.2215
G01 X-2.9134 Y23.2262
G01 X-2.9896 Y23.2453
G01 X-3.0084 Y23.2495
G01 X-3.0264 Y23.2526
G01 X-3.1040 Y23.2641
G01 X-3.1221 Y23.2663
G01 X-3.1413 Y23.2678
G01 X-3.2198 Y23.2716
G01 X-3.2479 Y23.2720
G01 X-3.3357 Y23.2678
G01 X-3.3549 Y23.2663
G01 X-3.3730 Y23.2641
G01 X-3.4506 Y23.2526
G01 X-3.4686 Y23.2495
G01 X-3.4874 Y23.2453
G01 X-3.5636 Y23.2262
G01 X-3.5805 Y23.2215
G01 X-3.5994 Y23.2153
G01 X-3.6734 Y23.1888
G01 X-3.6998 Y23.1783
G01 X-3.7790 Y23.1409
G01 X-3.7951 Y23.1328
G01 X-3.8120 Y23.1233
G01 X-3.8794 Y23.0829
G01 X-3.8949 Y23.0731
G01 X-3.9106 Y23.0621
G01 X-3.9736 Y23.0153
G01 X-3.9947 Y22.9985
G01 X-4.0608 Y22.9388
G01 X-4.0744 Y22.9259
G01 X-4.0873 Y22.9123
G01 X-4.1400 Y22.8541
G01 X-4.1528 Y22.8393
G01 X-4.1638 Y22.8251
G01 X-4.2106 Y22.7621
G01 X-4.2216 Y22.7464
G01 X-4.2314 Y22.7309
G01 X-4.2718 Y22.6635
G01 X-4.2813 Y22.6466
G01 X-4.2894 Y22.6305
G01 X-4.3230 Y22.5595
G01 X-4.3305 Y22.5426
G01 X-4.3373 Y22.5249
G01 X-4.3638 Y22.4509
G01 X-4.3700 Y22.4320
G01 X-4.3747 Y22.4151
G01 X-4.3938 Y22.3389
G01 X-4.3980 Y22.3201
G01 X-4.4011 Y22.3021
G01 X-4.4126 Y22.2245
G01 X-4.4148 Y22.2064
G01 X-4.4163 Y22.1872
G01 X-4.4201 Y22.1087
G01 X-4.4206 Y22.0900
G01 X-4.4201 Y22.0713
G01 X-4.4163 Y21.9928
G01 X-4.4148 Y21.9736
G01 X-4.4126 Y21.9555
G01 X-4.4011 Y21.8779
G01 X-4.3980 Y21.8599
G01 X-4.3938 Y21.8411
G01 X-4.3747 Y21.7649
G01 X-4.3700 Y21.7480
G01 X-4.3638 Y21.7291
G01 X-4.3373 Y21.6551
G01 X-4.3305 Y21.6374
G01 X-4.3230 Y21.6205
G01 X-4.2894 Y21.5495
G01 X-4.2813 Y21.5334
G01 X-4.2718 Y21.5165
G01 X-4.2314 Y21.4491
G01 X-4.2216 Y21.4336
G01 X-4.2106 Y21.4179
G01 X-4.1638 Y21.3549
G01 X-4.1470 Y21.3338
G01 X-4.0873 Y21.2677
G01 X-4.0744 Y21.2541
G01 X-4.0608 Y21.2412
G01 X-4.0026 Y21.1885
G01 X-3.9878 Y21.1757
G01 X-3.9736 Y21.1647
G01 X-3.9106 Y21.1179
G01 X-3.8949 Y21.1069
G01 X-3.8794 Y21.0971
G01 X-3.8120 Y21.0567
G01 X-3.7951 Y21.0472
G01 X-3.7790 Y21.0391
G01 X-3.7080 Y21.0055
G01 X-3.6911 Y20.9980
G01 X-3.6734 Y20.9912
G01 X-3.5994 Y20.9647
G01 X-3.5805 Y20.9585
G01 X-3.5636 Y20.9538
G01 X-3.4874 Y20.9347
G01 X-3.4686 Y20.9305
G01 X-3.4506 Y20.9274
G01 X-3.3730 Y20.9159
G01 X-3.3453 Y20.9128
G01 X-3.2572 Y20.9084
G01 X-3.2385 Y20.9079
G01 X-3.2198 Y20.9084
G01 X-3.1413 Y20.9122
G01 X-3.1221 Y20.9137
G01 X-3.1040 Y20.9159
G01 X-3.0264 Y20.9274
G01 X-3.0084 Y20.9305
G01 X-2.9896 Y20.9347
G01 X-2.9134 Y20.9538
G01 X-2.8870 Y20.9615
G01 X-2.8036 Y20.9912
G01 X-2.7859 Y20.9980
G01 X-2.7690 Y21.0055
G01 X-2.6980 Y21.0391
G01 X-2.6734 Y21.0519
G01 X-2.5976 Y21.0971
G01 X-2.5742 Y21.1123
G01 X-2.4962 Y21.1701
G01 X-2.4823 Y21.1815
G01 X-2.4532 Y21.2077
G00 Z2.0000
G00 X-2.5039 Y21.3390
G01 F60.00
G01 Z-0.1100
G01 F120.00
G01 X-1.8142 Y21.3390
G01 X-1.8142 Y21.2338
G01 X-1.8130 Y21.2154
G01 X-1.8105 Y21.1970
G01 X-1.8081 Y21.1849
G01 X-1.8051 Y21.1730
G01 X-1.8015 Y21.1612
G01 X-1.7974 Y21.1496
G01 X-1.7926 Y21.1382
G01 X-1.7874 Y21.1271
G01 X-1.7816 Y21.1162
G01 X-1.7753 Y21.1057
G01 X-1.7684 Y21.0955
G01 X-1.7573 Y21.0809
G01 X-1.7493 Y21.0716
G01 X-1.7408 Y21.0627
G01 X-1.7319 Y21.0542
G01 X-1.7226 Y21.0462
G01 X-1.7080 Y21.0351
G01 X-1.6978 Y21.0282
G01 X-1.6872 Y21.0219
G01 X-1.6709 Y21.0134
G01 X-1.6597 Y21.0084
G01 X-1.6482 Y21.0040
G01 X-1.6365 Y21.0001
G01 X-1.6246 Y20.9968
G01 X-1.6125 Y20.9941
G01 X-1.5943 Y20.9912
G01 X-1.5758 Y20.9896
G01 X-1.5635 Y20.9893
G01 X0.1427 Y20.9893
G01 X0.1611 Y20.9905
G01 X0.1734 Y20.9920
G01 X0.1855 Y20.9941
G01 X0.2035 Y20.9984
G01 X0.2212 Y21.0040
G01 X0.2327 Y21.0084
G01 X0.2494 Y21.0161
G01 X0.2655 Y21.0250
G01 X0.2759 Y21.0316
G01 X0.2908 Y21.0424
G01 X0.3049 Y21.0542
G01 X0.3138 Y21.0627
G01 X0.3263 Y21.0762
G01 X0.3341 Y21.0857
G01 X0.3414 Y21.0955
G01 X0.3515 Y21.1110
G01 X0.3575 Y21.1216
G01 X0.3656 Y21.1382
G01 X0.3704 Y21.1496
G01 X0.3764 Y21.1670
G01 X0.3811 Y21.1849
G01 X0.3835 Y21.1970
G01 X0.3860 Y21.2154
G01 X0.3869 Y21.2277
G01 X0.3872 Y21.2400
G01 X0.3872 Y22.9462
G01 X0.3866 Y22.9585
G01 X0.3845 Y22.9769
G01 X0.3811 Y22.9951
G01 X0.3781 Y23.0070
G01 X0.3745 Y23.0188
G01 X0.3681 Y23.0362
G01 X0.3604 Y23.0529
G01 X0.3515 Y23.0690
G01 X0.3414 Y23.0845
G01 X0.3341 Y23.0943
G01 X0.3223 Y23.1084
G01 X0.3138 Y23.1173
G01 X0.3003 Y23.1298
G01 X0.2908 Y23.1376
G01 X0.2759 Y23.1484
G01 X0.2655 Y23.1550
G01 X0.2549 Y23.1610
G01 X0.2383 Y23.1691
G01 X0.2269 Y23.1739
G01 X0.2095 Y23.1799
G01 X0.1976 Y23.1832
G01 X0.1855 Y23.1859
G01 X0.1734 Y23.1880
G01 X0.1550 Y23.1901
G01 X0.1365 Y23.1907
G01 X-1.5635 Y23.1907
G01 X-1.5820 Y23.1901
G01 X-1.5943 Y23.1888
G01 X-1.6065 Y23.1870
G01 X-1.6246 Y23.1832
G01 X-1.6364 Y23.1799
G01 X-1.6482 Y23.1760
G01 X-1.6597 Y23.1716
G01 X-1.6709 Y23.1666
G01 X-1.6872 Y23.1581
G01 X-1.7029 Y23.1484
G01 X-1.7129 Y23.1413
G01 X-1.7226 Y23.1338
G01 X-1.7364 Y23.1216
G01 X-1.7451 Y23.1129
G01 X-1.7533 Y23.1038
G01 X-1.7611 Y23.0943
G01 X-1.7719 Y23.0794
G01 X-1.7816 Y23.0637
G01 X-1.7874 Y23.0529
G01 X-1.7926 Y23.0418
G01 X-1.7974 Y23.0304
G01 X-1.8015 Y23.0188
G01 X-1.8051 Y23.0070
G01 X-1.8081 Y22.9951
G01 X-1.8105 Y22.9830
G01 X-1.8130 Y22.9646
G01 X-1.8142 Y22.9462
G01 X-1.8142 Y22.8410
G01 X-2.5039 Y22.8410
G01 X-2.5626 Y22.8942
G01 X-2.5723 Y22.9026
G01 X-2.6447 Y22.9566
G01 X-2.6550 Y22.9638
G01 X-2.6651 Y22.9702
G01 X-2.7325 Y23.0106
G01 X-2.7436 Y23.0169
G01 X-2.8251 Y23.0558
G01 X-2.8362 Y23.0607
G01 X-2.8479 Y23.0652
G01 X-2.9218 Y23.0916
G01 X-2.9342 Y23.0957
G01 X-2.9453 Y23.0988
G01 X-3.0215 Y23.1179
G01 X-3.0339 Y23.1206
G01 X-3.1233 Y23.1342
G01 X-3.1351 Y23.1356
G01 X-3.1478 Y23.1366
G01 X-3.2262 Y23.1404
G01 X-3.2385 Y23.1407
G01 X-3.2508 Y23.1404
G01 X-3.3292 Y23.1366
G01 X-3.3419 Y23.1356
G01 X-3.3537 Y23.1342
G01 X-3.4431 Y23.1206
G01 X-3.4555 Y23.1179
G01 X-3.5317 Y23.0988
G01 X-3.5428 Y23.0957
G01 X-3.5552 Y23.0916
G01 X-3.6291 Y23.0652
G01 X-3.6408 Y23.0607
G01 X-3.6519 Y23.0558
G01 X-3.7334 Y23.0169
G01 X-3.7445 Y23.0106
G01 X-3.8119 Y22.9702
G01 X-3.8220 Y22.9638
G01 X-3.8323 Y22.9566
G01 X-3.9047 Y22.9026
G01 X-3.9144 Y22.8942
G01 X-3.9726 Y22.8415
G01 X-3.9815 Y22.8330
G01 X-3.9900 Y22.8241
G01 X-4.0427 Y22.7659
G01 X-4.0511 Y22.7562
G01 X-4.1051 Y22.6838
G01 X-4.1123 Y22.6735
G01 X-4.1187 Y22.6634
G01 X-4.1591 Y22.5960
G01 X-4.1654 Y22.5849
G01 X-4.2043 Y22.5034
G01 X-4.2092 Y22.4923
G01 X-4.2137 Y22.4806
G01 X-4.2401 Y22.4067
G01 X-4.2442 Y22.3943
G01 X-4.2664 Y22.3070
G01 X-4.2691 Y22.2946
G01 X-4.2712 Y22.2829
G01 X-4.2841 Y22.1934
G01 X-4.2851 Y22.1807
G01 X-4.2889 Y22.1023
G01 X-4.2892 Y22.0900
G01 X-4.2889 Y22.0777
G01 X-4.2851 Y21.9993
G01 X-4.2841 Y21.9866
G01 X-4.2712 Y21.8971
G01 X-4.2691 Y21.8854
G01 X-4.2664 Y21.8730
G01 X-4.2442 Y21.7857
G01 X-4.2401 Y21.7733
G01 X-4.2137 Y21.6994
G01 X-4.2092 Y21.6877
G01 X-4.2043 Y21.6766
G01 X-4.1654 Y21.5951
G01 X-4.1591 Y21.5840
G01 X-4.1187 Y21.5166
G01 X-4.1123 Y21.5065
G01 X-4.1051 Y21.4962
G01 X-4.0511 Y21.4238
G01 X-4.0427 Y21.4141
G01 X-3.9900 Y21.3559
G01 X-3.9815 Y21.3470
G01 X-3.9726 Y21.3385
G01 X-3.9144 Y21.2858
G01 X-3.9047 Y21.2774
G01 X-3.8323 Y21.2234
G01 X-3.8220 Y21.2162
G01 X-3.8119 Y21.2098
G01 X-3.7445 Y21.1694
G01 X-3.7334 Y21.1631
G01 X-3.6519 Y21.1242
G01 X-3.6408 Y21.1193
G01 X-3.6291 Y21.1148
G01 X-3.5552 Y21.0884
G01 X-3.5428 Y21.0843
G01 X-3.4555 Y21.0621
G01 X-3.4431 Y21.0594
G01 X-3.4314 Y21.0573
G01 X-3.3419 Y21.0444
G01 X-3.3292 Y21.0434
G01 X-3.2508 Y21.0396
G01 X-3.2385 Y21.0393
G01 X-3.2262 Y21.0396
G01 X-3.1478 Y21.0434
G01 X-3.1351 Y21.0444
G01 X-3.0456 Y21.0573
G01 X-3.0339 Y21.0594
G01 X-3.0215 Y21.0621
G01 X-2.9342 Y21.0843
G01 X-2.9218 Y21.0884
G01 X-2.8479 Y21.1148
G01 X-2.8362 Y21.1193
G01 X-2.8251 Y21.1242
G01 X-2.7436 Y21.1631
G01 X-2.7325 Y21.1694
G01 X-2.6651 Y21.2098
G01 X-2.6550 Y21.2162
G01 X-2.6447 Y21.2234
G01 X-2.5723 Y21.2774
G01 X-2.5626 Y21.2858
G01 X-2.5039 Y21.3390
G00 Z2.0000
G00 X-2.5606 Y21.4703
G01 F60.00
G01 Z-0.1100
G01 F120.00
G01 X-1.6829 Y21.4703
G01 X-1.6829 Y21.2371
G01 X-1.6816 Y21.2224
G01 X-1.6800 Y21.2138
G01 X-1.6777 Y21.2053
G01 X-1.6749 Y21.1969
G01 X-1.6714 Y21.1888
G01 X-1.6673 Y21.1811
G01 X-1.6627 Y21.1736
G01 X-1.6576 Y21.1665
G01 X-1.6520 Y21.1598
G01 X-1.6458 Y21.1535
G01 X-1.6393 Y21.1477
G01 X-1.6323 Y21.1424
G01 X-1.6250 Y21.1376
G01 X-1.6173 Y21.1334
G01 X-1.6093 Y21.1297
G01 X-1.6010 Y21.1267
G01 X-1.5926 Y21.1242
G01 X-1.5782 Y21.1215
G01 X-1.5635 Y21.1206
G01 X0.1365 Y21.1206
G01 X0.1512 Y21.1215
G01 X0.1656 Y21.1242
G01 X0.1796 Y21.1286
G01 X0.1929 Y21.1347
G01 X0.2053 Y21.1424
G01 X0.2123 Y21.1477
G01 X0.2188 Y21.1535
G01 X0.2250 Y21.1598
G01 X0.2306 Y21.1665
G01 X0.2389 Y21.1785
G01 X0.2431 Y21.1862
G01 X0.2468 Y21.1942
G01 X0.2516 Y21.2081
G01 X0.2546 Y21.2224
G01 X0.2559 Y21.2371
G01 X0.2559 Y22.9400
G01 X0.2550 Y22.9547
G01 X0.2523 Y22.9691
G01 X0.2479 Y22.9831
G01 X0.2418 Y22.9964
G01 X0.2341 Y23.0088
G01 X0.2288 Y23.0158
G01 X0.2230 Y23.0223
G01 X0.2123 Y23.0323
G01 X0.2053 Y23.0376
G01 X0.1980 Y23.0424
G01 X0.1903 Y23.0466
G01 X0.1823 Y23.0503
G01 X0.1684 Y23.0551
G01 X0.1541 Y23.0581
G01 X0.1394 Y23.0594
G01 X-1.5635 Y23.0594
G01 X-1.5752 Y23.0588
G01 X-1.5840 Y23.0576
G01 X-1.5926 Y23.0558
G01 X-1.6010 Y23.0533
G01 X-1.6093 Y23.0503
G01 X-1.6173 Y23.0466
G01 X-1.6249 Y23.0424
G01 X-1.6323 Y23.0376
G01 X-1.6393 Y23.0323
G01 X-1.6458 Y23.0265
G01 X-1.6520 Y23.0202
G01 X-1.6576 Y23.0135
G01 X-1.6627 Y23.0064
G01 X-1.6673 Y22.9989
G01 X-1.6714 Y22.9911
G01 X-1.6749 Y22.9831
G01 X-1.6777 Y22.9747
G01 X-1.6811 Y22.9605
G01 X-1.6823 Y22.9517
G01 X-1.6829 Y22.9429
G01 X-1.6829 Y22.7097
G01 X-2.5606 Y22.7097
G01 X-2.5843 Y22.7359
G01 X-2.5905 Y22.7422
G01 X-2.6533 Y22.7991
G01 X-2.6599 Y22.8043
G01 X-2.7253 Y22.8528
G01 X-2.7327 Y22.8576
G01 X-2.8053 Y22.9009
G01 X-2.8813 Y22.9370
G01 X-2.8893 Y22.9405
G01 X-2.9660 Y22.9680
G01 X-2.9773 Y22.9714
G01 X-3.0593 Y22.9918
G01 X-3.1426 Y23.0043
G01 X-3.1542 Y23.0054
G01 X-3.2385 Y23.0094
G01 X-3.3258 Y23.0052
G01 X-3.3344 Y23.0043
G01 X-3.4177 Y22.9918
G01 X-3.5050 Y22.9699
G01 X-3.5904 Y22.9394
G01 X-3.6667 Y22.9035
G01 X-3.6770 Y22.8979
G01 X-3.7443 Y22.8576
G01 X-3.7541 Y22.8511
G01 X-3.8216 Y22.8009
G01 X-3.8844 Y22.7442
G01 X-3.8907 Y22.7380
G01 X-3.9494 Y22.6731
G01 X-4.0030 Y22.6007
G01 X-4.0494 Y22.5232
G01 X-4.0879 Y22.4419
G01 X-4.1184 Y22.3565
G01 X-4.1403 Y22.2692
G01 X-4.1535 Y22.1803
G01 X-4.1579 Y22.0900
G01 X-4.1535 Y21.9997
G01 X-4.1403 Y21.9108
G01 X-4.1184 Y21.8235
G01 X-4.0879 Y21.7381
G01 X-4.0494 Y21.6568
G01 X-4.0030 Y21.5793
G01 X-3.9494 Y21.5069
G01 X-3.8927 Y21.4441
G01 X-3.8865 Y21.4378
G01 X-3.8216 Y21.3791
G01 X-3.7492 Y21.3255
G01 X-3.6717 Y21.2791
G01 X-3.5904 Y21.2406
G01 X-3.5050 Y21.2101
G01 X-3.4177 Y21.1882
G01 X-3.3288 Y21.1750
G01 X-3.2444 Y21.1707
G01 X-3.2356 Y21.1706
G01 X-3.1482 Y21.1750
G01 X-3.0593 Y21.1882
G01 X-2.9720 Y21.2101
G01 X-2.8921 Y21.2385
G01 X-2.8839 Y21.2418
G01 X-2.8053 Y21.2791
G01 X-2.7327 Y21.3224
G01 X-2.7253 Y21.3272
G01 X-2.6599 Y21.3757
G01 X-2.6533 Y21.3809
G01 X-2.5905 Y21.4378
G01 X-2.5843 Y21.4441
G01 X-2.5606 Y21.4703
G00 Z2.0000
G00 X-4.4151 Y26.4830
G01 F60.00
G01 Z-0.1100
G01 F120.00
G01 X-4.4151 Y26.3200
G01 X-4.4157 Y26.2947
G01 X-4.4176 Y26.2696
G01 X-4.4190 Y26.2570
G01 X-4.4227 Y26.2320
G01 X-4.4262 Y26.2137
G01 X-4.3110 Y26.3290
G01 X-4.3576 Y26.3919
G01 X-4.3724 Y26.4130
G01 X-4.3856 Y26.4338
G01 X-4.4151 Y26.4830
G00 Z2.0000
G00 X-4.4219 Y28.1034
G01 F60.00
G01 Z-0.1100
G01 F120.00
G01 X-4.4190 Y28.0830
G01 X-4.4176 Y28.0704
G01 X-4.4165 Y28.0579
G01 X-4.4152 Y28.0326
G01 X-4.4151 Y27.8570
G01 X-4.3792 Y27.9167
G01 X-4.3652 Y27.9376
G01 X-4.3576 Y27.9481
G01 X-4.3006 Y28.0247
G01 X-4.2854 Y28.0434
G01 X-4.2522 Y28.0803
G01 X-4.2522 Y28.0966
G01 X-4.3385 Y28.0966
G01 X-4.3638 Y28.0972
G01 X-4.3889 Y28.0991
G01 X-4.4015 Y28.1005
G01 X-4.4219 Y28.1034
G00 Z2.0000
G00 X-6.7409 Y31.9327
G01 F60.00
G01 Z-0.1100
G01 F120.00
G01 X-6.7639 Y31.9276
G01 X-6.7767 Y31.9252
G01 X-6.8025 Y31.9215
G01 X-6.8828 Y31.9120
G01 X-6.9081 Y31.9101
G01 X-6.9207 Y31.9096
G01 X-6.9460 Y31.9096
G01 X-6.9713 Y31.9108
G01 X-6.9839 Y31.9119
G01 X-7.0091 Y31.9149
G01 X-7.0216 Y31.9170
G01 X-7.0476 Y31.9222
G01 X-7.0579 Y31.8816
G01 X-7.0652 Y31.8575
G01 X-7.1004 Y31.7589
G01 X-7.1052 Y31.7471
G01 X-7.1153 Y31.7243
G01 X-7.1537 Y31.6433
G01 X-7.1660 Y31.6202
G01 X-7.2194 Y31.5311
G01 X-7.2334 Y31.5101
G01 X-7.2409 Y31.4997
G01 X-7.2877 Y31.4366
G01 X-7.3025 Y31.4176
G01 X-7.3197 Y31.3977
G01 X-7.3810 Y31.3303
G01 X-7.3898 Y31.3213
G01 X-7.4080 Y31.3039
G01 X-7.4662 Y31.2512
G01 X-7.4769 Y31.2418
G01 X-7.4955 Y31.2265
G01 X-7.5682 Y31.1724
G01 X-7.5892 Y31.1576
G01 X-7.6101 Y31.1444
G01 X-7.6774 Y31.1041
G01 X-7.7002 Y31.0912
G01 X-7.7118 Y31.0852
G01 X-7.7928 Y31.0468
G01 X-7.8156 Y31.0367
G01 X-7.8394 Y31.0275
G01 X-7.9133 Y31.0010
G01 X-7.9260 Y30.9967
G01 X-7.9501 Y30.9894
G01 X-8.0377 Y30.9673
G01 X-8.0630 Y30.9617
G01 X-8.0871 Y30.9575
G01 X-8.1648 Y30.9460
G01 X-8.1890 Y30.9430
G01 X-8.2149 Y30.9411
G01 X-8.2933 Y30.9372
G01 X-8.3185 Y30.9366
G01 X-8.3437 Y30.9372
G01 X-8.4221 Y30.9411
G01 X-8.4480 Y30.9430
G01 X-8.4722 Y30.9460
G01 X-8.5499 Y30.9575
G01 X-8.5740 Y30.9617
G01 X-8.5993 Y30.9673
G01 X-8.6869 Y30.9894
G01 X-8.7110 Y30.9967
G01 X-8.7237 Y31.0010
G01 X-8.7976 Y31.0275
G01 X-8.8214 Y31.0367
G01 X-8.8442 Y31.0468
G01 X-8.9151 Y31.0803
G01 X-8.9368 Y31.0912
G01 X-8.9596 Y31.1041
G01 X-9.0374 Y31.1509
G01 X-9.0584 Y31.1649
G01 X-9.0688 Y31.1724
G01 X-9.1319 Y31.2192
G01 X-9.1509 Y31.2340
G01 X-9.1601 Y31.2418
G01 X-9.2382 Y31.3125
G01 X-9.2560 Y31.3303
G01 X-9.2844 Y31.3614
G01 X-9.6348 Y31.3614
G01 X-9.6804 Y31.3002
G01 X-9.6957 Y31.2815
G01 X-9.7710 Y31.1981
G01 X-9.7884 Y31.1799
G01 X-9.8066 Y31.1625
G01 X-9.8900 Y31.0872
G01 X-9.9087 Y31.0719
G01 X-9.9486 Y31.0421
G01 X-9.8548 Y30.9727
G01 X-9.8358 Y30.9579
G01 X-9.8159 Y30.9407
G01 X-9.7359 Y30.8682
G01 X-9.7176 Y30.8509
G01 X-9.7003 Y30.8326
G01 X-9.6278 Y30.7526
G01 X-9.6106 Y30.7327
G01 X-9.5958 Y30.7137
G01 X-9.5315 Y30.6270
G01 X-9.5167 Y30.6059
G01 X-9.5035 Y30.5851
G01 X-9.4480 Y30.4925
G01 X-9.4352 Y30.4698
G01 X-9.4243 Y30.4481
G01 X-9.3781 Y30.3505
G01 X-9.3680 Y30.3277
G01 X-9.3588 Y30.3039
G01 X-9.3225 Y30.2023
G01 X-9.3141 Y30.1768
G01 X-9.3078 Y30.1541
G01 X-9.2816 Y30.0494
G01 X-9.2759 Y30.0240
G01 X-9.2718 Y29.9999
G01 X-9.2559 Y29.8932
G01 X-9.2529 Y29.8689
G01 X-9.2510 Y29.8430
G01 X-9.2457 Y29.7352
G01 X-9.2451 Y29.7100
G01 X-9.2457 Y29.6848
G01 X-9.2510 Y29.5770
G01 X-9.2518 Y29.5640
G01 X-9.2542 Y29.5393
G01 X-7.8986 Y28.1837
G01 X-7.1151 Y28.1837
G01 X-7.1074 Y28.2052
G01 X-7.1027 Y28.2169
G01 X-7.0977 Y28.2285
G01 X-7.0869 Y28.2512
G01 X-7.0750 Y28.2734
G01 X-7.0687 Y28.2842
G01 X-7.0621 Y28.2949
G01 X-7.0481 Y28.3158
G01 X-7.0332 Y28.3360
G01 X-7.0253 Y28.3458
G01 X-7.0172 Y28.3554
G01 X-7.0003 Y28.3740
G01 X-6.9826 Y28.3918
G01 X-6.9733 Y28.4004
G01 X-6.9543 Y28.4168
G01 X-6.9345 Y28.4323
G01 X-6.9243 Y28.4396
G01 X-6.9140 Y28.4467
G01 X-6.8927 Y28.4602
G01 X-6.8819 Y28.4665
G01 X-6.8597 Y28.4784
G01 X-6.8370 Y28.4892
G01 X-6.8254 Y28.4942
G01 X-6.8137 Y28.4989
G01 X-6.7899 Y28.5074
G01 X-6.7658 Y28.5147
G01 X-6.7535 Y28.5180
G01 X-6.7289 Y28.5235
G01 X-6.7040 Y28.5278
G01 X-6.6915 Y28.5295
G01 X-6.6664 Y28.5320
G01 X-6.6538 Y28.5328
G01 X-6.6285 Y28.5334
G01 X-4.9285 Y28.5334
G01 X-4.9032 Y28.5328
G01 X-4.8906 Y28.5320
G01 X-4.8655 Y28.5295
G01 X-4.8451 Y28.5266
G01 X-4.8480 Y28.5470
G01 X-4.8505 Y28.5721
G01 X-4.8518 Y28.5974
G01 X-4.8519 Y28.6100
G01 X-4.8519 Y29.8899
G01 X-6.4953 Y31.5332
G01 X-6.5122 Y31.5510
G01 X-6.5550 Y31.5985
G01 X-6.5703 Y31.6172
G01 X-6.5776 Y31.6268
G01 X-6.6068 Y31.6662
G01 X-6.6216 Y31.6873
G01 X-6.6348 Y31.7081
G01 X-6.6601 Y31.7502
G01 X-6.6729 Y31.7730
G01 X-6.6789 Y31.7846
G01 X-6.7098 Y31.8500
G01 X-6.7196 Y31.8736
G01 X-6.7409 Y31.9327
G00 Z2.0000
G00 X-6.6498 Y32.1145
G01 F60.00
G01 Z-0.1100
G01 F120.00
G01 X-6.6655 Y32.1044
G01 X-6.6819 Y32.0950
G01 X-6.7073 Y32.0825
G01 X-6.7337 Y32.0719
G01 X-6.7611 Y32.0631
G01 X-6.7894 Y32.0564
G01 X-6.8084 Y32.0532
G01 X-6.8959 Y32.0426
G01 X-6.9241 Y32.0409
G01 X-6.9523 Y32.0412
G01 X-6.9805 Y32.0436
G01 X-7.0084 Y32.0481
G01 X-7.0359 Y32.0546
G01 X-7.0628 Y32.0632
G01 X-7.0804 Y32.0700
G01 X-7.1008 Y32.0792
G01 X-7.1465 Y32.1013
G01 X-7.1559 Y32.0379
G01 X-7.1590 Y32.0199
G01 X-7.1632 Y32.0011
G01 X-7.1846 Y31.9164
G01 X-7.1932 Y31.8891
G01 X-7.2197 Y31.8151
G01 X-7.2302 Y31.7887
G01 X-7.2676 Y31.7095
G01 X-7.2757 Y31.6934
G01 X-7.2852 Y31.6765
G01 X-7.3256 Y31.6091
G01 X-7.3354 Y31.5936
G01 X-7.3464 Y31.5779
G01 X-7.3932 Y31.5149
G01 X-7.4100 Y31.4938
G01 X-7.4697 Y31.4277
G01 X-7.4826 Y31.4141
G01 X-7.4962 Y31.4012
G01 X-7.5544 Y31.3485
G01 X-7.5692 Y31.3357
G01 X-7.5834 Y31.3247
G01 X-7.6464 Y31.2779
G01 X-7.6621 Y31.2669
G01 X-7.6776 Y31.2571
G01 X-7.7450 Y31.2167
G01 X-7.7619 Y31.2072
G01 X-7.7780 Y31.1991
G01 X-7.8490 Y31.1655
G01 X-7.8659 Y31.1580
G01 X-7.8836 Y31.1512
G01 X-7.9576 Y31.1247
G01 X-7.9765 Y31.1185
G01 X-7.9934 Y31.1138
G01 X-8.0696 Y31.0947
G01 X-8.0884 Y31.0905
G01 X-8.1064 Y31.0874
G01 X-8.1840 Y31.0759
G01 X-8.2021 Y31.0737
G01 X-8.2213 Y31.0722
G01 X-8.2998 Y31.0684
G01 X-8.3185 Y31.0679
G01 X-8.3372 Y31.0684
G01 X-8.4157 Y31.0722
G01 X-8.4349 Y31.0737
G01 X-8.4530 Y31.0759
G01 X-8.5306 Y31.0874
G01 X-8.5575 Y31.0924
G01 X-8.6436 Y31.1138
G01 X-8.6605 Y31.1185
G01 X-8.6794 Y31.1247
G01 X-8.7534 Y31.1512
G01 X-8.7798 Y31.1617
G01 X-8.8590 Y31.1991
G01 X-8.8751 Y31.2072
G01 X-8.8920 Y31.2167
G01 X-8.9594 Y31.2571
G01 X-8.9749 Y31.2669
G01 X-8.9906 Y31.2779
G01 X-9.0536 Y31.3247
G01 X-9.0678 Y31.3357
G01 X-9.0826 Y31.3485
G01 X-9.1408 Y31.4012
G01 X-9.1544 Y31.4141
G01 X-9.1673 Y31.4277
G01 X-9.2260 Y31.4927
G01 X-9.7026 Y31.4927
G01 X-9.7091 Y31.4825
G01 X-9.7201 Y31.4668
G01 X-9.7786 Y31.3880
G01 X-9.7896 Y31.3738
G01 X-9.8024 Y31.3590
G01 X-9.8683 Y31.2863
G01 X-9.8812 Y31.2727
G01 X-9.8948 Y31.2598
G01 X-9.9675 Y31.1939
G01 X-9.9823 Y31.1811
G01 X-9.9965 Y31.1701
G01 X-10.0753 Y31.1116
G01 X-10.0910 Y31.1006
G01 X-10.1065 Y31.0908
G01 X-10.1984 Y31.0358
G01 X-10.1691 Y31.0219
G01 X-10.1519 Y31.0127
G01 X-10.0509 Y30.9523
G01 X-10.0275 Y30.9371
G01 X-9.9331 Y30.8672
G01 X-9.9189 Y30.8562
G01 X-9.9041 Y30.8434
G01 X-9.8172 Y30.7645
G01 X-9.7976 Y30.7444
G01 X-9.7251 Y30.6644
G01 X-9.7123 Y30.6496
G01 X-9.7013 Y30.6354
G01 X-9.6370 Y30.5487
G01 X-9.6260 Y30.5331
G01 X-9.6162 Y30.5176
G01 X-9.5607 Y30.4250
G01 X-9.5511 Y30.4080
G01 X-9.5430 Y30.3919
G01 X-9.4968 Y30.2943
G01 X-9.4893 Y30.2774
G01 X-9.4825 Y30.2597
G01 X-9.4461 Y30.1580
G01 X-9.4399 Y30.1391
G01 X-9.4352 Y30.1222
G01 X-9.4090 Y30.0174
G01 X-9.4031 Y29.9896
G01 X-9.3859 Y29.8739
G01 X-9.3836 Y29.8558
G01 X-9.3822 Y29.8366
G01 X-9.3765 Y29.7194
G01 X-9.3769 Y29.6913
G01 X-9.3828 Y29.5738
G01 X-9.3846 Y29.5551
G01 X-9.3937 Y29.4930
G01 X-7.9530 Y28.0523
G01 X-7.0092 Y28.0523
G01 X-7.0077 Y28.0669
G01 X-7.0049 Y28.0855
G01 X-7.0013 Y28.1039
G01 X-6.9967 Y28.1221
G01 X-6.9881 Y28.1490
G01 X-6.9814 Y28.1665
G01 X-6.9738 Y28.1837
G01 X-6.9653 Y28.2004
G01 X-6.9561 Y28.2166
G01 X-6.9408 Y28.2401
G01 X-6.9296 Y28.2552
G01 X-6.9178 Y28.2696
G01 X-6.8987 Y28.2902
G01 X-6.8851 Y28.3031
G01 X-6.8710 Y28.3153
G01 X-6.8562 Y28.3268
G01 X-6.8409 Y28.3376
G01 X-6.8251 Y28.3476
G01 X-6.8089 Y28.3568
G01 X-6.7837 Y28.3691
G01 X-6.7575 Y28.3796
G01 X-6.7397 Y28.3856
G01 X-6.7216 Y28.3906
G01 X-6.7032 Y28.3947
G01 X-6.6847 Y28.3979
G01 X-6.6567 Y28.4010
G01 X-6.6285 Y28.4021
G01 X-4.9285 Y28.4021
G01 X-4.9097 Y28.4016
G01 X-4.8816 Y28.3992
G01 X-4.8538 Y28.3947
G01 X-4.8264 Y28.3882
G01 X-4.8084 Y28.3827
G01 X-4.7907 Y28.3764
G01 X-4.7648 Y28.3652
G01 X-4.7481 Y28.3568
G01 X-4.7319 Y28.3476
G01 X-4.7161 Y28.3376
G01 X-4.7008 Y28.3268
G01 X-4.6789 Y28.3093
G01 X-4.6650 Y28.2967
G01 X-4.6518 Y28.2835
G01 X-4.6332 Y28.2625
G01 X-4.6217 Y28.2477
G01 X-4.6058 Y28.2246
G01 X-4.5962 Y28.2086
G01 X-4.5874 Y28.1921
G01 X-4.5793 Y28.1752
G01 X-4.5721 Y28.1578
G01 X-4.5658 Y28.1401
G01 X-4.5603 Y28.1221
G01 X-4.5557 Y28.1039
G01 X-4.5521 Y28.0855
G01 X-4.5483 Y28.0575
G01 X-4.5469 Y28.0388
G01 X-4.5464 Y28.0200
G01 X-4.5464 Y26.3200
G01 X-4.5475 Y26.2918
G01 X-4.5493 Y26.2731
G01 X-4.5521 Y26.2545
G01 X-4.5579 Y26.2269
G01 X-4.5630 Y26.2088
G01 X-4.5689 Y26.1910
G01 X-4.5756 Y26.1735
G01 X-4.5833 Y26.1563
G01 X-4.5917 Y26.1396
G01 X-4.6009 Y26.1234
G01 X-4.6109 Y26.1076
G01 X-4.6217 Y26.0923
G01 X-4.6332 Y26.0775
G01 X-4.6454 Y26.0634
G01 X-4.6583 Y26.0498
G01 X-4.6684 Y26.0402
G01 X-4.5612 Y26.0456
G01 X-4.5425 Y26.0460
G01 X-4.5237 Y26.0456
G01 X-4.4142 Y26.0400
G01 X-4.1318 Y26.3224
G01 X-4.1787 Y26.3742
G01 X-4.1970 Y26.3960
G01 X-4.2521 Y26.4702
G01 X-4.2682 Y26.4935
G01 X-4.3159 Y26.5729
G01 X-4.3254 Y26.5898
G01 X-4.3335 Y26.6060
G01 X-4.3692 Y26.6814
G01 X-4.3802 Y26.7071
G01 X-4.4116 Y26.7945
G01 X-4.4179 Y26.8135
G01 X-4.4225 Y26.8304
G01 X-4.4428 Y26.9113
G01 X-4.4470 Y26.9302
G01 X-4.4501 Y26.9481
G01 X-4.4624 Y27.0306
G01 X-4.4646 Y27.0487
G01 X-4.4660 Y27.0679
G01 X-4.4701 Y27.1513
G01 X-4.4706 Y27.1700
G01 X-4.4701 Y27.1887
G01 X-4.4660 Y27.2721
G01 X-4.4646 Y27.2913
G01 X-4.4624 Y27.3094
G01 X-4.4501 Y27.3919
G01 X-4.4470 Y27.4098
G01 X-4.4428 Y27.4287
G01 X-4.4225 Y27.5096
G01 X-4.4179 Y27.5265
G01 X-4.4116 Y27.5455
G01 X-4.3835 Y27.6240
G01 X-4.3767 Y27.6417
G01 X-4.3692 Y27.6586
G01 X-4.3335 Y27.7340
G01 X-4.3254 Y27.7502
G01 X-4.3159 Y27.7671
G01 X-4.2730 Y27.8387
G01 X-4.2632 Y27.8542
G01 X-4.2521 Y27.8698
G01 X-4.2024 Y27.9368
G01 X-4.1914 Y27.9510
G01 X-4.1787 Y27.9658
G01 X-4.1208 Y28.0296
G01 X-4.1208 Y28.2279
G01 X-4.3385 Y28.2279
G01 X-4.3573 Y28.2284
G01 X-4.3760 Y28.2298
G01 X-4.3947 Y28.2321
G01 X-4.4132 Y28.2353
G01 X-4.4406 Y28.2418
G01 X-4.4675 Y28.2504
G01 X-4.4937 Y28.2609
G01 X-4.5106 Y28.2689
G01 X-4.5271 Y28.2777
G01 X-4.5431 Y28.2873
G01 X-4.5662 Y28.3032
G01 X-4.5810 Y28.3147
G01 X-4.5951 Y28.3269
G01 X-4.6087 Y28.3398
G01 X-4.6216 Y28.3534
G01 X-4.6338 Y28.3675
G01 X-4.6453 Y28.3823
G01 X-4.6561 Y28.3976
G01 X-4.6661 Y28.4133
G01 X-4.6753 Y28.4296
G01 X-4.6837 Y28.4463
G01 X-4.6914 Y28.4634
G01 X-4.6981 Y28.4810
G01 X-4.7040 Y28.4988
G01 X-4.7091 Y28.5169
G01 X-4.7149 Y28.5445
G01 X-4.7187 Y28.5725
G01 X-4.7205 Y28.6006
G01 X-4.7206 Y29.9443
G01 X-6.4024 Y31.6261
G01 X-6.4150 Y31.6393
G01 X-6.4483 Y31.6761
G01 X-6.4611 Y31.6909
G01 X-6.4721 Y31.7050
G01 X-6.5069 Y31.7522
G01 X-6.5174 Y31.7678
G01 X-6.5474 Y31.8178
G01 X-6.5570 Y31.8347
G01 X-6.5651 Y31.8508
G01 X-6.5861 Y31.8952
G01 X-6.5936 Y31.9121
G01 X-6.6004 Y31.9298
G01 X-6.6170 Y31.9761
G01 X-6.6232 Y31.9950
G01 X-6.6278 Y32.0119
G01 X-6.6421 Y32.0695
G01 X-6.6456 Y32.0874
G01 X-6.6498 Y32.1145
G00 Z2.0000
G00 X-3.7780 Y32.9979
G01 F60.00
G01 Z-0.1100
G01 F120.00
G01 X-3.7695 Y32.9890
G01 X-2.4995 Y31.7190
G01 X-2.4906 Y31.7105
G01 X-2.4542 Y31.6775
G01 X-2.4445 Y31.6691
G01 X-2.3958 Y31.6327
G01 X-2.3805 Y31.6221
G01 X-2.3277 Y31.5905
G01 X-2.3115 Y31.5822
G01 X-2.2560 Y31.5562
G01 X-2.1982 Y31.5352
G01 X-2.1858 Y31.5311
G01 X-2.1746 Y31.5281
G01 X-2.1205 Y31.5146
G01 X-2.1029 Y31.5113
G01 X-2.0425 Y31.5027
G01 X-2.0298 Y31.5017
G01 X-1.9808 Y31.4993
G01 X-1.9685 Y31.4990
G01 X-1.4331 Y31.4990
G01 X-1.3744 Y31.4458
G01 X-1.3647 Y31.4374
G01 X-1.3554 Y31.4302
G01 X-1.2923 Y31.3834
G01 X-1.2820 Y31.3762
G01 X-1.2719 Y31.3698
G01 X-1.2045 Y31.3294
G01 X-1.1934 Y31.3231
G01 X-1.1828 Y31.3178
G01 X-1.1119 Y31.2842
G01 X-1.1008 Y31.2793
G01 X-1.0891 Y31.2748
G01 X-1.0152 Y31.2484
G01 X-1.0028 Y31.2443
G01 X-0.9155 Y31.2221
G01 X-0.9031 Y31.2194
G01 X-0.8137 Y31.2058
G01 X-0.8019 Y31.2044
G01 X-0.7892 Y31.2034
G01 X-0.7108 Y31.1996
G01 X-0.6985 Y31.1993
G01 X-0.6862 Y31.1996
G01 X-0.6078 Y31.2034
G01 X-0.5951 Y31.2044
G01 X-0.5833 Y31.2058
G01 X-0.4997 Y31.2183
G01 X-0.4815 Y31.2221
G01 X-0.4053 Y31.2412
G01 X-0.3942 Y31.2443
G01 X-0.3818 Y31.2484
G01 X-0.3079 Y31.2748
G01 X-0.2962 Y31.2793
G01 X-0.2851 Y31.2842
G01 X-0.2142 Y31.3178
G01 X-0.2036 Y31.3231
G01 X-0.1925 Y31.3294
G01 X-0.1251 Y31.3698
G01 X-0.1150 Y31.3762
G01 X-0.1047 Y31.3834
G01 X-0.0416 Y31.4302
G01 X-0.0323 Y31.4374
G01 X-0.0226 Y31.4458
G01 X0.0356 Y31.4985
G01 X0.0445 Y31.5070
G01 X0.0530 Y31.5159
G01 X0.1057 Y31.5741
G01 X0.1141 Y31.5838
G01 X0.1213 Y31.5931
G01 X0.1681 Y31.6562
G01 X0.1753 Y31.6665
G01 X0.1817 Y31.6766
G01 X0.2221 Y31.7440
G01 X0.2284 Y31.7551
G01 X0.2337 Y31.7657
G01 X0.2673 Y31.8366
G01 X0.2722 Y31.8477
G01 X0.2767 Y31.8594
G01 X0.3053 Y31.9395
G01 X0.3103 Y31.9568
G01 X0.3294 Y32.0330
G01 X0.3321 Y32.0454
G01 X0.3342 Y32.0571
G01 X0.3471 Y32.1466
G01 X0.3481 Y32.1593
G01 X0.3519 Y32.2377
G01 X0.3522 Y32.2500
G01 X0.3519 Y32.2623
G01 X0.3481 Y32.3407
G01 X0.3471 Y32.3534
G01 X0.3342 Y32.4429
G01 X0.3321 Y32.4546
G01 X0.3294 Y32.4670
G01 X0.3103 Y32.5432
G01 X0.3072 Y32.5543
G01 X0.3031 Y32.5667
G01 X0.2767 Y32.6406
G01 X0.2722 Y32.6523
G01 X0.2673 Y32.6634
G01 X0.2284 Y32.7449
G01 X0.2221 Y32.7560
G01 X0.1817 Y32.8234
G01 X0.1753 Y32.8335
G01 X0.1681 Y32.8438
G01 X0.1213 Y32.9069
G01 X0.1141 Y32.9162
G01 X0.1057 Y32.9259
G01 X0.0530 Y32.9841
G01 X0.0445 Y32.9930
G01 X0.0356 Y33.0015
G01 X-0.0226 Y33.0542
G01 X-0.0323 Y33.0626
G01 X-0.1047 Y33.1166
G01 X-0.1150 Y33.1238
G01 X-0.1251 Y33.1302
G01 X-0.1925 Y33.1706
G01 X-0.2036 Y33.1769
G01 X-0.2851 Y33.2158
G01 X-0.2962 Y33.2207
G01 X-0.3079 Y33.2252
G01 X-0.3818 Y33.2516
G01 X-0.3942 Y33.2557
G01 X-0.4053 Y33.2588
G01 X-0.4815 Y33.2779
G01 X-0.4939 Y33.2806
G01 X-0.5056 Y33.2827
G01 X-0.5951 Y33.2956
G01 X-0.6078 Y33.2966
G01 X-0.6862 Y33.3004
G01 X-0.6985 Y33.3007
G01 X-0.7108 Y33.3004
G01 X-0.7955 Y33.2962
G01 X-0.8137 Y33.2942
G01 X-0.9031 Y33.2806
G01 X-0.9155 Y33.2779
G01 X-0.9917 Y33.2588
G01 X-1.0028 Y33.2557
G01 X-1.0152 Y33.2516
G01 X-1.0891 Y33.2252
G01 X-1.1008 Y33.2207
G01 X-1.1119 Y33.2158
G01 X-1.1934 Y33.1769
G01 X-1.2045 Y33.1706
G01 X-1.2719 Y33.1302
G01 X-1.2820 Y33.1238
G01 X-1.2923 Y33.1166
G01 X-1.3647 Y33.0626
G01 X-1.3744 Y33.0542
G01 X-1.4331 Y33.0010
G01 X-1.6574 Y33.0010
G01 X-2.4875 Y33.8311
G01 X-2.4875 Y35.1343
G01 X-2.2860 Y35.1343
G01 X-2.2675 Y35.1349
G01 X-2.2552 Y35.1362
G01 X-2.2430 Y35.1380
G01 X-2.2309 Y35.1404
G01 X-2.2190 Y35.1434
G01 X-2.2072 Y35.1470
G01 X-2.1956 Y35.1511
G01 X-2.1842 Y35.1559
G01 X-2.1731 Y35.1611
G01 X-2.1570 Y35.1700
G01 X-2.1466 Y35.1766
G01 X-2.1366 Y35.1837
G01 X-2.1222 Y35.1952
G01 X-2.1087 Y35.2077
G01 X-2.0962 Y35.2212
G01 X-2.0884 Y35.2307
G01 X-2.0776 Y35.2456
G01 X-2.0679 Y35.2613
G01 X-2.0594 Y35.2776
G01 X-2.0521 Y35.2946
G01 X-2.0480 Y35.3062
G01 X-2.0428 Y35.3239
G01 X-2.0401 Y35.3360
G01 X-2.0372 Y35.3542
G01 X-2.0359 Y35.3665
G01 X-2.0353 Y35.3850
G01 X-2.0353 Y37.3850
G01 X-2.0359 Y37.4035
G01 X-2.0380 Y37.4219
G01 X-2.0414 Y37.4401
G01 X-2.0461 Y37.4579
G01 X-2.0521 Y37.4754
G01 X-2.0594 Y37.4924
G01 X-2.0679 Y37.5087
G01 X-2.0776 Y37.5244
G01 X-2.0884 Y37.5393
G01 X-2.1002 Y37.5534
G01 X-2.1131 Y37.5666
G01 X-2.1269 Y37.5788
G01 X-2.1415 Y37.5899
G01 X-2.1570 Y37.6000
G01 X-2.1731 Y37.6089
G01 X-2.1898 Y37.6166
G01 X-2.2072 Y37.6230
G01 X-2.2249 Y37.6282
G01 X-2.2430 Y37.6320
G01 X-2.2614 Y37.6345
G01 X-2.2737 Y37.6354
G01 X-2.2860 Y37.6357
G01 X-4.1910 Y37.6357
G01 X-4.2095 Y37.6351
G01 X-4.2279 Y37.6330
G01 X-4.2461 Y37.6296
G01 X-4.2639 Y37.6249
G01 X-4.2814 Y37.6189
G01 X-4.2984 Y37.6116
G01 X-4.3147 Y37.6031
G01 X-4.3304 Y37.5934
G01 X-4.3453 Y37.5826
G01 X-4.3594 Y37.5708
G01 X-4.3726 Y37.5579
G01 X-4.3848 Y37.5441
G01 X-4.3959 Y37.5295
G01 X-4.4060 Y37.5140
G01 X-4.4149 Y37.4979
G01 X-4.4226 Y37.4812
G01 X-4.4290 Y37.4638
G01 X-4.4342 Y37.4461
G01 X-4.4380 Y37.4280
G01 X-4.4398 Y37.4158
G01 X-4.4411 Y37.4035
G01 X-4.4417 Y37.3850
G01 X-4.4417 Y35.3850
G01 X-4.4411 Y35.3665
G01 X-4.4390 Y35.3481
G01 X-4.4356 Y35.3299
G01 X-4.4326 Y35.3180
G01 X-4.4290 Y35.3062
G01 X-4.4226 Y35.2888
G01 X-4.4176 Y35.2776
G01 X-4.4091 Y35.2613
G01 X-4.3994 Y35.2456
G01 X-4.3923 Y35.2356
G01 X-4.3808 Y35.2212
G01 X-4.3726 Y35.2121
G01 X-4.3639 Y35.2034
G01 X-4.3501 Y35.1912
G01 X-4.3404 Y35.1837
G01 X-4.3253 Y35.1732
G01 X-4.3094 Y35.1640
G01 X-4.2984 Y35.1584
G01 X-4.2872 Y35.1534
G01 X-4.2757 Y35.1490
G01 X-4.2640 Y35.1451
G01 X-4.2521 Y35.1418
G01 X-4.2400 Y35.1391
G01 X-4.2279 Y35.1370
G01 X-4.2095 Y35.1349
G01 X-4.1910 Y35.1343
G01 X-3.9895 Y35.1343
G01 X-3.9895 Y33.5200
G01 X-3.9868 Y33.4587
G01 X-3.9858 Y33.4460
G01 X-3.9772 Y33.3856
G01 X-3.9751 Y33.3739
G01 X-3.9724 Y33.3615
G01 X-3.9604 Y33.3139
G01 X-3.9554 Y33.2965
G01 X-3.9368 Y33.2441
G01 X-3.9323 Y33.2325
G01 X-3.9273 Y33.2214
G01 X-3.9010 Y33.1664
G01 X-3.8947 Y33.1553
G01 X-3.8631 Y33.1030
G01 X-3.8558 Y33.0927
G01 X-3.8194 Y33.0440
G01 X-3.8110 Y33.0343
G01 X-3.7780 Y32.9979
G00 Z2.0000
G00 X-3.6807 Y33.0861
G01 F60.00
G01 Z-0.1100
G01 F120.00
G01 X-2.4046 Y31.8098
G01 X-2.3660 Y31.7748
G01 X-2.3570 Y31.7674
G01 X-2.3127 Y31.7347
G01 X-2.2657 Y31.7064
G01 X-2.2554 Y31.7009
G01 X-2.2057 Y31.6775
G01 X-2.1539 Y31.6589
G01 X-2.1454 Y31.6562
G01 X-2.0892 Y31.6422
G01 X-2.0351 Y31.6341
G01 X-2.0234 Y31.6329
G01 X-1.9714 Y31.6304
G01 X-1.3764 Y31.6303
G01 X-1.3527 Y31.6041
G01 X-1.3465 Y31.5978
G01 X-1.2837 Y31.5409
G01 X-1.2771 Y31.5357
G01 X-1.2117 Y31.4872
G01 X-1.2043 Y31.4824
G01 X-1.1317 Y31.4391
G01 X-1.0557 Y31.4030
G01 X-1.0477 Y31.3995
G01 X-0.9710 Y31.3720
G01 X-0.9597 Y31.3686
G01 X-0.8777 Y31.3482
G01 X-0.7944 Y31.3357
G01 X-0.7828 Y31.3346
G01 X-0.6985 Y31.3306
G01 X-0.6142 Y31.3346
G01 X-0.6026 Y31.3357
G01 X-0.5193 Y31.3482
G01 X-0.4373 Y31.3686
G01 X-0.4260 Y31.3720
G01 X-0.3466 Y31.4006
G01 X-0.2703 Y31.4365
G01 X-0.2600 Y31.4421
G01 X-0.1878 Y31.4855
G01 X-0.1154 Y31.5391
G01 X-0.0526 Y31.5958
G01 X-0.0443 Y31.6041
G01 X0.0124 Y31.6669
G01 X0.0660 Y31.7393
G01 X0.1094 Y31.8115
G01 X0.1150 Y31.8218
G01 X0.1509 Y31.8981
G01 X0.1805 Y31.9805
G01 X0.1829 Y31.9888
G01 X0.2033 Y32.0708
G01 X0.2158 Y32.1541
G01 X0.2169 Y32.1657
G01 X0.2208 Y32.2441
G01 X0.2208 Y32.2559
G01 X0.2165 Y32.3403
G01 X0.2033 Y32.4292
G01 X0.1814 Y32.5165
G01 X0.1530 Y32.5964
G01 X0.1485 Y32.6072
G01 X0.1150 Y32.6782
G01 X0.1094 Y32.6885
G01 X0.0660 Y32.7607
G01 X0.0124 Y32.8331
G01 X-0.0484 Y32.9001
G01 X-0.1108 Y32.9569
G01 X-0.1199 Y32.9643
G01 X-0.1829 Y33.0111
G01 X-0.1902 Y33.0161
G01 X-0.2653 Y33.0609
G01 X-0.3466 Y33.0994
G01 X-0.4320 Y33.1299
G01 X-0.5134 Y33.1504
G01 X-0.5249 Y33.1527
G01 X-0.6026 Y33.1643
G01 X-0.6142 Y33.1654
G01 X-0.6985 Y33.1694
G01 X-0.7888 Y33.1650
G01 X-0.8777 Y33.1518
G01 X-0.9650 Y33.1299
G01 X-1.0504 Y33.0994
G01 X-1.1290 Y33.0623
G01 X-1.1370 Y33.0579
G01 X-1.2092 Y33.0145
G01 X-1.2794 Y32.9626
G01 X-1.2862 Y32.9569
G01 X-1.3465 Y32.9022
G01 X-1.3527 Y32.8959
G01 X-1.3764 Y32.8697
G01 X-1.7118 Y32.8697
G01 X-2.6188 Y33.7767
G01 X-2.6188 Y35.2656
G01 X-2.2860 Y35.2656
G01 X-2.2713 Y35.2665
G01 X-2.2569 Y35.2692
G01 X-2.2485 Y35.2717
G01 X-2.2402 Y35.2747
G01 X-2.2322 Y35.2784
G01 X-2.2245 Y35.2826
G01 X-2.2172 Y35.2874
G01 X-2.2102 Y35.2927
G01 X-2.2016 Y35.3006
G01 X-2.1956 Y35.3070
G01 X-2.1884 Y35.3162
G01 X-2.1836 Y35.3235
G01 X-2.1794 Y35.3312
G01 X-2.1757 Y35.3392
G01 X-2.1727 Y35.3475
G01 X-2.1702 Y35.3559
G01 X-2.1684 Y35.3645
G01 X-2.1672 Y35.3733
G01 X-2.1666 Y35.3850
G01 X-2.1667 Y37.3909
G01 X-2.1675 Y37.3996
G01 X-2.1689 Y37.4083
G01 X-2.1709 Y37.4169
G01 X-2.1736 Y37.4253
G01 X-2.1769 Y37.4335
G01 X-2.1807 Y37.4414
G01 X-2.1852 Y37.4489
G01 X-2.1901 Y37.4562
G01 X-2.1956 Y37.4630
G01 X-2.2016 Y37.4694
G01 X-2.2080 Y37.4754
G01 X-2.2172 Y37.4826
G01 X-2.2246 Y37.4874
G01 X-2.2322 Y37.4916
G01 X-2.2402 Y37.4953
G01 X-2.2485 Y37.4983
G01 X-2.2598 Y37.5015
G01 X-2.2684 Y37.5031
G01 X-2.2772 Y37.5041
G01 X-2.2860 Y37.5044
G01 X-4.1939 Y37.5044
G01 X-4.2027 Y37.5038
G01 X-4.2115 Y37.5026
G01 X-4.2201 Y37.5008
G01 X-4.2285 Y37.4983
G01 X-4.2368 Y37.4953
G01 X-4.2448 Y37.4916
G01 X-4.2524 Y37.4874
G01 X-4.2622 Y37.4809
G01 X-4.2690 Y37.4754
G01 X-4.2754 Y37.4694
G01 X-4.2814 Y37.4630
G01 X-4.2886 Y37.4538
G01 X-4.2934 Y37.4465
G01 X-4.2976 Y37.4388
G01 X-4.3013 Y37.4308
G01 X-4.3043 Y37.4225
G01 X-4.3068 Y37.4141
G01 X-4.3091 Y37.4026
G01 X-4.3101 Y37.3938
G01 X-4.3104 Y37.3850
G01 X-4.3104 Y35.3850
G01 X-4.3101 Y35.3762
G01 X-4.3091 Y35.3674
G01 X-4.3075 Y35.3588
G01 X-4.3052 Y35.3503
G01 X-4.3024 Y35.3419
G01 X-4.2989 Y35.3338
G01 X-4.2948 Y35.3261
G01 X-4.2902 Y35.3186
G01 X-4.2851 Y35.3115
G01 X-4.2795 Y35.3048
G01 X-4.2712 Y35.2965
G01 X-4.2645 Y35.2909
G01 X-4.2574 Y35.2858
G01 X-4.2499 Y35.2812
G01 X-4.2421 Y35.2771
G01 X-4.2341 Y35.2736
G01 X-4.2257 Y35.2708
G01 X-4.2172 Y35.2685
G01 X-4.2057 Y35.2665
G01 X-4.1910 Y35.2656
G01 X-3.8582 Y35.2656
G01 X-3.8582 Y33.5200
G01 X-3.8554 Y33.4621
G01 X-3.8544 Y33.4534
G01 X-3.8463 Y33.3993
G01 X-3.8330 Y33.3458
G01 X-3.8296 Y33.3346
G01 X-3.8131 Y33.2883
G01 X-3.8086 Y33.2775
G01 X-3.7851 Y33.2281
G01 X-3.7538 Y33.1758
G01 X-3.7177 Y33.1271
G01 X-3.6807 Y33.0861
G00 Z2.0000
G00 X-4.7027 Y35.3433
G01 F60.00
G01 Z-0.1100
G01 F120.00
G01 X-4.7331 Y35.3100
G01 X-4.7510 Y35.2921
G01 X-4.7648 Y35.2794
G01 X-4.7648 Y32.6699
G01 X-3.4184 Y31.3234
G01 X-2.3788 Y31.3234
G01 X-2.4238 Y31.3447
G01 X-2.4455 Y31.3556
G01 X-2.4683 Y31.3684
G01 X-2.5104 Y31.3937
G01 X-2.5312 Y31.4069
G01 X-2.5523 Y31.4217
G01 X-2.5917 Y31.4509
G01 X-2.6107 Y31.4657
G01 X-2.6306 Y31.4829
G01 X-2.6670 Y31.5159
G01 X-2.6853 Y31.5332
G01 X-3.9638 Y32.8120
G01 X-4.0056 Y32.8579
G01 X-4.0228 Y32.8778
G01 X-4.0376 Y32.8968
G01 X-4.0668 Y32.9362
G01 X-4.0744 Y32.9467
G01 X-4.0884 Y32.9676
G01 X-4.1266 Y33.0315
G01 X-4.1329 Y33.0430
G01 X-4.1438 Y33.0647
G01 X-4.1648 Y33.1090
G01 X-4.1749 Y33.1318
G01 X-4.1841 Y33.1556
G01 X-4.2006 Y33.2018
G01 X-4.2090 Y33.2273
G01 X-4.2152 Y33.2500
G01 X-4.2272 Y33.2977
G01 X-4.2328 Y33.3230
G01 X-4.2370 Y33.3471
G01 X-4.2442 Y33.3956
G01 X-4.2472 Y33.4199
G01 X-4.2483 Y33.4328
G01 X-4.2516 Y33.4948
G01 X-4.2522 Y33.5200
G01 X-4.2522 Y34.8753
G01 X-4.2665 Y34.8772
G01 X-4.2914 Y34.8815
G01 X-4.3160 Y34.8870
G01 X-4.3404 Y34.8938
G01 X-4.3644 Y34.9017
G01 X-4.3762 Y34.9061
G01 X-4.3995 Y34.9158
G01 X-4.4222 Y34.9266
G01 X-4.4444 Y34.9385
G01 X-4.4659 Y34.9514
G01 X-4.4765 Y34.9583
G01 X-4.4970 Y34.9727
G01 X-4.5168 Y34.9882
G01 X-4.5358 Y35.0046
G01 X-4.5540 Y35.0220
G01 X-4.5628 Y35.0310
G01 X-4.5797 Y35.0496
G01 X-4.5878 Y35.0592
G01 X-4.6033 Y35.0790
G01 X-4.6177 Y35.0995
G01 X-4.6312 Y35.1208
G01 X-4.6436 Y35.1426
G01 X-4.6549 Y35.1651
G01 X-4.6602 Y35.1765
G01 X-4.6699 Y35.1998
G01 X-4.6784 Y35.2236
G01 X-4.6857 Y35.2477
G01 X-4.6890 Y35.2600
G01 X-4.6919 Y35.2722
G01 X-4.6968 Y35.2970
G01 X-4.7005 Y35.3220
G01 X-4.7027 Y35.3433
G00 Z2.0000
G00 X-6.3982 Y35.4640
G01 F60.00
G01 Z-0.1100
G01 F120.00
G01 X-6.3981 Y32.2471
G01 X-6.3951 Y32.1891
G01 X-6.3863 Y32.1293
G01 X-6.3716 Y32.0705
G01 X-6.3531 Y32.0183
G01 X-6.3486 Y32.0075
G01 X-6.3251 Y31.9581
G01 X-6.2938 Y31.9058
G01 X-6.2577 Y31.8571
G01 X-6.2187 Y31.8139
G01 X-4.4579 Y30.0531
G01 X-4.4579 Y28.6071
G01 X-4.4573 Y28.5983
G01 X-4.4561 Y28.5895
G01 X-4.4543 Y28.5809
G01 X-4.4518 Y28.5725
G01 X-4.4488 Y28.5642
G01 X-4.4451 Y28.5562
G01 X-4.4409 Y28.5485
G01 X-4.4361 Y28.5412
G01 X-4.4270 Y28.5298
G01 X-4.4187 Y28.5215
G01 X-4.4073 Y28.5124
G01 X-4.3974 Y28.5062
G01 X-4.3843 Y28.4997
G01 X-4.3732 Y28.4958
G01 X-4.3619 Y28.4929
G01 X-4.3502 Y28.4912
G01 X-4.3385 Y28.4906
G01 X-3.8582 Y28.4906
G01 X-3.8582 Y27.9153
G01 X-3.9240 Y27.8555
G01 X-3.9840 Y27.7894
G01 X-3.9915 Y27.7804
G01 X-4.0412 Y27.7134
G01 X-4.0477 Y27.7036
G01 X-4.0935 Y27.6268
G01 X-4.1317 Y27.5463
G01 X-4.1362 Y27.5355
G01 X-4.1663 Y27.4511
G01 X-4.1893 Y27.3589
G01 X-4.2032 Y27.2652
G01 X-4.2079 Y27.1700
G01 X-4.2032 Y27.0748
G01 X-4.1893 Y26.9811
G01 X-4.1663 Y26.8889
G01 X-4.1362 Y26.8045
G01 X-4.1317 Y26.7937
G01 X-4.0935 Y26.7132
G01 X-4.0477 Y26.6364
G01 X-4.0412 Y26.6266
G01 X-3.9915 Y26.5596
G01 X-3.9840 Y26.5506
G01 X-3.9240 Y26.4845
G01 X-3.8582 Y26.4247
G01 X-3.8582 Y26.2246
G01 X-4.3214 Y25.7613
G01 X-4.3299 Y25.7629
G01 X-4.4326 Y25.7780
G01 X-4.5425 Y25.7834
G01 X-4.6524 Y25.7780
G01 X-4.7551 Y25.7629
G01 X-4.7666 Y25.7606
G01 X-4.8671 Y25.7353
G01 X-4.9654 Y25.7003
G01 X-4.9762 Y25.6958
G01 X-5.0649 Y25.6538
G01 X-5.0752 Y25.6483
G01 X-5.1643 Y25.5948
G01 X-5.2524 Y25.5294
G01 X-5.3340 Y25.4555
G01 X-5.4079 Y25.3739
G01 X-5.4733 Y25.2858
G01 X-5.5298 Y25.1915
G01 X-5.5766 Y25.0924
G01 X-5.6138 Y24.9886
G01 X-5.6404 Y24.8822
G01 X-5.6565 Y24.7739
G01 X-5.6619 Y24.6640
G01 X-5.6569 Y24.5601
G01 X-5.6558 Y24.5484
G01 X-5.6414 Y24.4514
G01 X-5.6391 Y24.4399
G01 X-5.6138 Y24.3394
G01 X-5.5788 Y24.2411
G01 X-5.5743 Y24.2302
G01 X-5.5298 Y24.1365
G01 X-5.4733 Y24.0422
G01 X-5.4079 Y23.9540
G01 X-5.3380 Y23.8767
G01 X-5.3298 Y23.8684
G01 X-5.2570 Y23.8025
G01 X-5.2480 Y23.7950
G01 X-5.1643 Y23.7331
G01 X-5.0752 Y23.6796
G01 X-5.0649 Y23.6741
G01 X-4.9709 Y23.6298
G01 X-4.8671 Y23.5927
G01 X-4.7607 Y23.5660
G01 X-4.6580 Y23.5507
G01 X-4.6463 Y23.5495
G01 X-4.5425 Y23.5446
G01 X-4.4386 Y23.5495
G01 X-4.4269 Y23.5507
G01 X-4.3270 Y23.5655
G01 X-4.3184 Y23.5674
G01 X-4.2179 Y23.5927
G01 X-4.1140 Y23.6298
G01 X-4.0150 Y23.6766
G01 X-3.9255 Y23.7301
G01 X-3.9158 Y23.7366
G01 X-3.8369 Y23.7950
G01 X-3.8279 Y23.8025
G01 X-3.7509 Y23.8724
G01 X-3.6810 Y23.9494
G01 X-3.6735 Y23.9584
G01 X-3.6151 Y24.0373
G01 X-3.6086 Y24.0470
G01 X-3.5551 Y24.1365
G01 X-3.5106 Y24.2302
G01 X-3.5062 Y24.2411
G01 X-3.4712 Y24.3394
G01 X-3.4459 Y24.4399
G01 X-3.4436 Y24.4514
G01 X-3.4285 Y24.5541
G01 X-3.4231 Y24.6640
G01 X-3.4285 Y24.7739
G01 X-3.4436 Y24.8766
G01 X-3.4451 Y24.8850
G01 X-2.8003 Y25.5298
G01 X-2.7633 Y25.5704
G01 X-2.7559 Y25.5794
G01 X-2.7232 Y25.6238
G01 X-2.6919 Y25.6760
G01 X-2.6660 Y25.7307
G01 X-2.6464 Y25.7854
G01 X-2.6440 Y25.7937
G01 X-2.6320 Y25.8413
G01 X-2.6298 Y25.8528
G01 X-2.6219 Y25.9070
G01 X-2.6190 Y25.9621
G01 X-2.6188 Y26.4247
G01 X-2.5530 Y26.4845
G01 X-2.4930 Y26.5506
G01 X-2.4855 Y26.5596
G01 X-2.4358 Y26.6266
G01 X-2.4293 Y26.6364
G01 X-2.3835 Y26.7132
G01 X-2.3453 Y26.7937
G01 X-2.3408 Y26.8045
G01 X-2.3107 Y26.8889
G01 X-2.2877 Y26.9811
G01 X-2.2738 Y27.0748
G01 X-2.2691 Y27.1700
G01 X-2.2738 Y27.2652
G01 X-2.2877 Y27.3589
G01 X-2.3107 Y27.4511
G01 X-2.3408 Y27.5355
G01 X-2.3453 Y27.5463
G01 X-2.3835 Y27.6268
G01 X-2.4293 Y27.7036
G01 X-2.4358 Y27.7134
G01 X-2.4855 Y27.7804
G01 X-2.4930 Y27.7894
G01 X-2.5530 Y27.8555
G01 X-2.6188 Y27.9153
G01 X-2.6188 Y28.4906
G01 X-2.1385 Y28.4906
G01 X-2.1297 Y28.4909
G01 X-2.1209 Y28.4919
G01 X-2.1123 Y28.4935
G01 X-2.1038 Y28.4958
G01 X-2.0954 Y28.4986
G01 X-2.0874 Y28.5021
G01 X-2.0796 Y28.5062
G01 X-2.0721 Y28.5108
G01 X-2.0650 Y28.5159
G01 X-2.0583 Y28.5215
G01 X-2.0520 Y28.5277
G01 X-2.0462 Y28.5342
G01 X-2.0409 Y28.5412
G01 X-2.0361 Y28.5485
G01 X-2.0319 Y28.5562
G01 X-2.0282 Y28.5642
G01 X-2.0252 Y28.5725
G01 X-2.0227 Y28.5809
G01 X-2.0200 Y28.5953
G01 X-2.0191 Y28.6100
G01 X-2.0191 Y30.8100
G01 X-2.0197 Y30.8217
G01 X-2.0209 Y30.8305
G01 X-2.0227 Y30.8391
G01 X-2.0252 Y30.8475
G01 X-2.0282 Y30.8558
G01 X-2.0332 Y30.8664
G01 X-2.0393 Y30.8764
G01 X-2.0444 Y30.8835
G01 X-2.0500 Y30.8902
G01 X-2.0583 Y30.8985
G01 X-2.0650 Y30.9041
G01 X-2.0746 Y30.9108
G01 X-2.0847 Y30.9166
G01 X-2.0927 Y30.9203
G01 X-2.1010 Y30.9233
G01 X-2.1094 Y30.9258
G01 X-2.1180 Y30.9276
G01 X-2.1297 Y30.9291
G01 X-2.1385 Y30.9294
G01 X-3.5816 Y30.9294
G01 X-5.1588 Y32.5067
G01 X-5.1588 Y35.4640
G01 X-5.0987 Y35.5088
G01 X-5.0248 Y35.5755
G01 X-5.0165 Y35.5838
G01 X-4.9498 Y35.6577
G01 X-4.8906 Y35.7372
G01 X-4.8841 Y35.7469
G01 X-4.8331 Y35.8324
G01 X-4.7906 Y35.9219
G01 X-4.7861 Y35.9328
G01 X-4.7527 Y36.0267
G01 X-4.7285 Y36.1227
G01 X-4.7266 Y36.1314
G01 X-4.7125 Y36.2266
G01 X-4.7115 Y36.2353
G01 X-4.7066 Y36.3346
G01 X-4.7066 Y36.4325
G01 X-4.7118 Y36.5377
G01 X-4.7262 Y36.6358
G01 X-4.7285 Y36.6473
G01 X-4.7527 Y36.7433
G01 X-4.7861 Y36.8372
G01 X-4.7906 Y36.8481
G01 X-4.8331 Y36.9376
G01 X-4.8872 Y37.0279
G01 X-4.9463 Y37.1079
G01 X-4.9537 Y37.1169
G01 X-5.0206 Y37.1904
G01 X-5.0941 Y37.2573
G01 X-5.1031 Y37.2647
G01 X-5.1831 Y37.3238
G01 X-5.2734 Y37.3779
G01 X-5.3682 Y37.4228
G01 X-5.4677 Y37.4584
G01 X-5.5696 Y37.4838
G01 X-5.6733 Y37.4992
G01 X-5.7785 Y37.5044
G01 X-5.8837 Y37.4992
G01 X-5.9874 Y37.4838
G01 X-6.0893 Y37.4584
G01 X-6.1888 Y37.4228
G01 X-6.2836 Y37.3779
G01 X-6.3739 Y37.3238
G01 X-6.4583 Y37.2612
G01 X-6.5364 Y37.1904
G01 X-6.6072 Y37.1123
G01 X-6.6698 Y37.0279
G01 X-6.7239 Y36.9376
G01 X-6.7688 Y36.8428
G01 X-6.8044 Y36.7433
G01 X-6.8285 Y36.6473
G01 X-6.8304 Y36.6386
G01 X-6.8445 Y36.5434
G01 X-6.8455 Y36.5347
G01 X-6.8504 Y36.4354
G01 X-6.8504 Y36.3375
G01 X-6.8452 Y36.2323
G01 X-6.8304 Y36.1314
G01 X-6.8285 Y36.1227
G01 X-6.8044 Y36.0267
G01 X-6.7688 Y35.9272
G01 X-6.7239 Y35.8324
G01 X-6.6714 Y35.7445
G01 X-6.6664 Y35.7372
G01 X-6.6072 Y35.6577
G01 X-6.5385 Y35.5816
G01 X-6.5322 Y35.5755
G01 X-6.4605 Y35.5106
G01 X-6.4539 Y35.5053
G01 X-6.3982 Y35.4640
G00 Z2.0000
G00 X-6.5295 Y35.3979
G01 F60.00
G01 Z-0.1100
G01 F120.00
G01 X-6.5294 Y32.2438
G01 X-6.5268 Y32.1887
G01 X-6.5258 Y32.1760
G01 X-6.5172 Y32.1156
G01 X-6.5151 Y32.1039
G01 X-6.5124 Y32.0915
G01 X-6.4974 Y32.0327
G01 X-6.4933 Y32.0203
G01 X-6.4768 Y31.9741
G01 X-6.4723 Y31.9625
G01 X-6.4673 Y31.9514
G01 X-6.4410 Y31.8964
G01 X-6.4347 Y31.8853
G01 X-6.4031 Y31.8330
G01 X-6.3958 Y31.8227
G01 X-6.3594 Y31.7740
G01 X-6.3510 Y31.7643
G01 X-6.3137 Y31.7233
G01 X-4.5892 Y29.9987
G01 X-4.5892 Y28.6100
G01 X-4.5886 Y28.5915
G01 X-4.5873 Y28.5792
G01 X-4.5855 Y28.5670
G01 X-4.5817 Y28.5489
G01 X-4.5784 Y28.5370
G01 X-4.5745 Y28.5253
G01 X-4.5701 Y28.5138
G01 X-4.5624 Y28.4971
G01 X-4.5566 Y28.4862
G01 X-4.5469 Y28.4706
G01 X-4.5361 Y28.4557
G01 X-4.5283 Y28.4462
G01 X-4.5201 Y28.4371
G01 X-4.5069 Y28.4242
G01 X-4.4928 Y28.4124
G01 X-4.4830 Y28.4051
G01 X-4.4728 Y28.3982
G01 X-4.4569 Y28.3890
G01 X-4.4403 Y28.3809
G01 X-4.4290 Y28.3761
G01 X-4.4173 Y28.3720
G01 X-4.4055 Y28.3684
G01 X-4.3936 Y28.3654
G01 X-4.3754 Y28.3620
G01 X-4.3631 Y28.3605
G01 X-4.3447 Y28.3593
G01 X-3.9895 Y28.3593
G01 X-3.9895 Y27.9735
G01 X-4.0124 Y27.9526
G01 X-4.0211 Y27.9439
G01 X-4.0859 Y27.8724
G01 X-4.0970 Y27.8586
G01 X-4.1503 Y27.7865
G01 X-4.1603 Y27.7711
G01 X-4.2032 Y27.6996
G01 X-4.2095 Y27.6885
G01 X-4.2148 Y27.6779
G01 X-4.2529 Y27.5971
G01 X-4.2599 Y27.5798
G01 X-4.2880 Y27.5012
G01 X-4.2921 Y27.4888
G01 X-4.3154 Y27.3968
G01 X-4.3182 Y27.3844
G01 X-4.3202 Y27.3726
G01 X-4.3339 Y27.2783
G01 X-4.3348 Y27.2656
G01 X-4.3389 Y27.1823
G01 X-4.3392 Y27.1700
G01 X-4.3389 Y27.1577
G01 X-4.3348 Y27.0744
G01 X-4.3339 Y27.0617
G01 X-4.3202 Y26.9674
G01 X-4.3182 Y26.9556
G01 X-4.3154 Y26.9432
G01 X-4.2921 Y26.8512
G01 X-4.2880 Y26.8388
G01 X-4.2577 Y26.7544
G01 X-4.2505 Y26.7375
G01 X-4.2095 Y26.6515
G01 X-4.2032 Y26.6404
G01 X-4.1603 Y26.5689
G01 X-4.1503 Y26.5535
G01 X-4.0970 Y26.4814
G01 X-4.0859 Y26.4676
G01 X-4.0211 Y26.3961
G01 X-4.0124 Y26.3874
G01 X-3.9895 Y26.3665
G01 X-3.9895 Y26.2790
G01 X-4.3673 Y25.9012
G01 X-4.4077 Y25.9072
G01 X-4.4258 Y25.9092
G01 X-4.5363 Y25.9146
G01 X-4.5548 Y25.9144
G01 X-4.6591 Y25.9092
G01 X-4.6773 Y25.9072
G01 X-4.7743 Y25.8928
G01 X-4.7861 Y25.8907
G01 X-4.7985 Y25.8880
G01 X-4.8937 Y25.8641
G01 X-4.9110 Y25.8591
G01 X-5.0096 Y25.8239
G01 X-5.0212 Y25.8194
G01 X-5.0323 Y25.8145
G01 X-5.1211 Y25.7725
G01 X-5.1317 Y25.7672
G01 X-5.1428 Y25.7609
G01 X-5.2269 Y25.7105
G01 X-5.2371 Y25.7041
G01 X-5.2474 Y25.6968
G01 X-5.3355 Y25.6311
G01 X-5.3452 Y25.6228
G01 X-5.4180 Y25.5569
G01 X-5.4312 Y25.5440
G01 X-5.5013 Y25.4667
G01 X-5.5096 Y25.4570
G01 X-5.5169 Y25.4477
G01 X-5.5753 Y25.3689
G01 X-5.5826 Y25.3586
G01 X-5.5890 Y25.3484
G01 X-5.6394 Y25.2643
G01 X-5.6457 Y25.2532
G01 X-5.6510 Y25.2426
G01 X-5.6930 Y25.1538
G01 X-5.6979 Y25.1428
G01 X-5.7024 Y25.1311
G01 X-5.7355 Y25.0387
G01 X-5.7396 Y25.0263
G01 X-5.7665 Y24.9200
G01 X-5.7692 Y24.9076
G01 X-5.7713 Y24.8958
G01 X-5.7857 Y24.7988
G01 X-5.7871 Y24.7869
G01 X-5.7881 Y24.7743
G01 X-5.7929 Y24.6763
G01 X-5.7932 Y24.6640
G01 X-5.7929 Y24.6517
G01 X-5.7881 Y24.5536
G01 X-5.7871 Y24.5410
G01 X-5.7857 Y24.5292
G01 X-5.7713 Y24.4321
G01 X-5.7692 Y24.4203
G01 X-5.7665 Y24.4079
G01 X-5.7396 Y24.3016
G01 X-5.7355 Y24.2892
G01 X-5.7024 Y24.1968
G01 X-5.6979 Y24.1852
G01 X-5.6930 Y24.1741
G01 X-5.6510 Y24.0854
G01 X-5.6457 Y24.0748
G01 X-5.6394 Y24.0637
G01 X-5.5890 Y23.9795
G01 X-5.5826 Y23.9693
G01 X-5.5753 Y23.9590
G01 X-5.5096 Y23.8709
G01 X-5.5013 Y23.8612
G01 X-5.4354 Y23.7885
G01 X-5.4269 Y23.7796
G01 X-5.4180 Y23.7711
G01 X-5.3452 Y23.7052
G01 X-5.3355 Y23.6968
G01 X-5.2474 Y23.6311
G01 X-5.2371 Y23.6239
G01 X-5.2269 Y23.6174
G01 X-5.1428 Y23.5670
G01 X-5.1317 Y23.5607
G01 X-5.1211 Y23.5554
G01 X-5.0323 Y23.5134
G01 X-5.0212 Y23.5085
G01 X-5.0096 Y23.5040
G01 X-4.9172 Y23.4709
G01 X-4.9048 Y23.4669
G01 X-4.7985 Y23.4399
G01 X-4.7861 Y23.4372
G01 X-4.7743 Y23.4351
G01 X-4.6773 Y23.4207
G01 X-4.6654 Y23.4193
G01 X-4.6528 Y23.4183
G01 X-4.5548 Y23.4135
G01 X-4.5425 Y23.4132
G01 X-4.5302 Y23.4135
G01 X-4.4321 Y23.4183
G01 X-4.4195 Y23.4193
G01 X-4.4077 Y23.4207
G01 X-4.3106 Y23.4351
G01 X-4.2988 Y23.4372
G01 X-4.2864 Y23.4399
G01 X-4.1801 Y23.4669
G01 X-4.1677 Y23.4709
G01 X-4.0753 Y23.5040
G01 X-4.0637 Y23.5085
G01 X-4.0526 Y23.5134
G01 X-3.9639 Y23.5554
G01 X-3.9533 Y23.5607
G01 X-3.9422 Y23.5670
G01 X-3.8580 Y23.6174
G01 X-3.8478 Y23.6239
G01 X-3.8375 Y23.6311
G01 X-3.7587 Y23.6896
G01 X-3.7494 Y23.6968
G01 X-3.7397 Y23.7052
G01 X-3.6670 Y23.7711
G01 X-3.6581 Y23.7796
G01 X-3.6496 Y23.7885
G01 X-3.5837 Y23.8612
G01 X-3.5716 Y23.8755
G01 X-3.5096 Y23.9590
G01 X-3.5024 Y23.9693
G01 X-3.4959 Y23.9795
G01 X-3.4455 Y24.0637
G01 X-3.4392 Y24.0748
G01 X-3.4339 Y24.0854
G01 X-3.3919 Y24.1741
G01 X-3.3870 Y24.1852
G01 X-3.3825 Y24.1968
G01 X-3.3494 Y24.2892
G01 X-3.3438 Y24.3072
G01 X-3.3184 Y24.4079
G01 X-3.3157 Y24.4203
G01 X-3.3136 Y24.4321
G01 X-3.2992 Y24.5292
G01 X-3.2972 Y24.5473
G01 X-3.2920 Y24.6517
G01 X-3.2918 Y24.6701
G01 X-3.2972 Y24.7806
G01 X-3.2992 Y24.7988
G01 X-3.3052 Y24.8391
G01 X-2.7075 Y25.4369
G01 X-2.6990 Y25.4458
G01 X-2.6614 Y25.4874
G01 X-2.6504 Y25.5012
G01 X-2.6212 Y25.5406
G01 X-2.6139 Y25.5509
G01 X-2.5823 Y25.6032
G01 X-2.5760 Y25.6143
G01 X-2.5497 Y25.6693
G01 X-2.5447 Y25.6804
G01 X-2.5402 Y25.6920
G01 X-2.5216 Y25.7444
G01 X-2.5166 Y25.7618
G01 X-2.5046 Y25.8094
G01 X-2.5019 Y25.8218
G01 X-2.4926 Y25.8821
G01 X-2.4912 Y25.8939
G01 X-2.4902 Y25.9066
G01 X-2.4875 Y25.9679
G01 X-2.4875 Y26.3665
G01 X-2.4646 Y26.3874
G01 X-2.4559 Y26.3961
G01 X-2.3911 Y26.4676
G01 X-2.3800 Y26.4814
G01 X-2.3267 Y26.5535
G01 X-2.3167 Y26.5689
G01 X-2.2738 Y26.6404
G01 X-2.2675 Y26.6515
G01 X-2.2622 Y26.6621
G01 X-2.2241 Y26.7429
G01 X-2.2171 Y26.7602
G01 X-2.1890 Y26.8388
G01 X-2.1849 Y26.8512
G01 X-2.1616 Y26.9432
G01 X-2.1588 Y26.9556
G01 X-2.1568 Y26.9674
G01 X-2.1431 Y27.0617
G01 X-2.1422 Y27.0744
G01 X-2.1378 Y27.1638
G01 X-2.1381 Y27.1823
G01 X-2.1422 Y27.2656
G01 X-2.1431 Y27.2783
G01 X-2.1568 Y27.3726
G01 X-2.1588 Y27.3844
G01 X-2.1616 Y27.3968
G01 X-2.1849 Y27.4888
G01 X-2.1890 Y27.5012
G01 X-2.2171 Y27.5798
G01 X-2.2241 Y27.5971
G01 X-2.2622 Y27.6779
G01 X-2.2675 Y27.6885
G01 X-2.2738 Y27.6996
G01 X-2.3167 Y27.7711
G01 X-2.3267 Y27.7865
G01 X-2.3800 Y27.8586
G01 X-2.3911 Y27.8724
G01 X-2.4559 Y27.9439
G01 X-2.4646 Y27.9526
G01 X-2.4875 Y27.9735
G01 X-2.4875 Y28.3593
G01 X-2.1323 Y28.3593
G01 X-2.1139 Y28.3605
G01 X-2.0955 Y28.3630
G01 X-2.0774 Y28.3668
G01 X-2.0597 Y28.3720
G01 X-2.0481 Y28.3761
G01 X-2.0311 Y28.3834
G01 X-2.0148 Y28.3919
G01 X-2.0042 Y28.3982
G01 X-1.9940 Y28.4051
G01 X-1.9794 Y28.4162
G01 X-1.9656 Y28.4284
G01 X-1.9527 Y28.4416
G01 X-1.9447 Y28.4509
G01 X-1.9336 Y28.4655
G01 X-1.9235 Y28.4809
G01 X-1.9175 Y28.4916
G01 X-1.9094 Y28.5082
G01 X-1.9046 Y28.5196
G01 X-1.8986 Y28.5370
G01 X-1.8953 Y28.5489
G01 X-1.8915 Y28.5670
G01 X-1.8897 Y28.5792
G01 X-1.8884 Y28.5915
G01 X-1.8878 Y28.6100
G01 X-1.8878 Y30.8100
G01 X-1.8884 Y30.8285
G01 X-1.8897 Y30.8408
G01 X-1.8915 Y30.8530
G01 X-1.8953 Y30.8711
G01 X-1.9005 Y30.8888
G01 X-1.9069 Y30.9062
G01 X-1.9119 Y30.9174
G01 X-1.9175 Y30.9284
G01 X-1.9235 Y30.9391
G01 X-1.9301 Y30.9494
G01 X-1.9409 Y30.9643
G01 X-1.9527 Y30.9784
G01 X-1.9656 Y30.9916
G01 X-1.9794 Y31.0038
G01 X-1.9891 Y31.0113
G01 X-1.9991 Y31.0184
G01 X-2.0148 Y31.0281
G01 X-2.0311 Y31.0366
G01 X-2.0423 Y31.0416
G01 X-2.0538 Y31.0460
G01 X-2.0715 Y31.0516
G01 X-2.0895 Y31.0559
G01 X-2.1077 Y31.0588
G01 X-2.1262 Y31.0604
G01 X-2.1385 Y31.0607
G01 X-3.5272 Y31.0607
G01 X-5.0275 Y32.5611
G01 X-5.0275 Y35.3979
G01 X-5.0156 Y35.4071
G01 X-5.0059 Y35.4154
G01 X-4.9366 Y35.4782
G01 X-4.9277 Y35.4867
G01 X-4.9192 Y35.4956
G01 X-4.8564 Y35.5649
G01 X-4.8481 Y35.5746
G01 X-4.8408 Y35.5839
G01 X-4.7851 Y35.6590
G01 X-4.7779 Y35.6692
G01 X-4.7715 Y35.6794
G01 X-4.7234 Y35.7596
G01 X-4.7171 Y35.7707
G01 X-4.7118 Y35.7813
G01 X-4.6694 Y35.8712
G01 X-4.6624 Y35.8885
G01 X-4.6309 Y35.9765
G01 X-4.6268 Y35.9890
G01 X-4.6011 Y36.0908
G01 X-4.5972 Y36.1090
G01 X-4.5826 Y36.2073
G01 X-4.5805 Y36.2255
G01 X-4.5753 Y36.3313
G01 X-4.5753 Y36.4387
G01 X-4.5801 Y36.5382
G01 X-4.5811 Y36.5508
G01 X-4.5826 Y36.5627
G01 X-4.5963 Y36.6551
G01 X-4.5983 Y36.6669
G01 X-4.6011 Y36.6792
G01 X-4.6238 Y36.7699
G01 X-4.6268 Y36.7810
G01 X-4.6309 Y36.7935
G01 X-4.6624 Y36.8815
G01 X-4.6669 Y36.8931
G01 X-4.6718 Y36.9042
G01 X-4.7171 Y36.9993
G01 X-4.7234 Y37.0104
G01 X-4.7715 Y37.0906
G01 X-4.7779 Y37.1008
G01 X-4.7851 Y37.1110
G01 X-4.8408 Y37.1861
G01 X-4.8481 Y37.1954
G01 X-4.8564 Y37.2051
G01 X-4.9192 Y37.2744
G01 X-4.9277 Y37.2833
G01 X-4.9366 Y37.2918
G01 X-5.0059 Y37.3546
G01 X-5.0156 Y37.3630
G01 X-5.0249 Y37.3702
G01 X-5.1050 Y37.4296
G01 X-5.1204 Y37.4395
G01 X-5.2006 Y37.4876
G01 X-5.2117 Y37.4939
G01 X-5.3068 Y37.5392
G01 X-5.3179 Y37.5441
G01 X-5.3295 Y37.5486
G01 X-5.4175 Y37.5801
G01 X-5.4300 Y37.5842
G01 X-5.5318 Y37.6099
G01 X-5.5441 Y37.6127
G01 X-5.5559 Y37.6147
G01 X-5.6483 Y37.6284
G01 X-5.6602 Y37.6299
G01 X-5.6728 Y37.6309
G01 X-5.7662 Y37.6354
G01 X-5.7785 Y37.6357
G01 X-5.7908 Y37.6354
G01 X-5.8842 Y37.6309
G01 X-5.8968 Y37.6299
G01 X-5.9087 Y37.6284
G01 X-6.0011 Y37.6147
G01 X-6.0129 Y37.6127
G01 X-6.0252 Y37.6099
G01 X-6.1270 Y37.5842
G01 X-6.1395 Y37.5801
G01 X-6.2275 Y37.5486
G01 X-6.2391 Y37.5441
G01 X-6.2502 Y37.5392
G01 X-6.3453 Y37.4939
G01 X-6.3564 Y37.4876
G01 X-6.4366 Y37.4395
G01 X-6.4468 Y37.4331
G01 X-6.4570 Y37.4259
G01 X-6.5414 Y37.3629
G01 X-6.5511 Y37.3546
G01 X-6.6204 Y37.2918
G01 X-6.6293 Y37.2833
G01 X-6.6378 Y37.2744
G01 X-6.7006 Y37.2051
G01 X-6.7089 Y37.1954
G01 X-6.7162 Y37.1861
G01 X-6.7756 Y37.1060
G01 X-6.7855 Y37.0906
G01 X-6.8336 Y37.0104
G01 X-6.8399 Y36.9993
G01 X-6.8852 Y36.9042
G01 X-6.8901 Y36.8931
G01 X-6.8946 Y36.8815
G01 X-6.9261 Y36.7935
G01 X-6.9302 Y36.7810
G01 X-6.9575 Y36.6727
G01 X-6.9607 Y36.6551
G01 X-6.9744 Y36.5627
G01 X-6.9759 Y36.5508
G01 X-6.9769 Y36.5382
G01 X-6.9817 Y36.4387
G01 X-6.9817 Y36.3313
G01 X-6.9769 Y36.2318
G01 X-6.9759 Y36.2192
G01 X-6.9744 Y36.2073
G01 X-6.9607 Y36.1149
G01 X-6.9587 Y36.1031
G01 X-6.9559 Y36.0908
G01 X-6.9302 Y35.9890
G01 X-6.9261 Y35.9765
G01 X-6.8946 Y35.8885
G01 X-6.8901 Y35.8769
G01 X-6.8852 Y35.8658
G01 X-6.8452 Y35.7813
G01 X-6.8368 Y35.7651
G01 X-6.7855 Y35.6794
G01 X-6.7791 Y35.6692
G01 X-6.7719 Y35.6590
G01 X-6.7089 Y35.5746
G01 X-6.7006 Y35.5649
G01 X-6.6378 Y35.4956
G01 X-6.6293 Y35.4867
G01 X-6.6204 Y35.4782
G01 X-6.5511 Y35.4154
G01 X-6.5414 Y35.4071
G01 X-6.5295 Y35.3979
G00 Z2.0000
G00 X-7.0485 Y35.9288
G01 F60.00
G01 Z-0.1100
G01 F120.00
G01 X-7.0633 Y35.8875
G01 X-7.0495 Y35.8871
G01 X-7.0331 Y35.8859
G01 X-7.0485 Y35.9288
G00 Z2.0000
G00 X-7.0337 Y36.8824
G01 F60.00
G01 Z-0.1100
G01 F120.00
G01 X-7.0481 Y36.8829
G01 X-7.0638 Y36.8840
G01 X-7.0485 Y36.8412
G01 X-7.0337 Y36.8824
G00 Z2.0000
G00 X-9.3368 Y37.0857
G01 F60.00
G01 Z-0.1100
G01 F120.00
G01 X-9.3284 Y37.0857
G01 X-9.3191 Y37.1008
G01 X-9.3119 Y37.1110
G01 X-9.2489 Y37.1954
G01 X-9.2406 Y37.2051
G01 X-9.1736 Y37.2789
G01 X-9.1604 Y37.2918
G01 X-9.0859 Y37.3592
G01 X-9.0721 Y37.3702
G01 X-9.0192 Y37.4094
G01 X-9.0192 Y37.4207
G01 X-9.1464 Y37.3203
G01 X-9.2803 Y37.1732
G01 X-9.3368 Y37.0857
G00 Z2.0000
G00 X-9.5540 Y36.9544
G01 F60.00
G01 Z-0.1100
G01 F120.00
G01 X-9.2540 Y36.9544
G01 X-9.2098 Y37.0279
G01 X-9.1507 Y37.1079
G01 X-9.1433 Y37.1169
G01 X-9.0785 Y37.1884
G01 X-9.0722 Y37.1945
G01 X-9.0029 Y37.2573
G01 X-8.9961 Y37.2630
G01 X-8.9164 Y37.3221
G01 X-8.8879 Y37.3396
G01 X-8.8879 Y37.6501
G01 X-9.0634 Y37.5532
G01 X-9.2364 Y37.4165
G01 X-9.3848 Y37.2534
G01 X-9.5043 Y37.0686
G01 X-9.5540 Y36.9544
G00 Z2.0000
G00 X-9.5549 Y35.8156
G01 F60.00
G01 Z-0.1100
G01 F120.00
G01 X-9.4884 Y35.6726
G01 X-9.3645 Y35.4908
G01 X-9.2121 Y35.3314
G01 X-9.0358 Y35.1989
G01 X-8.8879 Y35.1219
G01 X-8.8879 Y35.4304
G01 X-8.9164 Y35.4479
G01 X-8.9961 Y35.5070
G01 X-9.0029 Y35.5127
G01 X-9.0722 Y35.5755
G01 X-9.0785 Y35.5816
G01 X-9.1433 Y35.6531
G01 X-9.1507 Y35.6621
G01 X-9.2098 Y35.7421
G01 X-9.2540 Y35.8156
G01 X-9.5549 Y35.8156
G00 Z2.0000
G00 X-9.3374 Y35.6843
G01 F60.00
G01 Z-0.1100
G01 F120.00
G01 X-9.2619 Y35.5736
G01 X-9.1245 Y35.4297
G01 X-9.0192 Y35.3507
G01 X-9.0192 Y35.3606
G01 X-9.0721 Y35.3998
G01 X-9.0859 Y35.4108
G01 X-9.1604 Y35.4782
G01 X-9.1736 Y35.4911
G01 X-9.2406 Y35.5649
G01 X-9.2489 Y35.5746
G01 X-9.3119 Y35.6590
G01 X-9.3191 Y35.6692
G01 X-9.3284 Y35.6843
G01 X-9.3374 Y35.6843
G00 Z2.0000
G00 X-9.8555 Y31.7554
G01 F60.00
G01 Z-0.1100
G01 F120.00
G01 X-9.0928 Y31.7554
G01 X-9.0846 Y31.7417
G01 X-9.0796 Y31.7344
G01 X-9.0328 Y31.6714
G01 X-9.0254 Y31.6623
G01 X-8.9686 Y31.5999
G01 X-8.9016 Y31.5391
G01 X-8.8292 Y31.4855
G01 X-8.7570 Y31.4421
G01 X-8.7467 Y31.4365
G01 X-8.6757 Y31.4030
G01 X-8.6649 Y31.3985
G01 X-8.5850 Y31.3701
G01 X-8.4977 Y31.3482
G01 X-8.4088 Y31.3350
G01 X-8.3244 Y31.3307
G01 X-8.3126 Y31.3307
G01 X-8.2342 Y31.3346
G01 X-8.2226 Y31.3357
G01 X-8.1393 Y31.3482
G01 X-8.0573 Y31.3686
G01 X-8.0490 Y31.3710
G01 X-7.9666 Y31.4006
G01 X-7.8853 Y31.4391
G01 X-7.8078 Y31.4855
G01 X-7.7354 Y31.5391
G01 X-7.6684 Y31.5999
G01 X-7.6076 Y31.6669
G01 X-7.5540 Y31.7393
G01 X-7.5076 Y31.8168
G01 X-7.4691 Y31.8981
G01 X-7.4386 Y31.9835
G01 X-7.4167 Y32.0708
G01 X-7.4035 Y32.1597
G01 X-7.3991 Y32.2500
G01 X-7.4035 Y32.3403
G01 X-7.4167 Y32.4292
G01 X-7.4371 Y32.5112
G01 X-7.4395 Y32.5195
G01 X-7.4670 Y32.5964
G01 X-7.4715 Y32.6072
G01 X-7.5076 Y32.6832
G01 X-7.5509 Y32.7558
G01 X-7.5574 Y32.7656
G01 X-7.6076 Y32.8331
G01 X-7.6684 Y32.9001
G01 X-7.7308 Y32.9569
G01 X-7.7399 Y32.9643
G01 X-7.8078 Y33.0145
G01 X-7.8800 Y33.0579
G01 X-7.8903 Y33.0635
G01 X-7.9666 Y33.0994
G01 X-8.0460 Y33.1280
G01 X-8.0573 Y33.1314
G01 X-8.1393 Y33.1518
G01 X-8.2282 Y33.1650
G01 X-8.3185 Y33.1694
G01 X-8.4028 Y33.1654
G01 X-8.4144 Y33.1643
G01 X-8.4921 Y33.1527
G01 X-8.5036 Y33.1504
G01 X-8.5850 Y33.1299
G01 X-8.6677 Y33.1005
G01 X-8.6757 Y33.0970
G01 X-8.7467 Y33.0635
G01 X-8.7570 Y33.0579
G01 X-8.8292 Y33.0145
G01 X-8.8971 Y32.9643
G01 X-8.9037 Y32.9591
G01 X-8.9686 Y32.9001
G01 X-9.0254 Y32.8377
G01 X-9.0328 Y32.8286
G01 X-9.0796 Y32.7656
G01 X-9.0846 Y32.7583
G01 X-9.0928 Y32.7446
G01 X-9.8555 Y32.7446
G01 X-9.8726 Y32.7802
G01 X-9.9261 Y32.8694
G01 X-9.9311 Y32.8767
G01 X-9.9896 Y32.9555
G01 X-9.9948 Y32.9621
G01 X-10.0629 Y33.0373
G01 X-10.0712 Y33.0456
G01 X-10.1486 Y33.1155
G01 X-10.2342 Y33.1791
G01 X-10.2415 Y33.1839
G01 X-10.3257 Y33.2343
G01 X-10.3361 Y33.2399
G01 X-10.4301 Y33.2842
G01 X-10.5280 Y33.3194
G01 X-10.5392 Y33.3228
G01 X-10.6403 Y33.3479
G01 X-10.7430 Y33.3633
G01 X-10.7546 Y33.3644
G01 X-10.8585 Y33.3694
G01 X-10.9624 Y33.3644
G01 X-10.9740 Y33.3633
G01 X-11.0767 Y33.3479
G01 X-11.1778 Y33.3228
G01 X-11.1890 Y33.3194
G01 X-11.2869 Y33.2842
G01 X-11.3860 Y33.2373
G01 X-11.4755 Y33.1839
G01 X-11.4852 Y33.1774
G01 X-11.5684 Y33.1155
G01 X-11.6500 Y33.0415
G01 X-11.7240 Y32.9599
G01 X-11.7859 Y32.8767
G01 X-11.7924 Y32.8670
G01 X-11.8428 Y32.7828
G01 X-11.8472 Y32.7748
G01 X-11.8927 Y32.6784
G01 X-11.9298 Y32.5746
G01 X-11.9564 Y32.4682
G01 X-11.9725 Y32.3599
G01 X-11.9779 Y32.2500
G01 X-11.9725 Y32.1401
G01 X-11.9564 Y32.0318
G01 X-11.9298 Y31.9254
G01 X-11.8927 Y31.8216
G01 X-11.8458 Y31.7225
G01 X-11.7893 Y31.6282
G01 X-11.7240 Y31.5401
G01 X-11.6500 Y31.4585
G01 X-11.5684 Y31.3845
G01 X-11.4803 Y31.3192
G01 X-11.3913 Y31.2657
G01 X-11.3833 Y31.2613
G01 X-11.2869 Y31.2158
G01 X-11.1831 Y31.1787
G01 X-11.0767 Y31.1521
G01 X-10.9684 Y31.1360
G01 X-10.8585 Y31.1306
G01 X-10.7486 Y31.1360
G01 X-10.6403 Y31.1521
G01 X-10.5392 Y31.1772
G01 X-10.5309 Y31.1796
G01 X-10.4301 Y31.2158
G01 X-10.3310 Y31.2627
G01 X-10.2367 Y31.3192
G01 X-10.1530 Y31.3811
G01 X-10.1464 Y31.3863
G01 X-10.0670 Y31.4585
G01 X-9.9970 Y31.5354
G01 X-9.9913 Y31.5422
G01 X-9.9311 Y31.6233
G01 X-9.9261 Y31.6306
G01 X-9.8726 Y31.7198
G01 X-9.8555 Y31.7554
G00 Z2.0000
G00 X-12.1320 Y31.7132
G01 F60.00
G01 Z-0.1100
G01 F120.00
G01 X-12.1501 Y31.6942
G01 X-12.1568 Y31.6876
G01 X-12.1706 Y31.6751
G01 X-12.1850 Y31.6633
G01 X-12.2076 Y31.6469
G01 X-12.2234 Y31.6369
G01 X-12.2396 Y31.6277
G01 X-12.2562 Y31.6193
G01 X-12.2732 Y31.6117
G01 X-12.2994 Y31.6019
G01 X-12.3272 Y31.5937
G01 X-12.3855 Y31.5791
G01 X-12.3552 Y31.5285
G01 X-12.3457 Y31.5116
G01 X-12.3376 Y31.4955
G01 X-12.3002 Y31.4163
G01 X-12.2897 Y31.3899
G01 X-12.2632 Y31.3159
G01 X-12.2546 Y31.2886
G01 X-12.2332 Y31.2039
G01 X-12.2290 Y31.1851
G01 X-12.2259 Y31.1671
G01 X-12.2132 Y31.0805
G01 X-12.2107 Y31.0522
G01 X-12.2069 Y30.9737
G01 X-12.2064 Y30.9550
G01 X-12.2069 Y30.9363
G01 X-12.2107 Y30.8578
G01 X-12.2122 Y30.8386
G01 X-12.2144 Y30.8205
G01 X-12.2274 Y30.7339
G01 X-12.2332 Y30.7061
G01 X-12.2523 Y30.6299
G01 X-12.2570 Y30.6130
G01 X-12.2632 Y30.5941
G01 X-12.2897 Y30.5201
G01 X-12.2965 Y30.5024
G01 X-12.3040 Y30.4855
G01 X-12.3376 Y30.4145
G01 X-12.3457 Y30.3984
G01 X-12.3552 Y30.3815
G01 X-12.4004 Y30.3063
G01 X-12.4108 Y30.2907
G01 X-12.4467 Y30.2421
G01 X-12.4216 Y30.2353
G01 X-12.3954 Y30.2263
G01 X-12.3705 Y30.2156
G01 X-12.3543 Y30.2075
G01 X-12.3308 Y30.1940
G01 X-12.3147 Y30.1833
G01 X-12.2917 Y30.1659
G01 X-12.2736 Y30.1502
G01 X-12.2345 Y30.2597
G01 X-12.2277 Y30.2774
G01 X-12.2202 Y30.2943
G01 X-12.1740 Y30.3919
G01 X-12.1659 Y30.4080
G01 X-12.1563 Y30.4250
G01 X-12.1008 Y30.5176
G01 X-12.0910 Y30.5331
G01 X-12.0800 Y30.5487
G01 X-12.0157 Y30.6354
G01 X-11.9989 Y30.6565
G01 X-11.9194 Y30.7444
G01 X-11.9065 Y30.7580
G01 X-11.8929 Y30.7709
G01 X-11.8129 Y30.8434
G01 X-11.7911 Y30.8618
G01 X-11.6972 Y30.9315
G01 X-11.6739 Y30.9475
G01 X-11.5651 Y31.0127
G01 X-11.5479 Y31.0219
G01 X-11.5186 Y31.0358
G01 X-11.6105 Y31.0908
G01 X-11.6260 Y31.1006
G01 X-11.6417 Y31.1116
G01 X-11.7205 Y31.1701
G01 X-11.7347 Y31.1811
G01 X-11.7495 Y31.1939
G01 X-11.8222 Y31.2598
G01 X-11.8358 Y31.2727
G01 X-11.8487 Y31.2863
G01 X-11.9146 Y31.3590
G01 X-11.9274 Y31.3738
G01 X-11.9384 Y31.3880
G01 X-12.0025 Y31.4746
G01 X-12.0177 Y31.4980
G01 X-12.0681 Y31.5822
G01 X-12.0777 Y31.5991
G01 X-12.0858 Y31.6152
G01 X-12.1320 Y31.7132
G00 Z2.0000
G00 X-12.1788 Y31.5113
G01 F60.00
G01 Z-0.1100
G01 F120.00
G01 X-12.1957 Y31.5027
G01 X-12.1802 Y31.4697
G01 X-12.1704 Y31.4461
G01 X-12.1395 Y31.3602
G01 X-12.1352 Y31.3475
G01 X-12.1279 Y31.3234
G01 X-12.1058 Y31.2358
G01 X-12.1002 Y31.2105
G01 X-12.0960 Y31.1864
G01 X-12.0828 Y31.0966
G01 X-12.0804 Y31.0716
G01 X-12.0796 Y31.0586
G01 X-12.0757 Y30.9802
G01 X-12.0752 Y30.9676
G01 X-12.0752 Y30.9424
G01 X-12.0796 Y30.8514
G01 X-12.0815 Y30.8255
G01 X-12.0845 Y30.8013
G01 X-12.0922 Y30.7493
G01 X-12.0167 Y30.8326
G01 X-11.9994 Y30.8509
G01 X-11.9811 Y30.8682
G01 X-11.9011 Y30.9407
G01 X-11.8905 Y30.9501
G01 X-11.8718 Y30.9654
G01 X-11.7684 Y31.0421
G01 X-11.8083 Y31.0719
G01 X-11.8270 Y31.0872
G01 X-11.9196 Y31.1711
G01 X-11.9286 Y31.1799
G01 X-11.9460 Y31.1981
G01 X-12.0213 Y31.2815
G01 X-12.0366 Y31.3002
G01 X-12.0439 Y31.3098
G01 X-12.1099 Y31.3990
G01 X-12.1172 Y31.4096
G01 X-12.1303 Y31.4305
G01 X-12.1788 Y31.5113
G00 Z2.0000
G00 X-15.3691 Y34.9581
G01 F60.00
G01 Z-0.1100
G01 F120.00
G01 X-15.2254 Y35.0421
G01 X-15.0688 Y35.1722
G01 X-14.9357 Y35.3258
G01 X-14.8347 Y35.4906
G01 X-15.1552 Y35.4906
G01 X-15.1855 Y35.4496
G01 X-15.1908 Y35.4431
G01 X-15.2530 Y35.3745
G01 X-15.3216 Y35.3123
G01 X-15.3281 Y35.3070
G01 X-15.3691 Y35.2767
G01 X-15.3691 Y34.9581
G00 Z2.0000
G00 X-15.2378 Y35.2025
G01 F60.00
G01 Z-0.1100
G01 F120.00
G01 X-15.1611 Y35.2662
G01 X-15.0805 Y35.3593
G01 X-15.0897 Y35.3593
G01 X-15.1517 Y35.2906
G01 X-15.1602 Y35.2817
G01 X-15.1691 Y35.2732
G01 X-15.2378 Y35.2112
G01 X-15.2378 Y35.2025
G00 Z2.0000
G00 X-15.2378 Y36.9186
G01 F60.00
G01 Z-0.1100
G01 F120.00
G01 X-15.2378 Y36.9088
G01 X-15.1691 Y36.8468
G01 X-15.1602 Y36.8383
G01 X-15.1517 Y36.8294
G01 X-15.0897 Y36.7607
G01 X-15.0765 Y36.7607
G01 X-15.2008 Y36.8909
G01 X-15.2378 Y36.9186
G00 Z2.0000
G00 X-15.3691 Y37.1600
G01 F60.00
G01 Z-0.1100
G01 F120.00
G01 X-15.3691 Y36.8433
G01 X-15.3281 Y36.8130
G01 X-15.3216 Y36.8077
G01 X-15.2530 Y36.7455
G01 X-15.1908 Y36.6769
G01 X-15.1855 Y36.6704
G01 X-15.1552 Y36.6294
G01 X-14.8372 Y36.6294
G01 X-14.8580 Y36.6741
G01 X-14.9725 Y36.8419
G01 X-15.1132 Y36.9892
G01 X-15.2760 Y37.1115
G01 X-15.3691 Y37.1600
G00 Z2.0000
G00 X-17.2767 Y35.7914
G01 F60.00
G01 Z-0.1100
G01 F120.00
G01 X-17.2490 Y35.7942
G01 X-17.2310 Y35.7949
G01 X-17.2129 Y35.7947
G01 X-17.1949 Y35.7938
G01 X-17.1769 Y35.7919
G01 X-17.1389 Y35.7857
G01 X-17.1451 Y35.8113
G01 X-17.1487 Y35.8291
G01 X-17.1636 Y35.9296
G01 X-17.1660 Y35.9579
G01 X-17.1701 Y36.0413
G01 X-17.1706 Y36.0600
G01 X-17.1701 Y36.0787
G01 X-17.1660 Y36.1621
G01 X-17.1636 Y36.1904
G01 X-17.1487 Y36.2909
G01 X-17.1451 Y36.3087
G01 X-17.1406 Y36.3274
G01 X-17.1581 Y36.3257
G01 X-17.1769 Y36.3248
G01 X-17.2052 Y36.3252
G01 X-17.2240 Y36.3266
G01 X-17.2777 Y36.3328
G01 X-17.2719 Y36.3087
G01 X-17.2683 Y36.2909
G01 X-17.2534 Y36.1904
G01 X-17.2510 Y36.1621
G01 X-17.2469 Y36.0787
G01 X-17.2464 Y36.0600
G01 X-17.2469 Y36.0413
G01 X-17.2510 Y35.9579
G01 X-17.2534 Y35.9296
G01 X-17.2683 Y35.8291
G01 X-17.2719 Y35.8113
G01 X-17.2767 Y35.7914
G00 Z2.0000
G00 X-19.6805 Y36.3279
G01 F60.00
G01 Z-0.1100
G01 F120.00
G01 X-19.6984 Y36.3261
