(G-CODE GENERATED BY FLATCAM v8.994 - www.flatcam.org - Version Date: 2020/11/7)

(Name: G4_Controller_Board-PTH.drl_cnc)
(Type: G-code from Geometry)
(Units: MM)

(Created on Monday, 19 June 2023 at 20:52)

(This preprocessor is the default preprocessor used by FlatCAM.)
(It is made to work with MACH3 compatible motion controllers.)


(TOOLS DIAMETER: )
(Tool: 1 -> Dia: 0.762)
(Tool: 2 -> Dia: 0.8)
(Tool: 3 -> Dia: 1.0)
(Tool: 4 -> Dia: 1.0)
(Tool: 5 -> Dia: 1.0)
(Tool: 6 -> Dia: 1.0)
(Tool: 7 -> Dia: 1.02)
(Tool: 8 -> Dia: 1.1)
(Tool: 9 -> Dia: 1.2)

(FEEDRATE Z: )
(Tool: 1 -> Feedrate: 300)
(Tool: 2 -> Feedrate: 300)
(Tool: 3 -> Feedrate: 300)
(Tool: 4 -> Feedrate: 300)
(Tool: 5 -> Feedrate: 300)
(Tool: 6 -> Feedrate: 300)
(Tool: 7 -> Feedrate: 300)
(Tool: 8 -> Feedrate: 300)
(Tool: 9 -> Feedrate: 300)

(FEEDRATE RAPIDS: )
(Tool: 1 -> Feedrate Rapids: 1500)
(Tool: 2 -> Feedrate Rapids: 1500)
(Tool: 3 -> Feedrate Rapids: 1500)
(Tool: 4 -> Feedrate Rapids: 1500)
(Tool: 5 -> Feedrate Rapids: 1500)
(Tool: 6 -> Feedrate Rapids: 1500)
(Tool: 7 -> Feedrate Rapids: 1500)
(Tool: 8 -> Feedrate Rapids: 1500)
(Tool: 9 -> Feedrate Rapids: 1500)

(Z_CUT: )
(Tool: 1 -> Z_Cut: -1.7)
(Tool: 2 -> Z_Cut: -1.7)
(Tool: 3 -> Z_Cut: -1.7)
(Tool: 4 -> Z_Cut: -1.7)
(Tool: 5 -> Z_Cut: -1.7)
(Tool: 6 -> Z_Cut: -1.7)
(Tool: 7 -> Z_Cut: -1.7)
(Tool: 8 -> Z_Cut: -1.7)
(Tool: 9 -> Z_Cut: -1.7)

(Tools Offset: )
(Tool: 1 -> Offset Z: 0.0)
(Tool: 2 -> Offset Z: 0.0)
(Tool: 6 -> Offset Z: 0.0)
(Tool: 7 -> Offset Z: 0.0)
(Tool: 8 -> Offset Z: 0.0)
(Tool: 9 -> Offset Z: 0.0)

(Z_MOVE: )
(Tool: 1 -> Z_Move: 2)
(Tool: 2 -> Z_Move: 2)
(Tool: 3 -> Z_Move: 2)
(Tool: 4 -> Z_Move: 2)
(Tool: 5 -> Z_Move: 2)
(Tool: 6 -> Z_Move: 2)
(Tool: 7 -> Z_Move: 2)
(Tool: 8 -> Z_Move: 2)
(Tool: 9 -> Z_Move: 2)

(Z Toolchange: 5.0 mm)
(X,Y Toolchange: 0.0000, 0.0000 mm)
(Z Start: None mm)
(Z End: 0.5 mm)
(X,Y End: None mm)
(Steps per circle: 64)
(Preprocessor Excellon: default)

(X range:  -57.0785 ...   -0.1985  mm)
(Y range:    1.2700 ...   36.9350  mm)

(Spindle Speed: 0 RPM)
G21
G90
G94

G01 F300.00

M5
G00 Z5.0000
T1
G00 X0.0000 Y0.0000                
M6
(MSG, Change to Tool Dia = 0.7620 ||| Total drills for tool T1 = 97)
M0
G00 Z5.0000

G01 F300.00
M03
G00 X-21.0185 Y21.5820
G01 Z-1.7000
G01 Z0
G00 Z2.0000
G00 X-21.0185 Y25.9000
G01 Z-1.7000
G01 Z0
G00 Z2.0000
G00 X-23.5585 Y25.9000
G01 Z-1.7000
G01 Z0
G00 Z2.0000
G00 X-26.0985 Y25.9000
G01 Z-1.7000
G01 Z0
G00 Z2.0000
G00 X-28.6385 Y25.9000
G01 Z-1.7000
G01 Z0
G00 Z2.0000
G00 X-31.1785 Y25.9000
G01 Z-1.7000
G01 Z0
G00 Z2.0000
G00 X-28.6385 Y30.9950
G01 Z-1.7000
G01 Z0
G00 Z2.0000
G00 X-28.6385 Y30.9950
G01 Z-1.7000
G01 Z0
G00 Z2.0000
G00 X-28.6385 Y33.5350
G01 Z-1.7000
G01 Z0
G00 Z2.0000
G00 X-28.6385 Y33.5350
G01 Z-1.7000
G01 Z0
G00 Z2.0000
G00 X-31.1785 Y33.5200
G01 Z-1.7000
G01 Z0
G00 Z2.0000
G00 X-31.1785 Y33.5200
G01 Z-1.7000
G01 Z0
G00 Z2.0000
G00 X-31.1785 Y36.0600
G01 Z-1.7000
G01 Z0
G00 Z2.0000
G00 X-31.1785 Y36.0600
G01 Z-1.7000
G01 Z0
G00 Z2.0000
G00 X-33.7185 Y36.0600
G01 Z-1.7000
G01 Z0
G00 Z2.0000
G00 X-33.7185 Y36.0600
G01 Z-1.7000
G01 Z0
G00 Z2.0000
G00 X-33.7185 Y33.5200
G01 Z-1.7000
G01 Z0
G00 Z2.0000
G00 X-33.7185 Y33.5200
G01 Z-1.7000
G01 Z0
G00 Z2.0000
G00 X-36.2585 Y33.5200
G01 Z-1.7000
G01 Z0
G00 Z2.0000
G00 X-36.2585 Y33.5200
G01 Z-1.7000
G01 Z0
G00 Z2.0000
G00 X-36.2585 Y36.0600
G01 Z-1.7000
G01 Z0
G00 Z2.0000
G00 X-36.2585 Y36.0600
G01 Z-1.7000
G01 Z0
G00 Z2.0000
G00 X-38.7685 Y36.0600
G01 Z-1.7000
G01 Z0
G00 Z2.0000
G00 X-38.7685 Y36.0600
G01 Z-1.7000
G01 Z0
G00 Z2.0000
G00 X-41.3085 Y36.0600
G01 Z-1.7000
G01 Z0
G00 Z2.0000
G00 X-41.3085 Y36.0600
G01 Z-1.7000
G01 Z0
G00 Z2.0000
G00 X-43.8485 Y36.0600
G01 Z-1.7000
G01 Z0
G00 Z2.0000
G00 X-43.8485 Y36.0600
G01 Z-1.7000
G01 Z0
G00 Z2.0000
G00 X-46.3885 Y36.0600
G01 Z-1.7000
G01 Z0
G00 Z2.0000
G00 X-46.3885 Y36.0600
G01 Z-1.7000
G01 Z0
G00 Z2.0000
G00 X-48.9285 Y36.0600
G01 Z-1.7000
G01 Z0
G00 Z2.0000
G00 X-48.9285 Y36.0600
G01 Z-1.7000
G01 Z0
G00 Z2.0000
G00 X-51.4835 Y36.0600
G01 Z-1.7000
G01 Z0
G00 Z2.0000
G00 X-51.4835 Y36.0600
G01 Z-1.7000
G01 Z0
G00 Z2.0000
G00 X-54.0235 Y36.0600
G01 Z-1.7000
G01 Z0
G00 Z2.0000
G00 X-54.0235 Y36.0600
G01 Z-1.7000
G01 Z0
G00 Z2.0000
G00 X-56.5635 Y36.0600
G01 Z-1.7000
G01 Z0
G00 Z2.0000
G00 X-56.5635 Y36.0600
G01 Z-1.7000
G01 Z0
G00 Z2.0000
G00 X-56.5785 Y29.7100
G01 Z-1.7000
G01 Z0
G00 Z2.0000
G00 X-56.5785 Y29.7100
G01 Z-1.7000
G01 Z0
G00 Z2.0000
G00 X-54.0385 Y29.7100
G01 Z-1.7000
G01 Z0
G00 Z2.0000
G00 X-54.0385 Y29.7100
G01 Z-1.7000
G01 Z0
G00 Z2.0000
G00 X-51.4985 Y29.7100
G01 Z-1.7000
G01 Z0
G00 Z2.0000
G00 X-51.4985 Y29.7100
G01 Z-1.7000
G01 Z0
G00 Z2.0000
G00 X-55.3085 Y23.3600
G01 Z-1.7000
G01 Z0
G00 Z2.0000
G00 X-55.3085 Y23.3600
G01 Z-1.7000
G01 Z0
G00 Z2.0000
G00 X-55.3085 Y19.2400
G01 Z-1.7000
G01 Z0
G00 Z2.0000
G00 X-55.3085 Y15.7400
G01 Z-1.7000
G01 Z0
G00 Z2.0000
G00 X-45.1485 Y20.8200
G01 Z-1.7000
G01 Z0
G00 Z2.0000
G00 X-45.1485 Y20.8200
G01 Z-1.7000
G01 Z0
G00 Z2.0000
G00 X-48.9585 Y25.9000
G01 Z-1.7000
G01 Z0
G00 Z2.0000
G00 X-46.4185 Y25.9000
G01 Z-1.7000
G01 Z0
G00 Z2.0000
G00 X-43.8785 Y25.9000
G01 Z-1.7000
G01 Z0
G00 Z2.0000
G00 X-41.3385 Y25.9000
G01 Z-1.7000
G01 Z0
G00 Z2.0000
G00 X-38.7985 Y25.9000
G01 Z-1.7000
G01 Z0
G00 Z2.0000
G00 X-36.2585 Y25.9000
G01 Z-1.7000
G01 Z0
G00 Z2.0000
G00 X-33.7185 Y25.9000
G01 Z-1.7000
G01 Z0
G00 Z2.0000
G00 X-36.2585 Y21.5820
G01 Z-1.7000
G01 Z0
G00 Z2.0000
G00 X-38.7985 Y14.4700
G01 Z-1.7000
G01 Z0
G00 Z2.0000
G00 X-38.7985 Y14.4700
G01 Z-1.7000
G01 Z0
G00 Z2.0000
G00 X-36.2585 Y12.4380
G01 Z-1.7000
G01 Z0
G00 Z2.0000
G00 X-38.7985 Y10.6600
G01 Z-1.7000
G01 Z0
G00 Z2.0000
G00 X-38.7985 Y10.6600
G01 Z-1.7000
G01 Z0
G00 Z2.0000
G00 X-38.7985 Y8.1200
G01 Z-1.7000
G01 Z0
G00 Z2.0000
G00 X-38.7985 Y8.1200
G01 Z-1.7000
G01 Z0
G00 Z2.0000
G00 X-38.7985 Y5.5800
G01 Z-1.7000
G01 Z0
G00 Z2.0000
G00 X-38.7985 Y5.5800
G01 Z-1.7000
G01 Z0
G00 Z2.0000
G00 X-43.8785 Y9.3900
G01 Z-1.7000
G01 Z0
G00 Z2.0000
G00 X-43.8785 Y9.3900
G01 Z-1.7000
G01 Z0
G00 Z2.0000
G00 X-45.1485 Y13.2200
G01 Z-1.7000
G01 Z0
G00 Z2.0000
G00 X-45.1485 Y13.2200
G01 Z-1.7000
G01 Z0
G00 Z2.0000
G00 X-47.6885 Y9.3900
G01 Z-1.7000
G01 Z0
G00 Z2.0000
G00 X-47.6885 Y6.8500
G01 Z-1.7000
G01 Z0
G00 Z2.0000
G00 X-55.3085 Y6.8500
G01 Z-1.7000
G01 Z0
G00 Z2.0000
G00 X-55.3085 Y9.3900
G01 Z-1.7000
G01 Z0
G00 Z2.0000
G00 X-48.9585 Y3.0400
G01 Z-1.7000
G01 Z0
G00 Z2.0000
G00 X-46.4185 Y3.0400
G01 Z-1.7000
G01 Z0
G00 Z2.0000
G00 X-43.8785 Y3.0400
G01 Z-1.7000
G01 Z0
G00 Z2.0000
G00 X-41.3385 Y3.0400
G01 Z-1.7000
G01 Z0
G00 Z2.0000
G00 X-38.7985 Y3.0400
G01 Z-1.7000
G01 Z0
G00 Z2.0000
G00 X-36.2585 Y3.0400
G01 Z-1.7000
G01 Z0
G00 Z2.0000
G00 X-33.7185 Y3.0400
G01 Z-1.7000
G01 Z0
G00 Z2.0000
G00 X-31.1785 Y3.0400
G01 Z-1.7000
G01 Z0
G00 Z2.0000
G00 X-28.6385 Y3.0400
G01 Z-1.7000
G01 Z0
G00 Z2.0000
G00 X-26.0985 Y3.0400
G01 Z-1.7000
G01 Z0
G00 Z2.0000
G00 X-26.0985 Y5.5800
G01 Z-1.7000
G01 Z0
G00 Z2.0000
G00 X-26.0985 Y5.5800
G01 Z-1.7000
G01 Z0
G00 Z2.0000
G00 X-23.5585 Y5.5800
G01 Z-1.7000
G01 Z0
G00 Z2.0000
G00 X-23.5585 Y5.5800
G01 Z-1.7000
G01 Z0
G00 Z2.0000
G00 X-23.5585 Y3.0400
G01 Z-1.7000
G01 Z0
G00 Z2.0000
G00 X-21.0185 Y3.0400
G01 Z-1.7000
G01 Z0
G00 Z2.0000
G00 X-18.4785 Y3.0400
G01 Z-1.7000
G01 Z0
G00 Z2.0000
G00 X-8.2935 Y1.7700
G01 Z-1.7000
G01 Z0
G00 Z2.0000
G00 X-8.2935 Y1.7700
G01 Z-1.7000
G01 Z0
G00 Z2.0000
G00 X-8.2935 Y4.3100
G01 Z-1.7000
G01 Z0
G00 Z2.0000
G00 X-8.2935 Y4.3100
G01 Z-1.7000
G01 Z0
G00 Z2.0000
G00 X-3.2385 Y1.7700
G01 Z-1.7000
G01 Z0
G00 Z2.0000
G00 X-3.2385 Y1.7700
G01 Z-1.7000
G01 Z0
G00 Z2.0000
G00 X-0.6985 Y1.7700
G01 Z-1.7000
G01 Z0
G00 Z2.0000
G00 X-0.6985 Y1.7700
G01 Z-1.7000
G01 Z0
G00 Z2.0000
G00 X-0.6985 Y4.3100
G01 Z-1.7000
G01 Z0
G00 Z2.0000
G00 X-0.6985 Y4.3100
G01 Z-1.7000
G01 Z0
G00 Z2.0000
G00 X-3.2385 Y4.3100
G01 Z-1.7000
G01 Z0
G00 Z2.0000
G00 X-3.2385 Y4.3100
G01 Z-1.7000
G01 Z0
G00 Z2.0000
G00 X-3.2385 Y6.8500
G01 Z-1.7000
G01 Z0
G00 Z2.0000
G00 X-3.2385 Y6.8500
G01 Z-1.7000
G01 Z0
G00 Z2.0000
G00 X-0.6985 Y6.8500
G01 Z-1.7000
G01 Z0
G00 Z2.0000
G00 X-0.6985 Y6.8500
G01 Z-1.7000
G01 Z0
G00 Z2.0000
G00 X-0.7135 Y10.6600
G01 Z-1.7000
G01 Z0
G00 Z2.0000
G00 X-0.7135 Y10.6600
G01 Z-1.7000
G01 Z0
G00 Z2.0000
G00 X-3.2535 Y13.2150
G01 Z-1.7000
G01 Z0
G00 Z2.0000
G00 X-0.7135 Y13.2000
G01 Z-1.7000
G01 Z0
G00 Z2.0000
G00 X-0.7135 Y13.2000
G01 Z-1.7000
G01 Z0
G00 Z2.0000
G00 X-0.7135 Y15.7400
G01 Z-1.7000
G01 Z0
G00 Z2.0000
G00 X-0.7135 Y15.7400
G01 Z-1.7000
G01 Z0
G00 Z2.0000
G00 X-0.7135 Y19.5500
G01 Z-1.7000
G01 Z0
G00 Z2.0000
G00 X-0.7135 Y19.5500
G01 Z-1.7000
G01 Z0
G00 Z2.0000
G00 X-0.7135 Y22.0900
G01 Z-1.7000
G01 Z0
G00 Z2.0000
G00 X-0.7135 Y22.0900
G01 Z-1.7000
G01 Z0
G00 Z2.0000
G00 X-3.2385 Y22.0900
G01 Z-1.7000
G01 Z0
G00 Z2.0000
G00 X-4.5425 Y24.6640
G01 Z-1.7000
G01 Z0
G00 Z2.0000
G00 X-4.5425 Y24.6640
G01 Z-1.7000
G01 Z0
G00 Z2.0000
G00 X-5.7785 Y27.1700
G01 Z-1.7000
G01 Z0
G00 Z2.0000
G00 X-5.7785 Y27.1700
G01 Z-1.7000
G01 Z0
G00 Z2.0000
G00 X-3.2385 Y27.1700
G01 Z-1.7000
G01 Z0
G00 Z2.0000
G00 X-3.2385 Y27.1700
G01 Z-1.7000
G01 Z0
G00 Z2.0000
G00 X-3.2385 Y29.7100
G01 Z-1.7000
G01 Z0
G00 Z2.0000
G00 X-0.6985 Y32.2500
G01 Z-1.7000
G01 Z0
G00 Z2.0000
G00 X-3.2385 Y36.3850
G01 Z-1.7000
G01 Z0
G00 Z2.0000
G00 X-5.7785 Y36.3850
G01 Z-1.7000
G01 Z0
G00 Z2.0000
G00 X-8.3185 Y36.3850
G01 Z-1.7000
G01 Z0
G00 Z2.0000
G00 X-8.3185 Y32.2500
G01 Z-1.7000
G01 Z0
G00 Z2.0000
G00 X-10.8585 Y32.2500
G01 Z-1.7000
G01 Z0
G00 Z2.0000
G00 X-10.8585 Y32.2500
G01 Z-1.7000
G01 Z0
G00 Z2.0000
G00 X-10.8585 Y29.7100
G01 Z-1.7000
G01 Z0
G00 Z2.0000
G00 X-13.3885 Y30.9550
G01 Z-1.7000
G01 Z0
G00 Z2.0000
G00 X-15.9385 Y36.0600
G01 Z-1.7000
G01 Z0
G00 Z2.0000
G00 X-15.9385 Y36.0600
G01 Z-1.7000
G01 Z0
G00 Z2.0000
G00 X-18.4785 Y36.0600
G01 Z-1.7000
G01 Z0
G00 Z2.0000
G00 X-18.4785 Y36.0600
G01 Z-1.7000
G01 Z0
G00 Z2.0000
G00 X-21.0185 Y36.0600
G01 Z-1.7000
G01 Z0
G00 Z2.0000
G00 X-21.0185 Y36.0600
G01 Z-1.7000
G01 Z0
G00 Z2.0000
G00 X-23.5585 Y36.0600
G01 Z-1.7000
G01 Z0
G00 Z2.0000
G00 X-23.5585 Y36.0600
G01 Z-1.7000
G01 Z0
G00 Z2.0000
G00 X-26.1085 Y36.0750
G01 Z-1.7000
G01 Z0
G00 Z2.0000
G00 X-26.1085 Y36.0750
G01 Z-1.7000
G01 Z0
G00 Z2.0000
G00 X-28.6385 Y36.0750
G01 Z-1.7000
G01 Z0
G00 Z2.0000
G00 X-28.6385 Y36.0750
G01 Z-1.7000
G01 Z0
G00 Z2.0000
G00 X-26.1085 Y33.5350
G01 Z-1.7000
G01 Z0
G00 Z2.0000
G00 X-26.1085 Y33.5350
G01 Z-1.7000
G01 Z0
G00 Z2.0000
G00 X-26.1085 Y30.9950
G01 Z-1.7000
G01 Z0
G00 Z2.0000
G00 X-26.1085 Y30.9950
G01 Z-1.7000
G01 Z0
G00 Z2.0000
G00 X-23.5485 Y28.4150
G01 Z-1.7000
G01 Z0
G00 Z2.0000
G00 X-21.0085 Y30.9550
G01 Z-1.7000
G01 Z0
G00 Z2.0000
G00 X-18.4785 Y25.9000
G01 Z-1.7000
G01 Z0
G00 Z2.0000
G00 X-15.9285 Y28.4150
G01 Z-1.7000
G01 Z0
G00 Z2.0000
G00 X-12.1285 Y25.9000
G01 Z-1.7000
G01 Z0
G00 Z2.0000
G00 X-12.1285 Y25.9000
G01 Z-1.7000
G01 Z0
G00 Z2.0000
G00 X-10.8585 Y22.0900
G01 Z-1.7000
G01 Z0
G00 Z2.0000
G00 X-13.3985 Y22.0900
G01 Z-1.7000
G01 Z0
G00 Z2.0000
G00 X-13.3985 Y22.0900
G01 Z-1.7000
G01 Z0
G00 Z2.0000
G00 X-15.3035 Y20.1850
G01 Z-1.7000
G01 Z0
G00 Z2.0000
G00 X-15.3035 Y20.1850
G01 Z-1.7000
G01 Z0
G00 Z2.0000
G00 X-10.8735 Y13.2150
G01 Z-1.7000
G01 Z0
G00 Z2.0000
G00 X-8.2935 Y9.3900
G01 Z-1.7000
G01 Z0
G00 Z2.0000
G00 X-8.2935 Y6.8500
G01 Z-1.7000
G01 Z0
G00 Z2.0000
G00 X-8.2935 Y6.8500
G01 Z-1.7000
G01 Z0
G00 Z2.0000
G00 X-8.2935 Y9.3900
G01 Z-1.7000
G01 Z0
G00 Z2.0000
G00 X-12.7635 Y11.3250
G01 Z-1.7000
G01 Z0
G00 Z2.0000
G00 X-12.7635 Y11.3250
G01 Z-1.7000
G01 Z0
G00 Z2.0000
G00 X-15.9385 Y12.5650
G01 Z-1.7000
G01 Z0
G00 Z2.0000
G00 X-15.9385 Y12.5650
G01 Z-1.7000
G01 Z0
G00 Z2.0000
G00 X-18.4785 Y12.5650
G01 Z-1.7000
G01 Z0
G00 Z2.0000
G00 X-18.4785 Y12.5650
G01 Z-1.7000
G01 Z0
G00 Z2.0000
G00 X-21.0185 Y12.4380
G01 Z-1.7000
G01 Z0
G00 Z2.0000
G00 X-26.0985 Y8.1200
G01 Z-1.7000
G01 Z0
G00 Z2.0000
G00 X-26.0985 Y8.1200
G01 Z-1.7000
G01 Z0
G00 Z2.0000
G00 X-26.0965 Y10.6580
G01 Z-1.7000
G01 Z0
G00 Z2.0000
G00 X-26.0965 Y10.6580
G01 Z-1.7000
G01 Z0
G00 Z2.0000
M05
G00 Z0.50


