(G-CODE GENERATED BY FLATCAM v8.994 - www.flatcam.org - Version Date: 2020/11/7)

(Name: G4_Controller_Board-PTH.drl_edit_cnc)
(Type: G-code from Geometry)
(Units: MM)

(Created on Sunday, 05 November 2023 at 00:28)

(This preprocessor is the default preprocessor used by FlatCAM.)
(It is made to work with MACH3 compatible motion controllers.)


(TOOLS DIAMETER: )
(Tool: 1 -> Dia: 0.3988)
(Tool: 2 -> Dia: 0.7493)
(Tool: 3 -> Dia: 0.762)
(Tool: 4 -> Dia: 0.8001)
(Tool: 5 -> Dia: 1.0)
(Tool: 6 -> Dia: 1.0008)
(Tool: 7 -> Dia: 1.0211)
(Tool: 8 -> Dia: 1.0998)
(Tool: 9 -> Dia: 1.3005)
(Tool: 10 -> Dia: 1.5011)

(FEEDRATE Z: )
(Tool: 1 -> Feedrate: 300)
(Tool: 2 -> Feedrate: 300)
(Tool: 3 -> Feedrate: 300)
(Tool: 4 -> Feedrate: 300)
(Tool: 5 -> Feedrate: 300)
(Tool: 6 -> Feedrate: 300)
(Tool: 7 -> Feedrate: 300)
(Tool: 8 -> Feedrate: 300)
(Tool: 9 -> Feedrate: 300)
(Tool: 10 -> Feedrate: 300)

(FEEDRATE RAPIDS: )
(Tool: 1 -> Feedrate Rapids: 1500)
(Tool: 2 -> Feedrate Rapids: 1500)
(Tool: 3 -> Feedrate Rapids: 1500)
(Tool: 4 -> Feedrate Rapids: 1500)
(Tool: 5 -> Feedrate Rapids: 1500)
(Tool: 6 -> Feedrate Rapids: 1500)
(Tool: 7 -> Feedrate Rapids: 1500)
(Tool: 8 -> Feedrate Rapids: 1500)
(Tool: 9 -> Feedrate Rapids: 1500)
(Tool: 10 -> Feedrate Rapids: 1500)

(Z_CUT: )
(Tool: 1 -> Z_Cut: -1.7)
(Tool: 2 -> Z_Cut: -1.7)
(Tool: 3 -> Z_Cut: -1.7)
(Tool: 4 -> Z_Cut: -1.7)
(Tool: 5 -> Z_Cut: -1.7)
(Tool: 6 -> Z_Cut: -1.7)
(Tool: 7 -> Z_Cut: -1.7)
(Tool: 8 -> Z_Cut: -1.7)
(Tool: 9 -> Z_Cut: -1.7)
(Tool: 10 -> Z_Cut: -1.7)

(Tools Offset: )
(Tool: 1 -> Offset Z: 0.0)
(Tool: 2 -> Offset Z: 0.0)
(Tool: 3 -> Offset Z: 0.0)
(Tool: 4 -> Offset Z: 0.0)
(Tool: 5 -> Offset Z: 0.0)
(Tool: 6 -> Offset Z: 0.0)
(Tool: 7 -> Offset Z: 0.0)
(Tool: 8 -> Offset Z: 0.0)
(Tool: 9 -> Offset Z: 0.0)
(Tool: 10 -> Offset Z: 0.0)

(Z_MOVE: )
(Tool: 1 -> Z_Move: 2)
(Tool: 2 -> Z_Move: 2)
(Tool: 3 -> Z_Move: 2)
(Tool: 4 -> Z_Move: 2)
(Tool: 5 -> Z_Move: 2)
(Tool: 6 -> Z_Move: 2)
(Tool: 7 -> Z_Move: 2)
(Tool: 8 -> Z_Move: 2)
(Tool: 9 -> Z_Move: 2)
(Tool: 10 -> Z_Move: 2)

(Z Toolchange: 15.0 mm)
(X,Y Toolchange: 0.0000, 0.0000 mm)
(Z Start: None mm)
(Z End: 0.5 mm)
(X,Y End: None mm)
(Steps per circle: 64)
(Preprocessor Excellon: default)

(X range:    1.3454 ...   65.3521  mm)
(Y range:    1.5046 ...   79.1003  mm)

(Spindle Speed: 0 RPM)
G21
G90
G94

G01 F300.00

M5
G00 Z15.0000
T1
G00 X0.0000 Y0.0000                
M6
(MSG, Change to Tool Dia = 0.3988 ||| Total drills for tool T1 = 158)
M0
G00 Z15.0000

G01 F300.00
M03
G00 X47.7118 Y52.8050
G01 Z-1.7000
G01 Z0
G00 Z2.0000
G00 X25.4665 Y74.3950
G01 Z-1.7000
G01 Z0
G00 Z2.0000
G00 X19.7108 Y73.7752
G01 Z-1.7000
G01 Z0
G00 Z2.0000
G00 X14.7121 Y73.7752
G01 Z-1.7000
G01 Z0
G00 Z2.0000
G00 X25.4665 Y71.8550
G01 Z-1.7000
G01 Z0
G00 Z2.0000
G00 X25.4665 Y69.3150
G01 Z-1.7000
G01 Z0
G00 Z2.0000
G00 X22.8300 Y67.4400
G01 Z-1.7000
G01 Z0
G00 Z2.0000
G00 X22.8122 Y66.7750
G01 Z-1.7000
G01 Z0
G00 Z2.0000
G00 X22.8000 Y66.2300
G01 Z-1.7000
G01 Z0
G00 Z2.0000
G00 X25.4665 Y66.7750
G01 Z-1.7000
G01 Z0
G00 Z2.0000
G00 X25.4665 Y64.2350
G01 Z-1.7000
G01 Z0
G00 Z2.0000
G00 X25.4665 Y61.6950
G01 Z-1.7000
G01 Z0
G00 Z2.0000
G00 X25.4665 Y59.1550
G01 Z-1.7000
G01 Z0
G00 Z2.0000
G00 X19.7108 Y59.2744
G01 Z-1.7000
G01 Z0
G00 Z2.0000
G00 X17.2115 Y59.2744
G01 Z-1.7000
G01 Z0
G00 Z2.0000
G00 X14.7121 Y59.2744
G01 Z-1.7000
G01 Z0
G00 Z2.0000
G00 X8.3977 Y54.9996
G01 Z-1.7000
G01 Z0
G00 Z2.0000
G00 X8.3977 Y59.5004
G01 Z-1.7000
G01 Z0
G00 Z2.0000
G00 X8.3977 Y64.5246
G01 Z-1.7000
G01 Z0
G00 Z2.0000
G00 X11.6200 Y66.3000
G01 Z-1.7000
G01 Z0
G00 Z2.0000
G00 X11.6108 Y66.7750
G01 Z-1.7000
G01 Z0
G00 Z2.0000
G00 X11.6200 Y67.4800
G01 Z-1.7000
G01 Z0
G00 Z2.0000
G00 X8.3977 Y69.0254
G01 Z-1.7000
G01 Z0
G00 Z2.0000
G00 X8.3977 Y74.0496
G01 Z-1.7000
G01 Z0
G00 Z2.0000
G00 X8.3977 Y78.5504
G01 Z-1.7000
G01 Z0
G00 Z2.0000
G00 X1.8953 Y78.5504
G01 Z-1.7000
G01 Z0
G00 Z2.0000
G00 X1.8953 Y74.0496
G01 Z-1.7000
G01 Z0
G00 Z2.0000
G00 X1.8978 Y69.0254
G01 Z-1.7000
G01 Z0
G00 Z2.0000
G00 X1.8978 Y64.5246
G01 Z-1.7000
G01 Z0
G00 Z2.0000
G00 X1.8953 Y59.5004
G01 Z-1.7000
G01 Z0
G00 Z2.0000
G00 X1.8953 Y54.9996
G01 Z-1.7000
G01 Z0
G00 Z2.0000
G00 X4.4251 Y39.4624
G01 Z-1.7000
G01 Z0
G00 Z2.0000
G00 X4.4251 Y34.4611
G01 Z-1.7000
G01 Z0
G00 Z2.0000
G00 X4.4251 Y29.4624
G01 Z-1.7000
G01 Z0
G00 Z2.0000
G00 X4.4251 Y22.2336
G01 Z-1.7000
G01 Z0
G00 Z2.0000
G00 X4.4251 Y17.2348
G01 Z-1.7000
G01 Z0
G00 Z2.0000
G00 X4.4251 Y12.2336
G01 Z-1.7000
G01 Z0
G00 Z2.0000
G00 X1.8775 Y6.4398
G01 Z-1.7000
G01 Z0
G00 Z2.0000
G00 X4.4175 Y6.4398
G01 Z-1.7000
G01 Z0
G00 Z2.0000
G00 X6.9575 Y6.4398
G01 Z-1.7000
G01 Z0
G00 Z2.0000
G00 X15.8145 Y7.3161
G01 Z-1.7000
G01 Z0
G00 Z2.0000
G00 X15.8145 Y12.3174
G01 Z-1.7000
G01 Z0
G00 Z2.0000
G00 X26.6095 Y9.9476
G01 Z-1.7000
G01 Z0
G00 Z2.0000
G00 X26.6095 Y14.9488
G01 Z-1.7000
G01 Z0
G00 Z2.0000
G00 X26.6095 Y19.3024
G01 Z-1.7000
G01 Z0
G00 Z2.0000
G00 X22.7995 Y23.1124
G01 Z-1.7000
G01 Z0
G00 Z2.0000
G00 X22.7995 Y26.2874
G01 Z-1.7000
G01 Z0
G00 Z2.0000
G00 X19.6245 Y26.2874
G01 Z-1.7000
G01 Z0
G00 Z2.0000
G00 X19.6245 Y23.1124
G01 Z-1.7000
G01 Z0
G00 Z2.0000
G00 X18.9895 Y19.3024
G01 Z-1.7000
G01 Z0
G00 Z2.0000
G00 X15.1795 Y18.3067
G01 Z-1.7000
G01 Z0
G00 Z2.0000
G00 X13.9095 Y18.3067
G01 Z-1.7000
G01 Z0
G00 Z2.0000
G00 X12.6395 Y18.3067
G01 Z-1.7000
G01 Z0
G00 Z2.0000
G00 X12.0045 Y23.1124
G01 Z-1.7000
G01 Z0
G00 Z2.0000
G00 X12.0045 Y26.2874
G01 Z-1.7000
G01 Z0
G00 Z2.0000
G00 X13.2745 Y41.2302
G01 Z-1.7000
G01 Z0
G00 Z2.0000
G00 X15.8145 Y41.2302
G01 Z-1.7000
G01 Z0
G00 Z2.0000
G00 X18.3545 Y41.2302
G01 Z-1.7000
G01 Z0
G00 Z2.0000
G00 X12.7182 Y48.2152
G01 Z-1.7000
G01 Z0
G00 Z2.0000
G00 X17.7195 Y48.2152
G01 Z-1.7000
G01 Z0
G00 Z2.0000
G00 X22.7995 Y46.6074
G01 Z-1.7000
G01 Z0
G00 Z2.0000
G00 X22.7995 Y50.4174
G01 Z-1.7000
G01 Z0
G00 Z2.0000
G00 X30.4195 Y50.4174
G01 Z-1.7000
G01 Z0
G00 Z2.0000
G00 X30.4195 Y46.6074
G01 Z-1.7000
G01 Z0
G00 Z2.0000
G00 X34.3742 Y44.5500
G01 Z-1.7000
G01 Z0
G00 Z2.0000
G00 X34.3742 Y42.0100
G01 Z-1.7000
G01 Z0
G00 Z2.0000
G00 X34.3742 Y39.4700
G01 Z-1.7000
G01 Z0
G00 Z2.0000
G00 X34.3742 Y36.9300
G01 Z-1.7000
G01 Z0
G00 Z2.0000
G00 X34.3742 Y34.3900
G01 Z-1.7000
G01 Z0
G00 Z2.0000
G00 X34.3742 Y31.8500
G01 Z-1.7000
G01 Z0
G00 Z2.0000
G00 X29.1495 Y31.0270
G01 Z-1.7000
G01 Z0
G00 Z2.0000
G00 X26.6095 Y31.0270
G01 Z-1.7000
G01 Z0
G00 Z2.0000
G00 X24.0695 Y31.0270
G01 Z-1.7000
G01 Z0
G00 Z2.0000
G00 X30.4195 Y26.2874
G01 Z-1.7000
G01 Z0
G00 Z2.0000
G00 X30.4195 Y23.1124
G01 Z-1.7000
G01 Z0
G00 Z2.0000
G00 X34.3742 Y19.1500
G01 Z-1.7000
G01 Z0
G00 Z2.0000
G00 X34.3742 Y16.6100
G01 Z-1.7000
G01 Z0
G00 Z2.0000
G00 X34.3742 Y14.0700
G01 Z-1.7000
G01 Z0
G00 Z2.0000
G00 X37.5315 Y17.2450
G01 Z-1.7000
G01 Z0
G00 Z2.0000
G00 X40.7065 Y17.2450
G01 Z-1.7000
G01 Z0
G00 Z2.0000
G00 X40.7065 Y9.6250
G01 Z-1.7000
G01 Z0
G00 Z2.0000
G00 X41.9460 Y6.4322
G01 Z-1.7000
G01 Z0
G00 Z2.0000
G00 X39.4060 Y6.4322
G01 Z-1.7000
G01 Z0
G00 Z2.0000
G00 X37.5315 Y9.6250
G01 Z-1.7000
G01 Z0
G00 Z2.0000
G00 X36.8660 Y6.4322
G01 Z-1.7000
G01 Z0
G00 Z2.0000
G00 X34.3412 Y2.0050
G01 Z-1.7000
G01 Z0
G00 Z2.0000
G00 X36.8812 Y2.0050
G01 Z-1.7000
G01 Z0
G00 Z2.0000
G00 X39.4212 Y2.0050
G01 Z-1.7000
G01 Z0
G00 Z2.0000
G00 X43.2465 Y2.0050
G01 Z-1.7000
G01 Z0
G00 Z2.0000
G00 X45.7865 Y2.0050
G01 Z-1.7000
G01 Z0
G00 Z2.0000
G00 X48.3265 Y2.0050
G01 Z-1.7000
G01 Z0
G00 Z2.0000
G00 X50.8665 Y2.0050
G01 Z-1.7000
G01 Z0
G00 Z2.0000
G00 X53.4065 Y2.0050
G01 Z-1.7000
G01 Z0
G00 Z2.0000
G00 X55.9465 Y2.0050
G01 Z-1.7000
G01 Z0
G00 Z2.0000
G00 X58.4865 Y2.0050
G01 Z-1.7000
G01 Z0
G00 Z2.0000
G00 X62.2965 Y8.9900
G01 Z-1.7000
G01 Z0
G00 Z2.0000
G00 X59.7565 Y11.5300
G01 Z-1.7000
G01 Z0
G00 Z2.0000
G00 X57.2342 Y14.0700
G01 Z-1.7000
G01 Z0
G00 Z2.0000
G00 X57.2342 Y16.6100
G01 Z-1.7000
G01 Z0
G00 Z2.0000
G00 X57.2342 Y19.1500
G01 Z-1.7000
G01 Z0
G00 Z2.0000
G00 X53.4065 Y21.6900
G01 Z-1.7000
G01 Z0
G00 Z2.0000
G00 X38.1665 Y21.6900
G01 Z-1.7000
G01 Z0
G00 Z2.0000
G00 X34.3742 Y21.6900
G01 Z-1.7000
G01 Z0
G00 Z2.0000
G00 X34.3742 Y24.2300
G01 Z-1.7000
G01 Z0
G00 Z2.0000
G00 X34.3742 Y26.7700
G01 Z-1.7000
G01 Z0
G00 Z2.0000
G00 X34.3742 Y29.3100
G01 Z-1.7000
G01 Z0
G00 Z2.0000
G00 X38.1665 Y30.8340
G01 Z-1.7000
G01 Z0
G00 Z2.0000
G00 X41.3796 Y41.3699
G01 Z-1.7000
G01 Z0
G00 Z2.0000
G00 X48.9792 Y41.3699
G01 Z-1.7000
G01 Z0
G00 Z2.0000
G00 X53.4242 Y41.3699
G01 Z-1.7000
G01 Z0
G00 Z2.0000
G00 X57.2342 Y44.5500
G01 Z-1.7000
G01 Z0
G00 Z2.0000
G00 X57.2342 Y42.0100
G01 Z-1.7000
G01 Z0
G00 Z2.0000
G00 X57.2342 Y39.4700
G01 Z-1.7000
G01 Z0
G00 Z2.0000
G00 X57.2342 Y36.9300
G01 Z-1.7000
G01 Z0
G00 Z2.0000
G00 X57.2342 Y34.3900
G01 Z-1.7000
G01 Z0
G00 Z2.0000
G00 X53.4242 Y33.7499
G01 Z-1.7000
G01 Z0
G00 Z2.0000
G00 X53.4065 Y30.8340
G01 Z-1.7000
G01 Z0
G00 Z2.0000
G00 X57.2342 Y31.8500
G01 Z-1.7000
G01 Z0
G00 Z2.0000
G00 X57.2342 Y29.3100
G01 Z-1.7000
G01 Z0
G00 Z2.0000
G00 X57.2342 Y26.7700
G01 Z-1.7000
G01 Z0
G00 Z2.0000
G00 X57.2342 Y24.2300
G01 Z-1.7000
G01 Z0
G00 Z2.0000
G00 X57.2342 Y21.6900
G01 Z-1.7000
G01 Z0
G00 Z2.0000
G00 X59.7565 Y19.1500
G01 Z-1.7000
G01 Z0
G00 Z2.0000
G00 X62.2965 Y16.6100
G01 Z-1.7000
G01 Z0
G00 Z2.0000
G00 X64.8365 Y11.5300
G01 Z-1.7000
G01 Z0
G00 Z2.0000
G00 X64.8365 Y14.0700
G01 Z-1.7000
G01 Z0
G00 Z2.0000
G00 X64.8365 Y16.6100
G01 Z-1.7000
G01 Z0
G00 Z2.0000
G00 X64.8365 Y19.1500
G01 Z-1.7000
G01 Z0
G00 Z2.0000
G00 X64.8365 Y21.6900
G01 Z-1.7000
G01 Z0
G00 Z2.0000
G00 X62.2965 Y21.6900
G01 Z-1.7000
G01 Z0
G00 Z2.0000
G00 X59.7565 Y21.6900
G01 Z-1.7000
G01 Z0
G00 Z2.0000
G00 X59.7565 Y24.2300
G01 Z-1.7000
G01 Z0
G00 Z2.0000
G00 X59.7717 Y26.7700
G01 Z-1.7000
G01 Z0
G00 Z2.0000
G00 X59.7565 Y29.3100
G01 Z-1.7000
G01 Z0
G00 Z2.0000
G00 X59.7565 Y31.8500
G01 Z-1.7000
G01 Z0
G00 Z2.0000
G00 X59.7717 Y34.3900
G01 Z-1.7000
G01 Z0
G00 Z2.0000
G00 X59.7717 Y36.9300
G01 Z-1.7000
G01 Z0
G00 Z2.0000
G00 X62.3117 Y36.9300
G01 Z-1.7000
G01 Z0
G00 Z2.0000
G00 X62.3117 Y34.3900
G01 Z-1.7000
G01 Z0
G00 Z2.0000
G00 X62.2965 Y31.8500
G01 Z-1.7000
G01 Z0
G00 Z2.0000
G00 X62.2965 Y29.3100
G01 Z-1.7000
G01 Z0
G00 Z2.0000
G00 X62.3117 Y26.7700
G01 Z-1.7000
G01 Z0
G00 Z2.0000
G00 X62.2965 Y24.2300
G01 Z-1.7000
G01 Z0
G00 Z2.0000
G00 X64.8365 Y24.2300
G01 Z-1.7000
G01 Z0
G00 Z2.0000
G00 X64.8517 Y26.7700
G01 Z-1.7000
G01 Z0
G00 Z2.0000
G00 X64.8365 Y29.3100
G01 Z-1.7000
G01 Z0
G00 Z2.0000
G00 X64.8365 Y31.8500
G01 Z-1.7000
G01 Z0
G00 Z2.0000
G00 X64.8517 Y34.3900
G01 Z-1.7000
G01 Z0
G00 Z2.0000
G00 X64.8517 Y36.9300
G01 Z-1.7000
G01 Z0
G00 Z2.0000
G00 X64.8365 Y41.3750
G01 Z-1.7000
G01 Z0
G00 Z2.0000
G00 X64.8365 Y43.9150
G01 Z-1.7000
G01 Z0
G00 Z2.0000
G00 X64.8365 Y46.4550
G01 Z-1.7000
G01 Z0
G00 Z2.0000
G00 X64.8365 Y48.9950
G01 Z-1.7000
G01 Z0
G00 Z2.0000
G00 X64.8365 Y51.5350
G01 Z-1.7000
G01 Z0
G00 Z2.0000
G00 X61.0265 Y47.7250
G01 Z-1.7000
G01 Z0
G00 Z2.0000
G00 X58.4865 Y50.9000
G01 Z-1.7000
G01 Z0
G00 Z2.0000
G00 X53.4065 Y47.7250
G01 Z-1.7000
G01 Z0
G00 Z2.0000
G00 X50.8665 Y50.9000
G01 Z-1.7000
G01 Z0
G00 Z2.0000
M05
G00 Z0.50


