(G-CODE GENERATED BY FLATCAM v8.994 - www.flatcam.org - Version Date: 2020/11/7)

(Name: Edge Cuts_cnc)
(Type: G-code from Geometry)
(Units: MM)

(Created on Sunday, 05 November 2023 at 00:13)


G01 F120.00

M5
G00 Z15.0000
G00 X0.0000 Y0.0000
T2
M6    
(MSG, Change to Tool Dia = 0.2388)
M0
G00 Z15.0000

M03
G01 F120.00
G00 X32.4000 Y0.0000
G01 F60.00
G01 Z-0.5000
G01 F120.00
G01 X32.4000 Y52.8000
G00 Z0.2000
G00 X32.4000 Y52.8000
G01 F60.00
G01 Z-0.5000
G01 F120.00
G01 X-0.1000 Y52.8000
G00 Z0.2000
G00 X0.1000 Y80.7000
G01 F60.00
G01 Z-0.5000
G01 F120.00
G01 X29.8000 Y80.7000
G00 Z0.2000
G00 X29.8000 Y80.7000
G01 F60.00
G01 Z-0.5000
G01 F120.00
G01 X29.8000 Y52.8000
G00 Z0.2000
G00 X32.4000 Y52.8000
G01 F60.00
G01 Z-0.5000
G01 F120.00
G01 X32.4000 Y55.3000
G00 Z0.2000
G00 X32.4000 Y55.3000
G01 F60.00
G01 Z-0.5000
G01 F120.00
G01 X67.4000 Y55.3000
G00 Z0.2000
M05
G00 Z0.2000
G00 Z5.00


