(G-CODE GENERATED BY FLATCAM v8.994 - www.flatcam.org - Version Date: 2020/11/7)

(Name: G4_Controller_Board-B_Cu.gbr_iso_combined_1_cnc)
(Type: G-code from Geometry)
(Units: MM)

(Created on Saturday, 04 November 2023 at 23:50)


G01 F120.00

M5
G00 Z15.0000
G00 X0.0000 Y0.0000
T1
M6    
(MSG, Change to Tool Dia = 0.2388)
M0
G00 Z15.0000

M03
G01 F120.00
G00 X1.1261 Y5.6363
G01 F60.00
G01 Z-0.1100
G01 F120.00
G01 X1.1270 Y5.6354
G01 X1.1270 Y5.6355
G01 X1.1261 Y5.6363
G00 Z2.0000
G00 X1.0740 Y5.6885
G01 F60.00
G01 Z-0.1100
G01 F120.00
G01 X1.0739 Y5.6885
G01 X1.0748 Y5.6876
G01 X1.0740 Y5.6885
G00 Z2.0000
G00 X0.8091 Y5.8199
G01 F60.00
G01 Z-0.1100
G01 F120.00
G01 X0.9314 Y5.6452
G01 X1.0837 Y5.4930
G01 X1.2583 Y5.3707
G01 X1.2583 Y5.6937
G01 X1.1923 Y5.7538
G01 X1.1322 Y5.8199
G01 X0.8091 Y5.8199
G00 Z2.0000
G00 X0.8091 Y7.0587
G01 F60.00
G01 Z-0.1100
G01 F120.00
G01 X1.1322 Y7.0587
G01 X1.1923 Y7.1247
G01 X1.2583 Y7.1848
G01 X1.2583 Y7.5079
G01 X1.0837 Y7.3856
G01 X0.9314 Y7.2333
G01 X0.8091 Y7.0587
G00 Z2.0000
G00 X1.0740 Y7.1900
G01 F60.00
G01 Z-0.1100
G01 F120.00
G01 X1.0748 Y7.1909
G01 X1.0739 Y7.1900
G01 X1.0740 Y7.1900
G00 Z2.0000
G00 X1.1261 Y7.2422
G01 F60.00
G01 Z-0.1100
G01 F120.00
G01 X1.1270 Y7.2430
G01 X1.1270 Y7.2431
G01 X1.1261 Y7.2422
G00 Z2.0000
G00 X2.6294 Y7.2422
G01 F60.00
G01 Z-0.1100
G01 F120.00
G01 X2.6285 Y7.2431
G01 X2.6285 Y7.2430
G01 X2.6294 Y7.2422
G00 Z2.0000
G00 X2.7600 Y7.0958
G01 F60.00
G01 Z-0.1100
G01 F120.00
G01 X2.7230 Y7.1486
G01 X2.6807 Y7.1909
G01 X2.7206 Y7.1469
G01 X2.7286 Y7.1376
G01 X2.7600 Y7.0958
G00 Z2.0000
G00 X3.2150 Y6.1741
G01 F60.00
G01 Z-0.1100
G01 F120.00
G01 X3.2114 Y6.1893
G01 X3.2078 Y6.2068
G01 X3.1926 Y6.3092
G01 X3.1902 Y6.3372
G01 X3.1861 Y6.4205
G01 X3.1856 Y6.4393
G01 X3.1861 Y6.4580
G01 X3.1902 Y6.5413
G01 X3.1916 Y6.5600
G01 X3.1939 Y6.5787
G01 X3.2061 Y6.6612
G01 X3.2093 Y6.6796
G01 X3.2138 Y6.6994
G01 X3.2031 Y6.6982
G01 X3.1842 Y6.6968
G01 X3.1557 Y6.6966
G01 X3.1368 Y6.6976
G01 X3.0807 Y6.7033
G01 X3.0842 Y6.6888
G01 X3.0878 Y6.6704
G01 X3.1016 Y6.5787
G01 X3.1039 Y6.5600
G01 X3.1053 Y6.5413
G01 X3.1093 Y6.4580
G01 X3.1098 Y6.4393
G01 X3.1093 Y6.4205
G01 X3.1053 Y6.3372
G01 X3.1039 Y6.3185
G01 X3.1016 Y6.2999
G01 X3.0893 Y6.2174
G01 X3.0861 Y6.1989
G01 X3.0819 Y6.1803
G01 X3.0919 Y6.1813
G01 X3.1109 Y6.1825
G01 X3.1393 Y6.1825
G01 X3.1677 Y6.1805
G01 X3.2150 Y6.1741
G00 Z2.0000
G00 X2.6807 Y5.6876
G01 F60.00
G01 Z-0.1100
G01 F120.00
G01 X2.7230 Y5.7300
G01 X2.7600 Y5.7828
G01 X2.7286 Y5.7410
G01 X2.7206 Y5.7317
G01 X2.6807 Y5.6876
G00 Z2.0000
G00 X2.6285 Y5.6354
G01 F60.00
G01 Z-0.1100
G01 F120.00
G01 X2.6294 Y5.6363
G01 X2.6285 Y5.6355
G01 X2.6285 Y5.6354
G00 Z2.0000
G00 X5.7256 Y5.8691
G01 F60.00
G01 Z-0.1100
G01 F120.00
G01 X5.7256 Y7.2893
G01 X5.7261 Y7.3080
G01 X5.7275 Y7.3267
G01 X5.7298 Y7.3453
G01 X5.7330 Y7.3638
G01 X5.7395 Y7.3912
G01 X5.7449 Y7.4091
G01 X5.7512 Y7.4268
G01 X5.7623 Y7.4526
G01 X5.7708 Y7.4694
G01 X5.7800 Y7.4857
G01 X5.7900 Y7.5015
G01 X5.8008 Y7.5169
G01 X5.8184 Y7.5388
G01 X5.8376 Y7.5594
G01 X5.8582 Y7.5786
G01 X5.8727 Y7.5905
G01 X5.8877 Y7.6017
G01 X5.9113 Y7.6170
G01 X5.9359 Y7.6306
G01 X5.9615 Y7.6423
G01 X5.9879 Y7.6521
G01 X6.0058 Y7.6575
G01 X6.0240 Y7.6621
G01 X6.0424 Y7.6657
G01 X6.0610 Y7.6685
G01 X6.0890 Y7.6709
G01 X6.1077 Y7.6714
G01 X7.8171 Y7.6712
G01 X7.8452 Y7.6695
G01 X7.8730 Y7.6657
G01 X7.9006 Y7.6599
G01 X7.9276 Y7.6521
G01 X7.9452 Y7.6458
G01 X7.9711 Y7.6347
G01 X7.9960 Y7.6217
G01 X8.0200 Y7.6070
G01 X8.0353 Y7.5962
G01 X8.0501 Y7.5846
G01 X8.0643 Y7.5724
G01 X8.0779 Y7.5594
G01 X8.0908 Y7.5459
G01 X8.1031 Y7.5317
G01 X8.1146 Y7.5169
G01 X8.1254 Y7.5015
G01 X8.1354 Y7.4857
G01 X8.1447 Y7.4694
G01 X8.1531 Y7.4526
G01 X8.1607 Y7.4355
G01 X8.1675 Y7.4180
G01 X8.1760 Y7.3912
G01 X8.1805 Y7.3730
G01 X8.1842 Y7.3546
G01 X8.1869 Y7.3360
G01 X8.1888 Y7.3174
G01 X8.1898 Y7.2893
G01 X8.1898 Y6.2781
G01 X8.2522 Y6.2157
G01 X12.2969 Y6.2157
G01 X12.2488 Y6.2278
G01 X12.2307 Y6.2328
G01 X12.2129 Y6.2387
G01 X12.1348 Y6.2667
G01 X12.1089 Y6.2778
G01 X12.0424 Y6.3093
G01 X12.0174 Y6.3223
G01 X11.9461 Y6.3648
G01 X11.9303 Y6.3749
G01 X11.9150 Y6.3857
G01 X11.8558 Y6.4295
G01 X11.8339 Y6.4471
G01 X11.7654 Y6.5092
G01 X8.7904 Y9.4840
G01 X6.0423 Y9.4840
G01 X6.0235 Y9.4845
G01 X5.9832 Y9.4865
G01 X5.1750 Y8.6783
G01 X5.1750 Y7.4103
G01 X5.1993 Y7.3917
G01 X5.2135 Y7.3794
G01 X5.2754 Y7.3234
G01 X5.2955 Y7.3038
G01 X5.3579 Y7.2351
G01 X5.3701 Y7.2209
G01 X5.3817 Y7.2061
G01 X5.4369 Y7.1315
G01 X5.4522 Y7.1079
G01 X5.4951 Y7.0364
G01 X5.5043 Y7.0201
G01 X5.5128 Y7.0033
G01 X5.5484 Y6.9279
G01 X5.5560 Y6.9108
G01 X5.5628 Y6.8933
G01 X5.5909 Y6.8147
G01 X5.5994 Y6.7879
G01 X5.6242 Y6.6888
G01 X5.6293 Y6.6612
G01 X5.6428 Y6.5694
G01 X5.6453 Y6.5413
G01 X5.6493 Y6.4580
G01 X5.6498 Y6.4393
G01 X5.6493 Y6.4205
G01 X5.6453 Y6.3372
G01 X5.6428 Y6.3092
G01 X5.6278 Y6.2081
G01 X5.6220 Y6.1806
G01 X5.5994 Y6.0906
G01 X5.5909 Y6.0638
G01 X5.5595 Y5.9765
G01 X5.5523 Y5.9592
G01 X5.5365 Y5.9254
G01 X5.5551 Y5.9234
G01 X5.5738 Y5.9204
G01 X5.5924 Y5.9165
G01 X5.6108 Y5.9117
G01 X5.6378 Y5.9027
G01 X5.7032 Y5.8783
G01 X5.7256 Y5.8691
G00 Z2.0000
G00 X8.3211 Y6.3471
G01 F60.00
G01 Z-0.1100
G01 F120.00
G01 X11.7488 Y6.3471
G01 X11.6841 Y6.4055
G01 X11.6658 Y6.4228
G01 X8.7360 Y9.3527
G01 X6.0352 Y9.3528
G01 X5.3063 Y8.6239
G01 X5.3063 Y7.4726
G01 X5.3636 Y7.4207
G01 X5.3818 Y7.4034
G01 X5.3992 Y7.3851
G01 X5.4552 Y7.3233
G01 X5.4717 Y7.3042
G01 X5.4872 Y7.2844
G01 X5.5442 Y7.2071
G01 X5.5582 Y7.1862
G01 X5.5943 Y7.1263
G01 X5.5945 Y7.3019
G01 X5.5949 Y7.3145
G01 X5.5968 Y7.3396
G01 X5.5999 Y7.3646
G01 X5.6042 Y7.3894
G01 X5.6097 Y7.4140
G01 X5.6129 Y7.4262
G01 X5.6202 Y7.4503
G01 X5.6287 Y7.4741
G01 X5.6384 Y7.4973
G01 X5.6491 Y7.5201
G01 X5.6610 Y7.5423
G01 X5.6740 Y7.5640
G01 X5.6880 Y7.5849
G01 X5.7030 Y7.6051
G01 X5.7190 Y7.6246
G01 X5.7359 Y7.6433
G01 X5.7537 Y7.6611
G01 X5.7724 Y7.6780
G01 X5.7919 Y7.6940
G01 X5.8121 Y7.7090
G01 X5.8330 Y7.7230
G01 X5.8547 Y7.7360
G01 X5.8769 Y7.7479
G01 X5.8997 Y7.7586
G01 X5.9229 Y7.7683
G01 X5.9467 Y7.7768
G01 X5.9708 Y7.7841
G01 X5.9830 Y7.7873
G01 X6.0076 Y7.7928
G01 X6.0199 Y7.7951
G01 X6.0449 Y7.7988
G01 X6.0574 Y7.8002
G01 X6.0825 Y7.8021
G01 X6.1077 Y7.8027
G01 X7.8077 Y7.8027
G01 X7.8329 Y7.8021
G01 X7.8580 Y7.8002
G01 X7.8706 Y7.7988
G01 X7.8955 Y7.7951
G01 X7.9079 Y7.7928
G01 X7.9325 Y7.7873
G01 X7.9447 Y7.7841
G01 X7.9688 Y7.7768
G01 X7.9807 Y7.7727
G01 X8.0042 Y7.7636
G01 X8.0158 Y7.7586
G01 X8.0386 Y7.7479
G01 X8.0608 Y7.7360
G01 X8.0717 Y7.7297
G01 X8.0930 Y7.7162
G01 X8.1034 Y7.7090
G01 X8.1136 Y7.7017
G01 X8.1334 Y7.6862
G01 X8.1525 Y7.6697
G01 X8.1617 Y7.6611
G01 X8.1796 Y7.6433
G01 X8.1965 Y7.6246
G01 X8.2046 Y7.6150
G01 X8.2125 Y7.6051
G01 X8.2275 Y7.5849
G01 X8.2346 Y7.5745
G01 X8.2481 Y7.5532
G01 X8.2605 Y7.5313
G01 X8.2718 Y7.5088
G01 X8.2821 Y7.4858
G01 X8.2867 Y7.4741
G01 X8.2911 Y7.4622
G01 X8.2990 Y7.4383
G01 X8.3058 Y7.4140
G01 X8.3087 Y7.4018
G01 X8.3136 Y7.3771
G01 X8.3173 Y7.3521
G01 X8.3198 Y7.3270
G01 X8.3210 Y7.3019
G01 X8.3211 Y6.3471
G00 Z2.0000
G00 X17.1830 Y6.2157
G01 F60.00
G01 Z-0.1100
G01 F120.00
G01 X17.5328 Y6.2157
G01 X19.7307 Y8.4135
G01 X19.7719 Y8.4508
G01 X19.7938 Y8.4684
G01 X19.8234 Y8.4903
G01 X19.8389 Y8.5012
G01 X19.8546 Y8.5112
G01 X19.8862 Y8.5301
G01 X19.9108 Y8.5436
G01 X19.9610 Y8.5674
G01 X19.9872 Y8.5779
G01 X20.0218 Y8.5903
G01 X20.0396 Y8.5961
G01 X20.0577 Y8.6011
G01 X20.1026 Y8.6123
G01 X20.1302 Y8.6174
G01 X20.1666 Y8.6228
G01 X20.1852 Y8.6251
G01 X20.2039 Y8.6265
G01 X20.2407 Y8.6283
G01 X20.2595 Y8.6287
G01 X25.4008 Y8.6287
G01 X25.3895 Y8.6364
G01 X25.3744 Y8.6476
G01 X25.3529 Y8.6657
G01 X25.3327 Y8.6853
G01 X25.3201 Y8.6992
G01 X25.3083 Y8.7137
G01 X25.2918 Y8.7365
G01 X25.2770 Y8.7605
G01 X25.2641 Y8.7854
G01 X25.2565 Y8.8026
G01 X25.2511 Y8.8163
G01 X18.9159 Y8.8163
G01 X17.1965 Y7.0970
G01 X17.1964 Y6.3071
G01 X17.1955 Y6.2884
G01 X17.1924 Y6.2604
G01 X17.1892 Y6.2419
G01 X17.1830 Y6.2157
G00 Z2.0000
G00 X17.3279 Y6.3471
G01 F60.00
G01 Z-0.1100
G01 F120.00
G01 X17.4784 Y6.3471
G01 X19.6401 Y8.5086
G01 X19.6767 Y8.5419
G01 X19.6957 Y8.5584
G01 X19.7156 Y8.5739
G01 X19.7452 Y8.5958
G01 X19.7660 Y8.6105
G01 X19.7871 Y8.6238
G01 X19.8186 Y8.6427
G01 X19.8406 Y8.6552
G01 X19.8631 Y8.6665
G01 X19.9024 Y8.6850
G01 X18.9703 Y8.6850
G01 X17.3279 Y7.0426
G01 X17.3279 Y6.3471
G00 Z2.0000
G00 X17.8891 Y4.9658
G01 F60.00
G01 Z-0.1100
G01 F120.00
G01 X17.9008 Y4.9670
G01 X17.9372 Y4.9724
G01 X17.9487 Y4.9747
G01 X17.9900 Y4.9852
G01 X18.0303 Y4.9994
G01 X18.0411 Y5.0039
G01 X18.0796 Y5.0223
G01 X18.1212 Y5.0472
G01 X18.1602 Y5.0762
G01 X18.1941 Y5.1067
G01 X20.4643 Y7.3769
G01 X27.9299 Y7.3769
G01 X27.9780 Y7.3792
G01 X28.0206 Y7.3854
G01 X28.0292 Y7.3870
G01 X28.0735 Y7.3982
G01 X28.1137 Y7.4124
G01 X28.1245 Y7.4169
G01 X28.1630 Y7.4353
G01 X28.1997 Y7.4571
G01 X28.2095 Y7.4636
G01 X28.2437 Y7.4892
G01 X28.2775 Y7.5197
G01 X30.1342 Y9.3763
G01 X30.1668 Y9.4123
G01 X30.1923 Y9.4465
G01 X30.1988 Y9.4562
G01 X30.2178 Y9.4878
G01 X30.2220 Y9.4955
G01 X30.2390 Y9.5314
G01 X30.2435 Y9.5422
G01 X30.2578 Y9.5825
G01 X30.2683 Y9.6238
G01 X30.2705 Y9.6353
G01 X30.2767 Y9.6776
G01 X30.2790 Y9.7261
G01 X30.2790 Y20.5715
G01 X30.2767 Y20.6195
G01 X30.2695 Y20.6680
G01 X30.2578 Y20.7150
G01 X30.2435 Y20.7553
G01 X30.2390 Y20.7661
G01 X30.2206 Y20.8046
G01 X30.1988 Y20.8413
G01 X30.1923 Y20.8510
G01 X30.1668 Y20.8852
G01 X30.1362 Y20.9191
G01 X27.5942 Y23.4612
G01 X27.5582 Y23.4938
G01 X27.5240 Y23.5193
G01 X27.5143 Y23.5258
G01 X27.4827 Y23.5448
G01 X27.4750 Y23.5490
G01 X27.4391 Y23.5660
G01 X27.4283 Y23.5705
G01 X27.3880 Y23.5848
G01 X27.3467 Y23.5953
G01 X27.3352 Y23.5976
G01 X27.2929 Y23.6037
G01 X27.2474 Y23.6060
G01 X23.5738 Y23.6061
G01 X23.5623 Y23.6247
G01 X23.5102 Y23.6947
G01 X23.4536 Y23.7573
G01 X23.4453 Y23.7656
G01 X23.3827 Y23.8222
G01 X23.3150 Y23.8726
G01 X23.3053 Y23.8791
G01 X23.2329 Y23.9223
G01 X23.1513 Y23.9609
G01 X23.0719 Y23.9894
G01 X23.0607 Y23.9929
G01 X22.9788 Y24.0132
G01 X22.8954 Y24.0257
G01 X22.8837 Y24.0269
G01 X22.7995 Y24.0309
G01 X22.7152 Y24.0269
G01 X22.7035 Y24.0257
G01 X22.6201 Y24.0132
G01 X22.5382 Y23.9929
G01 X22.5270 Y23.9894
G01 X22.4476 Y23.9609
G01 X22.3661 Y23.9223
G01 X22.2936 Y23.8791
G01 X22.2839 Y23.8726
G01 X22.2162 Y23.8222
G01 X22.1536 Y23.7656
G01 X22.1453 Y23.7573
G01 X22.0888 Y23.6947
G01 X22.0367 Y23.6247
G01 X22.0251 Y23.6061
G01 X20.3988 Y23.6061
G01 X20.3873 Y23.6247
G01 X20.3352 Y23.6947
G01 X20.2786 Y23.7573
G01 X20.2703 Y23.7656
G01 X20.2077 Y23.8222
G01 X20.1400 Y23.8726
G01 X20.1303 Y23.8791
G01 X20.0630 Y23.9194
G01 X20.0553 Y23.9237
G01 X19.9763 Y23.9609
G01 X19.8969 Y23.9894
G01 X19.8857 Y23.9929
G01 X19.8038 Y24.0132
G01 X19.7204 Y24.0257
G01 X19.7087 Y24.0269
G01 X19.6245 Y24.0309
G01 X19.5402 Y24.0269
G01 X19.5285 Y24.0257
G01 X19.4451 Y24.0132
G01 X19.3632 Y23.9929
G01 X19.3520 Y23.9894
G01 X19.2781 Y23.9630
G01 X19.2673 Y23.9585
G01 X19.1911 Y23.9223
G01 X19.1137 Y23.8759
G01 X19.0412 Y23.8222
G01 X18.9786 Y23.7656
G01 X18.9703 Y23.7573
G01 X18.9138 Y23.6947
G01 X18.8600 Y23.6223
G01 X18.8136 Y23.5449
G01 X18.7750 Y23.4633
G01 X18.7447 Y23.3784
G01 X18.7227 Y23.2908
G01 X18.7095 Y23.2016
G01 X18.7052 Y23.1173
G01 X18.7051 Y23.1085
G01 X18.7095 Y23.0214
G01 X18.7227 Y22.9321
G01 X18.7447 Y22.8446
G01 X18.7750 Y22.7596
G01 X18.8136 Y22.6781
G01 X18.8600 Y22.6007
G01 X18.9138 Y22.5282
G01 X18.9703 Y22.4656
G01 X18.9786 Y22.4573
G01 X19.0412 Y22.4008
G01 X19.1137 Y22.3470
G01 X19.1911 Y22.3006
G01 X19.2673 Y22.2644
G01 X19.2781 Y22.2600
G01 X19.3520 Y22.2335
G01 X19.3632 Y22.2301
G01 X19.4451 Y22.2097
G01 X19.5285 Y22.1972
G01 X19.5402 Y22.1961
G01 X19.6245 Y22.1921
G01 X19.7087 Y22.1961
G01 X19.7204 Y22.1972
G01 X19.8038 Y22.2097
G01 X19.8857 Y22.2301
G01 X19.8969 Y22.2335
G01 X19.9763 Y22.2621
G01 X20.0553 Y22.2993
G01 X20.0630 Y22.3035
G01 X20.1303 Y22.3439
G01 X20.1400 Y22.3504
G01 X20.2077 Y22.4008
G01 X20.2703 Y22.4573
G01 X20.2786 Y22.4656
G01 X20.3352 Y22.5282
G01 X20.3873 Y22.5983
G01 X20.3988 Y22.6169
G01 X22.0251 Y22.6169
G01 X22.0367 Y22.5983
G01 X22.0888 Y22.5282
G01 X22.1453 Y22.4656
G01 X22.1536 Y22.4573
G01 X22.2162 Y22.4008
G01 X22.2839 Y22.3504
G01 X22.2936 Y22.3439
G01 X22.3661 Y22.3006
G01 X22.4476 Y22.2621
G01 X22.5270 Y22.2335
G01 X22.5382 Y22.2301
G01 X22.6201 Y22.2097
G01 X22.7035 Y22.1972
G01 X22.7152 Y22.1961
G01 X22.7995 Y22.1921
G01 X22.8837 Y22.1961
G01 X22.8954 Y22.1972
G01 X22.9788 Y22.2097
G01 X23.0607 Y22.2301
G01 X23.0719 Y22.2335
G01 X23.1513 Y22.2621
G01 X23.2329 Y22.3006
G01 X23.3053 Y22.3439
G01 X23.3150 Y22.3504
G01 X23.3827 Y22.4008
G01 X23.4453 Y22.4573
G01 X23.4536 Y22.4656
G01 X23.5102 Y22.5282
G01 X23.5623 Y22.5983
G01 X23.5738 Y22.6169
G01 X27.0396 Y22.6169
G01 X29.2899 Y20.3666
G01 X29.2899 Y9.9309
G01 X27.7250 Y8.3661
G01 X20.2595 Y8.3661
G01 X20.2110 Y8.3637
G01 X20.1687 Y8.3576
G01 X20.1573 Y8.3553
G01 X20.1159 Y8.3448
G01 X20.0757 Y8.3305
G01 X20.0648 Y8.3260
G01 X20.0263 Y8.3077
G01 X19.9896 Y8.2858
G01 X19.9799 Y8.2793
G01 X19.9457 Y8.2538
G01 X19.9118 Y8.2232
G01 X17.6416 Y5.9531
G01 X8.1434 Y5.9531
G01 X7.9271 Y6.1693
G01 X7.9270 Y7.2951
G01 X7.9254 Y7.3097
G01 X7.9220 Y7.3239
G01 X7.9169 Y7.3377
G01 X7.9101 Y7.3507
G01 X7.9036 Y7.3604
G01 X7.8942 Y7.3716
G01 X7.8835 Y7.3816
G01 X7.8716 Y7.3902
G01 X7.8640 Y7.3946
G01 X7.8561 Y7.3984
G01 X7.8479 Y7.4017
G01 X7.8396 Y7.4044
G01 X7.8310 Y7.4064
G01 X7.8223 Y7.4078
G01 X7.8077 Y7.4087
G01 X6.1019 Y7.4085
G01 X6.0931 Y7.4078
G01 X6.0816 Y7.4058
G01 X6.0731 Y7.4035
G01 X6.0620 Y7.3996
G01 X6.0540 Y7.3959
G01 X6.0438 Y7.3902
G01 X6.0366 Y7.3852
G01 X6.0297 Y7.3797
G01 X6.0233 Y7.3737
G01 X6.0154 Y7.3650
G01 X6.0084 Y7.3556
G01 X6.0038 Y7.3481
G01 X5.9998 Y7.3403
G01 X5.9963 Y7.3322
G01 X5.9935 Y7.3239
G01 X5.9906 Y7.3126
G01 X5.9889 Y7.3010
G01 X5.9883 Y7.2893
G01 X5.9884 Y5.5863
G01 X5.9889 Y5.5776
G01 X5.9901 Y5.5689
G01 X5.9926 Y5.5574
G01 X5.9953 Y5.5491
G01 X5.9986 Y5.5409
G01 X6.0024 Y5.5330
G01 X6.0068 Y5.5254
G01 X6.0136 Y5.5158
G01 X6.0212 Y5.5069
G01 X6.0297 Y5.4989
G01 X6.0390 Y5.4917
G01 X6.0514 Y5.4840
G01 X6.0620 Y5.4790
G01 X6.0759 Y5.4742
G01 X6.0873 Y5.4716
G01 X6.1019 Y5.4700
G01 X7.2277 Y5.4699
G01 X7.5888 Y5.1088
G01 X7.6248 Y5.0762
G01 X7.6637 Y5.0472
G01 X7.7003 Y5.0252
G01 X7.7106 Y5.0197
G01 X7.7493 Y5.0015
G01 X7.7894 Y4.9870
G01 X7.8006 Y4.9836
G01 X7.8420 Y4.9734
G01 X7.8900 Y4.9663
G01 X7.9385 Y4.9639
G01 X17.8465 Y4.9639
G01 X17.8891 Y4.9658
G00 Z2.0000
G00 X17.8955 Y4.8347
G01 F60.00
G01 Z-0.1100
G01 F120.00
G01 X17.9070 Y4.8355
G01 X17.9200 Y4.8371
G01 X17.9625 Y4.8435
G01 X17.9806 Y4.8473
G01 X18.0222 Y4.8578
G01 X18.0340 Y4.8614
G01 X18.0745 Y4.8758
G01 X18.0917 Y4.8826
G01 X18.1305 Y4.9009
G01 X18.1415 Y4.9065
G01 X18.1522 Y4.9125
G01 X18.1942 Y4.9380
G01 X18.2338 Y4.9671
G01 X18.2435 Y4.9746
G01 X18.2801 Y5.0074
G01 X18.2891 Y5.0159
G01 X20.5187 Y7.2455
G01 X27.9299 Y7.2455
G01 X27.9422 Y7.2459
G01 X27.9904 Y7.2485
G01 X28.0035 Y7.2501
G01 X28.0399 Y7.2555
G01 X28.0580 Y7.2589
G01 X28.0997 Y7.2692
G01 X28.1116 Y7.2725
G01 X28.1579 Y7.2888
G01 X28.1751 Y7.2956
G01 X28.2140 Y7.3139
G01 X28.2249 Y7.3195
G01 X28.2357 Y7.3255
G01 X28.2725 Y7.3477
G01 X28.2877 Y7.3581
G01 X28.3270 Y7.3876
G01 X28.3363 Y7.3957
G01 X28.3681 Y7.4246
G01 X30.2271 Y9.2835
G01 X30.2603 Y9.3196
G01 X30.2722 Y9.3338
G01 X30.2978 Y9.3682
G01 X30.3049 Y9.3783
G01 X30.3115 Y9.3887
G01 X30.3335 Y9.4256
G01 X30.3393 Y9.4365
G01 X30.3578 Y9.4753
G01 X30.3627 Y9.4865
G01 X30.3672 Y9.4980
G01 X30.3834 Y9.5444
G01 X30.3957 Y9.5919
G01 X30.3984 Y9.6039
G01 X30.4005 Y9.6161
G01 X30.4074 Y9.6647
G01 X30.4083 Y9.6770
G01 X30.4103 Y9.7199
G01 X30.4104 Y20.5715
G01 X30.4101 Y20.5838
G01 X30.4075 Y20.6320
G01 X30.4059 Y20.6450
G01 X30.4005 Y20.6815
G01 X30.3984 Y20.6936
G01 X30.3957 Y20.7056
G01 X30.3852 Y20.7473
G01 X30.3796 Y20.7649
G01 X30.3627 Y20.8110
G01 X30.3420 Y20.8555
G01 X30.3365 Y20.8665
G01 X30.3304 Y20.8772
G01 X30.3050 Y20.9191
G01 X30.2978 Y20.9293
G01 X30.2722 Y20.9638
G01 X30.2603 Y20.9779
G01 X30.2271 Y21.0141
G01 X27.6827 Y23.5584
G01 X27.6509 Y23.5873
G01 X27.6415 Y23.5953
G01 X27.6023 Y23.6248
G01 X27.5871 Y23.6353
G01 X27.5502 Y23.6574
G01 X27.5395 Y23.6635
G01 X27.5285 Y23.6690
G01 X27.4897 Y23.6873
G01 X27.4725 Y23.6942
G01 X27.4262 Y23.7105
G01 X27.3786 Y23.7227
G01 X27.3605 Y23.7265
G01 X27.3180 Y23.7329
G01 X27.3058 Y23.7344
G01 X27.2568 Y23.7371
G01 X27.2445 Y23.7374
G01 X23.6422 Y23.7374
G01 X23.6193 Y23.7684
G01 X23.6077 Y23.7828
G01 X23.5467 Y23.8501
G01 X23.5335 Y23.8629
G01 X23.4708 Y23.9197
G01 X23.4563 Y23.9313
G01 X23.3933 Y23.9780
G01 X23.3832 Y23.9851
G01 X23.3728 Y23.9917
G01 X23.3055 Y24.0321
G01 X23.2893 Y24.0410
G01 X23.2128 Y24.0772
G01 X23.2016 Y24.0822
G01 X23.1901 Y24.0867
G01 X23.1162 Y24.1131
G01 X23.1045 Y24.1170
G01 X23.0926 Y24.1203
G01 X23.0165 Y24.1393
G01 X23.0045 Y24.1420
G01 X22.9923 Y24.1441
G01 X22.9147 Y24.1557
G01 X22.9025 Y24.1572
G01 X22.8902 Y24.1581
G01 X22.8118 Y24.1619
G01 X22.7995 Y24.1622
G01 X22.7872 Y24.1619
G01 X22.7087 Y24.1581
G01 X22.6965 Y24.1572
G01 X22.6843 Y24.1557
G01 X22.6066 Y24.1441
G01 X22.5945 Y24.1420
G01 X22.5825 Y24.1393
G01 X22.4950 Y24.1171
G01 X22.4828 Y24.1131
G01 X22.4088 Y24.0867
G01 X22.3974 Y24.0822
G01 X22.3861 Y24.0772
G01 X22.3096 Y24.0410
G01 X22.2934 Y24.0321
G01 X22.2261 Y23.9917
G01 X22.2157 Y23.9851
G01 X22.2056 Y23.9780
G01 X22.1426 Y23.9313
G01 X22.1282 Y23.9197
G01 X22.0654 Y23.8629
G01 X22.0522 Y23.8501
G01 X21.9912 Y23.7828
G01 X21.9834 Y23.7733
G01 X21.9580 Y23.7392
G01 X20.4671 Y23.7376
G01 X20.4443 Y23.7684
G01 X20.4327 Y23.7828
G01 X20.3717 Y23.8501
G01 X20.3585 Y23.8629
G01 X20.2958 Y23.9197
G01 X20.2813 Y23.9313
G01 X20.2183 Y23.9780
G01 X20.2082 Y23.9851
G01 X20.1978 Y23.9917
G01 X20.1305 Y24.0321
G01 X20.1143 Y24.0410
G01 X20.0378 Y24.0772
G01 X20.0266 Y24.0822
G01 X20.0151 Y24.0867
G01 X19.9412 Y24.1131
G01 X19.9295 Y24.1170
G01 X19.9176 Y24.1203
G01 X19.8415 Y24.1393
G01 X19.8295 Y24.1420
G01 X19.8173 Y24.1441
G01 X19.7397 Y24.1557
G01 X19.7275 Y24.1572
G01 X19.7152 Y24.1581
G01 X19.6306 Y24.1621
G01 X19.6122 Y24.1619
G01 X19.5337 Y24.1581
G01 X19.5215 Y24.1572
G01 X19.5093 Y24.1557
G01 X19.4316 Y24.1441
G01 X19.4195 Y24.1420
G01 X19.4075 Y24.1393
G01 X19.3200 Y24.1171
G01 X19.3078 Y24.1131
G01 X19.2338 Y24.0867
G01 X19.2224 Y24.0822
G01 X19.2111 Y24.0772
G01 X19.1401 Y24.0437
G01 X19.1291 Y24.0381
G01 X19.1184 Y24.0321
G01 X19.0511 Y23.9917
G01 X19.0407 Y23.9851
G01 X19.0306 Y23.9780
G01 X18.9676 Y23.9313
G01 X18.9579 Y23.9237
G01 X18.9486 Y23.9157
G01 X18.8904 Y23.8629
G01 X18.8815 Y23.8545
G01 X18.8730 Y23.8455
G01 X18.8203 Y23.7874
G01 X18.8122 Y23.7781
G01 X18.8047 Y23.7684
G01 X18.7579 Y23.7053
G01 X18.7508 Y23.6952
G01 X18.7442 Y23.6848
G01 X18.7039 Y23.6175
G01 X18.6978 Y23.6068
G01 X18.6923 Y23.5958
G01 X18.6587 Y23.5248
G01 X18.6537 Y23.5136
G01 X18.6493 Y23.5021
G01 X18.6228 Y23.4282
G01 X18.6190 Y23.4165
G01 X18.6157 Y23.4046
G01 X18.5966 Y23.3285
G01 X18.5939 Y23.3165
G01 X18.5918 Y23.3043
G01 X18.5803 Y23.2267
G01 X18.5788 Y23.2145
G01 X18.5779 Y23.2022
G01 X18.5740 Y23.1238
G01 X18.5737 Y23.1115
G01 X18.5740 Y23.0992
G01 X18.5779 Y23.0208
G01 X18.5788 Y23.0085
G01 X18.5803 Y22.9963
G01 X18.5918 Y22.9186
G01 X18.5939 Y22.9065
G01 X18.5966 Y22.8945
G01 X18.6157 Y22.8183
G01 X18.6190 Y22.8065
G01 X18.6228 Y22.7948
G01 X18.6493 Y22.7209
G01 X18.6537 Y22.7094
G01 X18.6587 Y22.6981
G01 X18.6923 Y22.6272
G01 X18.6978 Y22.6162
G01 X18.7039 Y22.6055
G01 X18.7442 Y22.5381
G01 X18.7508 Y22.5277
G01 X18.7579 Y22.5177
G01 X18.8047 Y22.4546
G01 X18.8122 Y22.4449
G01 X18.8203 Y22.4356
G01 X18.8730 Y22.3774
G01 X18.8815 Y22.3685
G01 X18.8904 Y22.3600
G01 X18.9486 Y22.3073
G01 X18.9579 Y22.2992
G01 X18.9676 Y22.2917
G01 X19.0306 Y22.2449
G01 X19.0407 Y22.2378
G01 X19.0511 Y22.2312
G01 X19.1184 Y22.1909
G01 X19.1291 Y22.1848
G01 X19.1401 Y22.1793
G01 X19.2111 Y22.1457
G01 X19.2224 Y22.1407
G01 X19.2338 Y22.1363
G01 X19.3136 Y22.1078
G01 X19.3313 Y22.1027
G01 X19.4075 Y22.0836
G01 X19.4195 Y22.0809
G01 X19.4316 Y22.0788
G01 X19.5093 Y22.0673
G01 X19.5215 Y22.0658
G01 X19.5337 Y22.0649
G01 X19.6122 Y22.0610
G01 X19.6245 Y22.0607
G01 X19.6368 Y22.0610
G01 X19.7152 Y22.0649
G01 X19.7275 Y22.0658
G01 X19.7397 Y22.0673
G01 X19.8173 Y22.0788
G01 X19.8295 Y22.0809
G01 X19.8415 Y22.0836
G01 X19.9176 Y22.1027
G01 X19.9353 Y22.1078
G01 X20.0151 Y22.1363
G01 X20.0266 Y22.1407
G01 X20.0378 Y22.1457
G01 X20.1088 Y22.1793
G01 X20.1198 Y22.1848
G01 X20.1305 Y22.1909
G01 X20.1978 Y22.2312
G01 X20.2133 Y22.2413
G01 X20.2813 Y22.2917
G01 X20.2910 Y22.2992
G01 X20.3004 Y22.3073
G01 X20.3630 Y22.3642
G01 X20.3759 Y22.3774
G01 X20.4327 Y22.4402
G01 X20.4405 Y22.4497
G01 X20.4659 Y22.4838
G01 X21.9568 Y22.4854
G01 X21.9797 Y22.4546
G01 X21.9912 Y22.4402
G01 X22.0522 Y22.3729
G01 X22.0654 Y22.3600
G01 X22.1282 Y22.3032
G01 X22.1426 Y22.2917
G01 X22.2056 Y22.2449
G01 X22.2157 Y22.2378
G01 X22.2261 Y22.2312
G01 X22.2934 Y22.1909
G01 X22.3096 Y22.1820
G01 X22.3861 Y22.1457
G01 X22.3974 Y22.1407
G01 X22.4088 Y22.1363
G01 X22.4828 Y22.1098
G01 X22.4944 Y22.1060
G01 X22.5063 Y22.1027
G01 X22.5825 Y22.0836
G01 X22.5945 Y22.0809
G01 X22.6066 Y22.0788
G01 X22.6843 Y22.0673
G01 X22.6965 Y22.0658
G01 X22.7087 Y22.0649
G01 X22.7872 Y22.0610
G01 X22.7995 Y22.0607
G01 X22.8118 Y22.0610
G01 X22.8902 Y22.0649
G01 X22.9025 Y22.0658
G01 X22.9147 Y22.0673
G01 X22.9923 Y22.0788
G01 X23.0045 Y22.0809
G01 X23.0165 Y22.0836
G01 X23.0926 Y22.1027
G01 X23.1045 Y22.1060
G01 X23.1162 Y22.1098
G01 X23.1901 Y22.1363
G01 X23.2016 Y22.1407
G01 X23.2128 Y22.1457
G01 X23.2893 Y22.1820
G01 X23.3055 Y22.1909
G01 X23.3728 Y22.2312
G01 X23.3832 Y22.2378
G01 X23.3933 Y22.2449
G01 X23.4563 Y22.2917
G01 X23.4708 Y22.3032
G01 X23.5335 Y22.3600
G01 X23.5467 Y22.3729
G01 X23.6077 Y22.4402
G01 X23.6155 Y22.4497
G01 X23.6408 Y22.4837
G01 X26.9853 Y22.4855
G01 X29.1585 Y20.3122
G01 X29.1585 Y9.9853
G01 X27.6706 Y8.4974
G01 X20.2595 Y8.4974
G01 X20.2104 Y8.4953
G01 X20.1981 Y8.4944
G01 X20.1495 Y8.4875
G01 X20.1374 Y8.4854
G01 X20.1253 Y8.4827
G01 X20.0837 Y8.4722
G01 X20.0719 Y8.4686
G01 X20.0314 Y8.4542
G01 X20.0143 Y8.4473
G01 X19.9699 Y8.4263
G01 X19.9537 Y8.4174
G01 X19.9118 Y8.3920
G01 X19.8721 Y8.3629
G01 X19.8577 Y8.3514
G01 X19.8213 Y8.3184
G01 X17.5872 Y6.0844
G01 X16.9094 Y6.0844
G01 X16.9217 Y6.0898
G01 X16.9381 Y6.0983
G01 X16.9538 Y6.1080
G01 X16.9638 Y6.1151
G01 X16.9735 Y6.1227
G01 X16.9874 Y6.1349
G01 X17.0002 Y6.1481
G01 X17.0121 Y6.1622
G01 X17.0229 Y6.1772
G01 X17.0295 Y6.1876
G01 X17.0356 Y6.1983
G01 X17.0437 Y6.2149
G01 X17.0505 Y6.2320
G01 X17.0561 Y6.2496
G01 X17.0591 Y6.2615
G01 X17.0625 Y6.2797
G01 X17.0645 Y6.2980
G01 X17.0652 Y6.3165
G01 X17.0652 Y7.1514
G01 X18.8615 Y8.9477
G01 X25.3587 Y8.9477
G01 X25.3590 Y8.9365
G01 X25.3599 Y8.9242
G01 X25.3614 Y8.9120
G01 X25.3635 Y8.8999
G01 X25.3678 Y8.8819
G01 X25.3714 Y8.8701
G01 X25.3755 Y8.8586
G01 X25.3828 Y8.8416
G01 X25.3883 Y8.8306
G01 X25.3944 Y8.8199
G01 X25.4010 Y8.8095
G01 X25.4081 Y8.7994
G01 X25.4156 Y8.7897
G01 X25.4237 Y8.7804
G01 X25.4322 Y8.7715
G01 X25.4411 Y8.7630
G01 X25.4504 Y8.7550
G01 X25.4601 Y8.7474
G01 X25.4702 Y8.7403
G01 X25.4806 Y8.7337
G01 X25.4967 Y8.7248
G01 X25.5079 Y8.7196
G01 X25.5192 Y8.7149
G01 X25.5367 Y8.7089
G01 X25.5485 Y8.7056
G01 X25.5605 Y8.7029
G01 X25.5727 Y8.7008
G01 X25.5849 Y8.6993
G01 X25.5972 Y8.6984
G01 X25.6095 Y8.6981
G01 X27.6095 Y8.6981
G01 X27.6218 Y8.6984
G01 X27.6340 Y8.6993
G01 X27.6463 Y8.7008
G01 X27.6644 Y8.7042
G01 X27.6763 Y8.7071
G01 X27.6881 Y8.7107
G01 X27.6997 Y8.7149
G01 X27.7111 Y8.7196
G01 X27.7222 Y8.7248
G01 X27.7384 Y8.7337
G01 X27.7538 Y8.7438
G01 X27.7685 Y8.7550
G01 X27.7824 Y8.7672
G01 X27.7952 Y8.7804
G01 X27.8071 Y8.7945
G01 X27.8179 Y8.8095
G01 X27.8276 Y8.8252
G01 X27.8334 Y8.8361
G01 X27.8411 Y8.8528
G01 X27.8475 Y8.8701
G01 X27.8527 Y8.8879
G01 X27.8565 Y8.9059
G01 X27.8583 Y8.9181
G01 X27.8599 Y8.9365
G01 X27.8602 Y8.9488
G01 X27.8602 Y10.9488
G01 X27.8599 Y10.9611
G01 X27.8590 Y10.9734
G01 X27.8575 Y10.9856
G01 X27.8554 Y10.9977
G01 X27.8511 Y11.0157
G01 X27.8475 Y11.0275
G01 X27.8434 Y11.0390
G01 X27.8387 Y11.0504
G01 X27.8306 Y11.0670
G01 X27.8213 Y11.0829
G01 X27.8145 Y11.0932
G01 X27.8033 Y11.1079
G01 X27.7911 Y11.1217
G01 X27.7778 Y11.1346
G01 X27.7685 Y11.1426
G01 X27.7538 Y11.1538
G01 X27.7384 Y11.1639
G01 X27.7222 Y11.1728
G01 X27.7054 Y11.1805
G01 X27.6939 Y11.1849
G01 X27.6822 Y11.1887
G01 X27.6644 Y11.1934
G01 X27.6463 Y11.1968
G01 X27.6279 Y11.1989
G01 X27.6095 Y11.1995
G01 X25.6033 Y11.1995
G01 X25.5910 Y11.1989
G01 X25.5788 Y11.1977
G01 X25.5666 Y11.1958
G01 X25.5545 Y11.1934
G01 X25.5367 Y11.1887
G01 X25.5250 Y11.1849
G01 X25.5135 Y11.1805
G01 X25.5023 Y11.1755
G01 X25.4913 Y11.1699
G01 X25.4806 Y11.1639
G01 X25.4702 Y11.1573
G01 X25.4601 Y11.1502
G01 X25.4504 Y11.1426
G01 X25.4411 Y11.1346
G01 X25.4322 Y11.1261
G01 X25.4237 Y11.1172
G01 X25.4156 Y11.1079
G01 X25.4081 Y11.0982
G01 X25.4010 Y11.0881
G01 X25.3944 Y11.0777
G01 X25.3883 Y11.0670
G01 X25.3828 Y11.0560
G01 X25.3778 Y11.0448
G01 X25.3734 Y11.0333
G01 X25.3695 Y11.0216
G01 X25.3662 Y11.0097
G01 X25.3635 Y10.9977
G01 X25.3614 Y10.9856
G01 X25.3599 Y10.9734
G01 X25.3590 Y10.9611
G01 X25.3587 Y10.9499
G01 X18.4468 Y10.9499
G01 X18.4345 Y10.9496
G01 X18.3609 Y10.9460
G01 X18.3487 Y10.9451
G01 X18.3364 Y10.9436
G01 X18.2575 Y10.9318
G01 X18.2395 Y10.9280
G01 X18.1680 Y10.9101
G01 X18.1562 Y10.9068
G01 X18.1445 Y10.9029
G01 X18.0752 Y10.8781
G01 X18.0637 Y10.8737
G01 X18.0524 Y10.8687
G01 X17.9859 Y10.8372
G01 X17.9749 Y10.8317
G01 X17.9642 Y10.8256
G01 X17.9010 Y10.7878
G01 X17.8906 Y10.7812
G01 X17.8805 Y10.7741
G01 X17.8214 Y10.7302
G01 X17.8117 Y10.7227
G01 X17.8024 Y10.7146
G01 X17.7478 Y10.6652
G01 X17.7389 Y10.6567
G01 X15.6494 Y8.5672
G01 X14.8145 Y8.5672
G01 X14.8022 Y8.5669
G01 X14.7838 Y8.5653
G01 X14.7716 Y8.5635
G01 X14.7595 Y8.5611
G01 X14.7476 Y8.5581
G01 X14.7358 Y8.5546
G01 X14.7185 Y8.5481
G01 X14.7017 Y8.5404
G01 X14.6909 Y8.5346
G01 X14.6803 Y8.5283
G01 X14.6651 Y8.5179
G01 X14.6507 Y8.5063
G01 X14.6372 Y8.4938
G01 X14.6287 Y8.4849
G01 X14.6206 Y8.4755
G01 X14.6131 Y8.4658
G01 X14.6060 Y8.4558
G01 X14.5963 Y8.4401
G01 X14.5878 Y8.4237
G01 X14.5828 Y8.4124
G01 X14.5784 Y8.4009
G01 X14.5745 Y8.3893
G01 X14.5712 Y8.3774
G01 X14.5674 Y8.3593
G01 X14.5649 Y8.3411
G01 X14.5640 Y8.3288
G01 X14.5637 Y8.3176
G01 X12.9741 Y8.3176
G01 X9.9674 Y11.3244
G01 X9.9584 Y11.3329
G01 X9.9039 Y11.3823
G01 X9.8946 Y11.3903
G01 X9.8849 Y11.3979
G01 X9.8249 Y11.4424
G01 X9.8152 Y11.4492
G01 X9.8053 Y11.4555
G01 X9.7421 Y11.4933
G01 X9.7259 Y11.5022
G01 X9.6538 Y11.5364
G01 X9.6426 Y11.5414
G01 X9.6311 Y11.5458
G01 X9.5618 Y11.5706
G01 X9.5501 Y11.5745
G01 X9.5382 Y11.5778
G01 X9.4668 Y11.5957
G01 X9.4548 Y11.5984
G01 X9.4426 Y11.6005
G01 X9.3698 Y11.6113
G01 X9.3576 Y11.6128
G01 X9.3453 Y11.6137
G01 X9.2656 Y11.6175
G01 X6.4569 Y11.6176
G01 X5.9252 Y12.1493
G01 X5.9252 Y13.4843
G01 X5.9245 Y13.5027
G01 X5.9225 Y13.5211
G01 X5.9204 Y13.5332
G01 X5.9177 Y13.5452
G01 X5.9144 Y13.5571
G01 X5.9105 Y13.5687
G01 X5.9037 Y13.5859
G01 X5.8984 Y13.5970
G01 X5.8926 Y13.6079
G01 X5.8863 Y13.6184
G01 X5.8795 Y13.6287
G01 X5.8683 Y13.6433
G01 X5.8561 Y13.6572
G01 X5.8474 Y13.6659
G01 X5.8382 Y13.6741
G01 X5.8238 Y13.6857
G01 X5.8138 Y13.6928
G01 X5.8034 Y13.6993
G01 X5.7927 Y13.7054
G01 X5.7817 Y13.7109
G01 X5.7647 Y13.7182
G01 X5.7531 Y13.7224
G01 X5.7413 Y13.7259
G01 X5.7234 Y13.7302
G01 X5.7113 Y13.7323
G01 X5.6990 Y13.7338
G01 X5.6868 Y13.7347
G01 X5.6757 Y13.7350
G01 X5.6757 Y16.4058
G01 X5.7419 Y16.5161
G01 X5.7480 Y16.5268
G01 X5.7535 Y16.5378
G01 X5.8060 Y16.6487
G01 X5.8110 Y16.6600
G01 X5.8154 Y16.6714
G01 X5.8567 Y16.7869
G01 X5.8606 Y16.7986
G01 X5.8639 Y16.8105
G01 X5.8937 Y16.9295
G01 X5.8964 Y16.9415
G01 X5.8985 Y16.9536
G01 X5.9165 Y17.0750
G01 X5.9180 Y17.0872
G01 X5.9189 Y17.0995
G01 X5.9251 Y17.2281
G01 X5.9249 Y17.2466
G01 X5.9189 Y17.3691
G01 X5.9180 Y17.3814
G01 X5.9165 Y17.3936
G01 X5.8983 Y17.5161
G01 X5.8962 Y17.5276
G01 X5.8639 Y17.6581
G01 X5.8606 Y17.6699
G01 X5.8567 Y17.6816
G01 X5.8154 Y17.7971
G01 X5.8110 Y17.8086
G01 X5.8060 Y17.8198
G01 X5.7535 Y17.9307
G01 X5.7480 Y17.9417
G01 X5.7419 Y17.9524
G01 X5.6757 Y18.0628
G01 X5.6757 Y21.4058
G01 X5.7419 Y21.5161
G01 X5.7480 Y21.5268
G01 X5.7535 Y21.5378
G01 X5.8060 Y21.6487
G01 X5.8110 Y21.6600
G01 X5.8154 Y21.6714
G01 X5.8567 Y21.7869
G01 X5.8606 Y21.7986
G01 X5.8639 Y21.8105
G01 X5.8937 Y21.9295
G01 X5.8964 Y21.9415
G01 X5.8985 Y21.9536
G01 X5.9165 Y22.0750
G01 X5.9180 Y22.0872
G01 X5.9189 Y22.0995
G01 X5.9249 Y22.2220
G01 X5.9252 Y22.2343
G01 X5.9249 Y22.2466
G01 X5.9189 Y22.3691
G01 X5.9180 Y22.3814
G01 X5.9165 Y22.3936
G01 X5.8983 Y22.5161
G01 X5.8962 Y22.5276
G01 X5.8639 Y22.6581
G01 X5.8606 Y22.6699
G01 X5.8567 Y22.6816
G01 X5.8154 Y22.7971
G01 X5.8110 Y22.8086
G01 X5.8060 Y22.8198
G01 X5.7535 Y22.9307
G01 X5.7480 Y22.9417
G01 X5.7419 Y22.9524
G01 X5.6789 Y23.0576
G01 X5.6723 Y23.0680
G01 X5.6652 Y23.0781
G01 X5.5921 Y23.1766
G01 X5.5846 Y23.1863
G01 X5.5765 Y23.1957
G01 X5.4941 Y23.2865
G01 X5.4856 Y23.2955
G01 X5.4767 Y23.3039
G01 X5.3858 Y23.3863
G01 X5.3768 Y23.3941
G01 X5.3668 Y23.4019
G01 X5.2683 Y23.4750
G01 X5.2582 Y23.4821
G01 X5.2478 Y23.4887
G01 X5.1426 Y23.5517
G01 X5.1319 Y23.5578
G01 X5.1209 Y23.5633
G01 X5.0100 Y23.6158
G01 X4.9988 Y23.6208
G01 X4.9873 Y23.6252
G01 X4.8718 Y23.6665
G01 X4.8601 Y23.6704
G01 X4.8482 Y23.6737
G01 X4.7293 Y23.7035
G01 X4.7172 Y23.7062
G01 X4.7051 Y23.7083
G01 X4.5838 Y23.7263
G01 X4.5716 Y23.7278
G01 X4.5593 Y23.7287
G01 X4.4368 Y23.7347
G01 X4.4245 Y23.7350
G01 X4.4122 Y23.7347
G01 X4.2896 Y23.7287
G01 X4.2774 Y23.7278
G01 X4.2651 Y23.7263
G01 X4.1438 Y23.7083
G01 X4.1311 Y23.7061
G01 X4.0007 Y23.6737
G01 X3.9888 Y23.6704
G01 X3.9771 Y23.6665
G01 X3.8616 Y23.6252
G01 X3.8502 Y23.6208
G01 X3.8389 Y23.6158
G01 X3.7280 Y23.5633
G01 X3.7170 Y23.5578
G01 X3.7063 Y23.5517
G01 X3.6011 Y23.4887
G01 X3.5907 Y23.4821
G01 X3.5806 Y23.4750
G01 X3.4772 Y23.3982
G01 X3.4631 Y23.3863
G01 X3.3722 Y23.3039
G01 X3.3633 Y23.2955
G01 X3.3548 Y23.2865
G01 X3.2724 Y23.1957
G01 X3.2646 Y23.1866
G01 X3.2568 Y23.1766
G01 X3.1837 Y23.0781
G01 X3.1766 Y23.0680
G01 X3.1701 Y23.0576
G01 X3.1070 Y22.9524
G01 X3.1009 Y22.9417
G01 X3.0954 Y22.9307
G01 X3.0429 Y22.8198
G01 X3.0380 Y22.8086
G01 X3.0335 Y22.7971
G01 X2.9922 Y22.6816
G01 X2.9883 Y22.6699
G01 X2.9851 Y22.6581
G01 X2.9553 Y22.5391
G01 X2.9526 Y22.5271
G01 X2.9505 Y22.5149
G01 X2.9325 Y22.3936
G01 X2.9309 Y22.3814
G01 X2.9300 Y22.3691
G01 X2.9240 Y22.2466
G01 X2.9237 Y22.2343
G01 X2.9240 Y22.2220
G01 X2.9300 Y22.0995
G01 X2.9309 Y22.0880
G01 X2.9325 Y22.0750
G01 X2.9505 Y21.9536
G01 X2.9526 Y21.9415
G01 X2.9553 Y21.9295
G01 X2.9851 Y21.8105
G01 X2.9883 Y21.7986
G01 X2.9922 Y21.7869
G01 X3.0335 Y21.6714
G01 X3.0380 Y21.6600
G01 X3.0429 Y21.6487
G01 X3.0958 Y21.5370
G01 X3.1011 Y21.5264
G01 X3.1070 Y21.5161
G01 X3.1732 Y21.4058
G01 X3.1732 Y18.0628
G01 X3.1070 Y17.9524
G01 X3.1009 Y17.9417
G01 X3.0954 Y17.9307
G01 X3.0429 Y17.8198
G01 X3.0380 Y17.8086
G01 X3.0335 Y17.7971
G01 X2.9922 Y17.6816
G01 X2.9883 Y17.6699
G01 X2.9851 Y17.6581
G01 X2.9553 Y17.5391
G01 X2.9526 Y17.5271
G01 X2.9505 Y17.5149
G01 X2.9325 Y17.3936
G01 X2.9309 Y17.3814
G01 X2.9300 Y17.3691
G01 X2.9240 Y17.2466
G01 X2.9237 Y17.2343
G01 X2.9240 Y17.2220
G01 X2.9300 Y17.0995
G01 X2.9309 Y17.0880
G01 X2.9325 Y17.0750
G01 X2.9505 Y16.9536
G01 X2.9526 Y16.9415
G01 X2.9553 Y16.9295
G01 X2.9851 Y16.8105
G01 X2.9883 Y16.7986
G01 X2.9922 Y16.7869
G01 X3.0335 Y16.6714
G01 X3.0380 Y16.6600
G01 X3.0429 Y16.6487
G01 X3.0958 Y16.5370
G01 X3.1011 Y16.5264
G01 X3.1070 Y16.5161
G01 X3.1732 Y16.4058
G01 X3.1732 Y13.7350
G01 X3.1622 Y13.7347
G01 X3.1499 Y13.7338
G01 X3.1377 Y13.7323
G01 X3.1255 Y13.7302
G01 X3.1076 Y13.7259
G01 X3.0958 Y13.7224
G01 X3.0842 Y13.7182
G01 X3.0729 Y13.7135
G01 X3.0617 Y13.7082
G01 X3.0509 Y13.7024
G01 X3.0403 Y13.6961
G01 X3.0251 Y13.6857
G01 X3.0154 Y13.6781
G01 X3.0061 Y13.6701
G01 X2.9972 Y13.6616
G01 X2.9887 Y13.6527
G01 X2.9768 Y13.6385
G01 X2.9695 Y13.6287
G01 X2.9626 Y13.6184
G01 X2.9563 Y13.6079
G01 X2.9505 Y13.5970
G01 X2.9452 Y13.5859
G01 X2.9405 Y13.5745
G01 X2.9364 Y13.5629
G01 X2.9328 Y13.5512
G01 X2.9285 Y13.5332
G01 X2.9264 Y13.5211
G01 X2.9249 Y13.5089
G01 X2.9240 Y13.4966
G01 X2.9237 Y13.4843
G01 X2.9237 Y10.9843
G01 X2.9240 Y10.9720
G01 X2.9249 Y10.9597
G01 X2.9264 Y10.9475
G01 X2.9285 Y10.9354
G01 X2.9328 Y10.9174
G01 X2.9384 Y10.8998
G01 X2.9428 Y10.8883
G01 X2.9478 Y10.8771
G01 X2.9533 Y10.8661
G01 X2.9594 Y10.8554
G01 X2.9695 Y10.8399
G01 X2.9806 Y10.8252
G01 X2.9929 Y10.8114
G01 X3.0016 Y10.8027
G01 X3.0107 Y10.7944
G01 X3.0251 Y10.7829
G01 X3.0403 Y10.7724
G01 X3.0563 Y10.7631
G01 X3.0673 Y10.7576
G01 X3.0785 Y10.7526
G01 X3.0958 Y10.7462
G01 X3.1076 Y10.7426
G01 X3.1195 Y10.7396
G01 X3.1377 Y10.7362
G01 X3.1560 Y10.7342
G01 X3.1745 Y10.7335
G01 X4.5094 Y10.7335
G01 X4.8918 Y10.3512
G01 X3.9751 Y9.4345
G01 X3.9666 Y9.4256
G01 X3.9339 Y9.3890
G01 X3.9044 Y9.3497
G01 X3.8939 Y9.3345
G01 X3.8687 Y9.2924
G01 X3.8602 Y9.2760
G01 X3.8394 Y9.2315
G01 X3.8226 Y9.1853
G01 X3.8170 Y9.1677
G01 X3.8051 Y9.1201
G01 X3.8017 Y9.1019
G01 X3.7948 Y9.0533
G01 X3.7939 Y9.0410
G01 X3.7919 Y8.9981
G01 X3.7918 Y7.3442
G01 X3.7291 Y7.2977
G01 X3.7194 Y7.2902
G01 X3.7101 Y7.2821
G01 X3.6483 Y7.2261
G01 X3.6394 Y7.2176
G01 X3.6309 Y7.2087
G01 X3.5749 Y7.1469
G01 X3.5668 Y7.1376
G01 X3.5593 Y7.1279
G01 X3.5096 Y7.0609
G01 X3.5025 Y7.0508
G01 X3.4959 Y7.0404
G01 X3.4530 Y6.9689
G01 X3.4470 Y6.9582
G01 X3.4414 Y6.9472
G01 X3.4058 Y6.8718
G01 X3.4008 Y6.8605
G01 X3.3963 Y6.8490
G01 X3.3682 Y6.7705
G01 X3.3642 Y6.7583
G01 X3.3408 Y6.6660
G01 X3.3381 Y6.6540
G01 X3.3360 Y6.6419
G01 X3.3238 Y6.5594
G01 X3.3218 Y6.5410
G01 X3.3173 Y6.4516
G01 X3.3170 Y6.4393
G01 X3.3173 Y6.4270
G01 X3.3214 Y6.3437
G01 X3.3223 Y6.3314
G01 X3.3238 Y6.3192
G01 X3.3360 Y6.2367
G01 X3.3383 Y6.2239
G01 X3.3611 Y6.1316
G01 X3.3644 Y6.1197
G01 X3.3682 Y6.1081
G01 X3.3963 Y6.0295
G01 X3.4008 Y6.0180
G01 X3.4058 Y6.0068
G01 X3.4414 Y5.9314
G01 X3.4470 Y5.9204
G01 X3.4530 Y5.9097
G01 X3.4959 Y5.8381
G01 X3.5025 Y5.8277
G01 X3.5096 Y5.8177
G01 X3.5630 Y5.7458
G01 X3.5749 Y5.7317
G01 X3.6309 Y5.6698
G01 X3.6394 Y5.6609
G01 X3.6483 Y5.6524
G01 X3.7101 Y5.5964
G01 X3.7194 Y5.5884
G01 X3.7291 Y5.5808
G01 X3.7961 Y5.5311
G01 X3.8062 Y5.5240
G01 X3.8166 Y5.5175
G01 X3.8881 Y5.4746
G01 X3.8988 Y5.4685
G01 X3.9098 Y5.4630
G01 X3.9852 Y5.4273
G01 X3.9965 Y5.4223
G01 X4.0080 Y5.4179
G01 X4.0865 Y5.3898
G01 X4.0982 Y5.3859
G01 X4.1101 Y5.3827
G01 X4.1910 Y5.3624
G01 X4.2030 Y5.3597
G01 X4.2151 Y5.3576
G01 X4.2976 Y5.3453
G01 X4.3098 Y5.3438
G01 X4.3221 Y5.3429
G01 X4.4054 Y5.3388
G01 X4.4177 Y5.3385
G01 X4.4300 Y5.3388
G01 X4.5133 Y5.3429
G01 X4.5256 Y5.3438
G01 X4.5378 Y5.3453
G01 X4.6215 Y5.3578
G01 X4.6331 Y5.3598
G01 X4.7254 Y5.3827
G01 X4.7373 Y5.3859
G01 X4.7489 Y5.3898
G01 X4.8275 Y5.4179
G01 X4.8390 Y5.4223
G01 X4.8502 Y5.4273
G01 X4.9256 Y5.4630
G01 X4.9366 Y5.4685
G01 X4.9473 Y5.4746
G01 X5.0189 Y5.5175
G01 X5.0293 Y5.5240
G01 X5.0393 Y5.5311
G01 X5.1063 Y5.5808
G01 X5.1160 Y5.5884
G01 X5.1253 Y5.5964
G01 X5.1872 Y5.6524
G01 X5.1961 Y5.6609
G01 X5.2046 Y5.6698
G01 X5.2606 Y5.7317
G01 X5.2686 Y5.7410
G01 X5.2762 Y5.7507
G01 X5.3259 Y5.8177
G01 X5.3330 Y5.8277
G01 X5.3395 Y5.8381
G01 X5.3824 Y5.9097
G01 X5.3885 Y5.9204
G01 X5.3940 Y5.9314
G01 X5.4297 Y6.0068
G01 X5.4347 Y6.0180
G01 X5.4391 Y6.0295
G01 X5.4672 Y6.1081
G01 X5.4711 Y6.1197
G01 X5.4743 Y6.1316
G01 X5.4946 Y6.2125
G01 X5.4973 Y6.2245
G01 X5.4994 Y6.2367
G01 X5.5117 Y6.3192
G01 X5.5132 Y6.3314
G01 X5.5141 Y6.3437
G01 X5.5182 Y6.4270
G01 X5.5185 Y6.4393
G01 X5.5182 Y6.4516
G01 X5.5141 Y6.5349
G01 X5.5132 Y6.5472
G01 X5.5117 Y6.5594
G01 X5.4994 Y6.6419
G01 X5.4973 Y6.6540
G01 X5.4946 Y6.6660
G01 X5.4743 Y6.7469
G01 X5.4711 Y6.7588
G01 X5.4672 Y6.7705
G01 X5.4391 Y6.8490
G01 X5.4347 Y6.8605
G01 X5.4297 Y6.8718
G01 X5.3940 Y6.9472
G01 X5.3885 Y6.9582
G01 X5.3824 Y6.9689
G01 X5.3395 Y7.0404
G01 X5.3330 Y7.0508
G01 X5.3259 Y7.0609
G01 X5.2762 Y7.1279
G01 X5.2686 Y7.1376
G01 X5.2606 Y7.1469
G01 X5.2046 Y7.2087
G01 X5.1961 Y7.2176
G01 X5.1872 Y7.2261
G01 X5.1253 Y7.2821
G01 X5.1160 Y7.2902
G01 X5.1063 Y7.2977
G01 X5.0437 Y7.3442
G01 X5.0437 Y8.7327
G01 X5.9326 Y9.6216
G01 X5.9441 Y9.6202
G01 X5.9564 Y9.6193
G01 X6.0300 Y9.6157
G01 X6.0423 Y9.6154
G01 X8.8448 Y9.6154
G01 X11.8516 Y6.6086
G01 X11.8605 Y6.6001
G01 X11.9150 Y6.5506
G01 X11.9244 Y6.5426
G01 X11.9341 Y6.5350
G01 X11.9932 Y6.4912
G01 X12.0033 Y6.4841
G01 X12.0137 Y6.4775
G01 X12.0768 Y6.4396
G01 X12.0875 Y6.4336
G01 X12.0985 Y6.4280
G01 X12.1651 Y6.3966
G01 X12.1821 Y6.3893
G01 X12.2572 Y6.3623
G01 X12.2689 Y6.3585
G01 X12.2807 Y6.3552
G01 X12.3521 Y6.3373
G01 X12.3642 Y6.3346
G01 X12.3763 Y6.3325
G01 X12.4491 Y6.3217
G01 X12.4675 Y6.3197
G01 X12.5472 Y6.3157
G01 X12.5595 Y6.3154
G01 X14.5637 Y6.3154
G01 X14.5644 Y6.2980
G01 X14.5664 Y6.2797
G01 X14.5698 Y6.2615
G01 X14.5745 Y6.2437
G01 X14.5805 Y6.2262
G01 X14.5878 Y6.2093
G01 X14.5963 Y6.1929
G01 X14.6060 Y6.1772
G01 X14.6168 Y6.1622
G01 X14.6287 Y6.1481
G01 X14.6416 Y6.1349
G01 X14.6554 Y6.1227
G01 X14.6701 Y6.1115
G01 X14.6856 Y6.1014
G01 X14.7017 Y6.0925
G01 X14.7196 Y6.0844
G01 X8.1978 Y6.0844
G01 X8.0585 Y6.2237
G01 X8.0585 Y7.2893
G01 X8.0578 Y7.3077
G01 X8.0566 Y7.3200
G01 X8.0548 Y7.3321
G01 X8.0524 Y7.3442
G01 X8.0477 Y7.3621
G01 X8.0438 Y7.3737
G01 X8.0394 Y7.3852
G01 X8.0344 Y7.3965
G01 X8.0259 Y7.4129
G01 X8.0196 Y7.4234
G01 X8.0127 Y7.4337
G01 X8.0015 Y7.4483
G01 X7.9935 Y7.4577
G01 X7.9850 Y7.4666
G01 X7.9715 Y7.4791
G01 X7.9620 Y7.4869
G01 X7.9521 Y7.4943
G01 X7.9366 Y7.5043
G01 X7.9205 Y7.5132
G01 X7.9037 Y7.5209
G01 X7.8864 Y7.5274
G01 X7.8686 Y7.5325
G01 X7.8506 Y7.5363
G01 X7.8323 Y7.5388
G01 X7.8139 Y7.5399
G01 X6.1077 Y7.5400
G01 X6.0893 Y7.5393
G01 X6.0770 Y7.5381
G01 X6.0649 Y7.5363
G01 X6.0528 Y7.5339
G01 X6.0408 Y7.5309
G01 X6.0291 Y7.5274
G01 X6.0175 Y7.5232
G01 X6.0005 Y7.5159
G01 X5.9895 Y7.5104
G01 X5.9788 Y7.5043
G01 X5.9684 Y7.4978
G01 X5.9584 Y7.4907
G01 X5.9487 Y7.4831
G01 X5.9393 Y7.4751
G01 X5.9261 Y7.4622
G01 X5.9179 Y7.4531
G01 X5.9101 Y7.4435
G01 X5.8992 Y7.4286
G01 X5.8927 Y7.4182
G01 X5.8866 Y7.4075
G01 X5.8785 Y7.3909
G01 X5.8738 Y7.3795
G01 X5.8696 Y7.3679
G01 X5.8661 Y7.3562
G01 X5.8631 Y7.3442
G01 X5.8597 Y7.3261
G01 X5.8582 Y7.3139
G01 X5.8573 Y7.3016
G01 X5.8570 Y7.2893
G01 X5.8570 Y5.5893
G01 X5.8573 Y5.5770
G01 X5.8589 Y5.5586
G01 X5.8607 Y5.5464
G01 X5.8631 Y5.5343
G01 X5.8678 Y5.5165
G01 X5.8716 Y5.5048
G01 X5.8761 Y5.4933
G01 X5.8838 Y5.4765
G01 X5.8896 Y5.4657
G01 X5.8959 Y5.4551
G01 X5.9063 Y5.4399
G01 X5.9179 Y5.4255
G01 X5.9261 Y5.4164
G01 X5.9348 Y5.4077
G01 X5.9439 Y5.3994
G01 X5.9535 Y5.3916
G01 X5.9684 Y5.3808
G01 X5.9841 Y5.3711
G01 X6.0005 Y5.3626
G01 X6.0175 Y5.3553
G01 X6.0349 Y5.3493
G01 X6.0528 Y5.3446
G01 X6.0709 Y5.3412
G01 X6.0893 Y5.3392
G01 X6.1016 Y5.3386
G01 X7.1733 Y5.3385
G01 X7.5003 Y5.0116
G01 X7.5321 Y4.9827
G01 X7.5414 Y4.9746
G01 X7.5807 Y4.9451
G01 X7.5908 Y4.9380
G01 X7.6012 Y4.9315
G01 X7.6381 Y4.9094
G01 X7.6545 Y4.9009
G01 X7.6990 Y4.8802
G01 X7.7105 Y4.8758
G01 X7.7568 Y4.8595
G01 X7.7687 Y4.8562
G01 X7.8104 Y4.8459
G01 X7.8285 Y4.8425
G01 X7.8772 Y4.8356
G01 X7.9262 Y4.8329
G01 X7.9385 Y4.8325
G01 X17.8465 Y4.8325
G01 X17.8955 Y4.8347
G00 Z2.0000
G00 X26.5758 Y4.7656
G01 F60.00
G01 Z-0.1100
G01 F120.00
G01 X26.4818 Y4.4887
G01 X26.4247 Y4.2018
G01 X26.4056 Y3.9100
G01 X26.4247 Y3.6182
G01 X26.4818 Y3.3313
G01 X26.5758 Y3.0544
G01 X26.7051 Y2.7921
G01 X26.8676 Y2.5489
G01 X27.0605 Y2.3290
G01 X27.2803 Y2.1362
G01 X27.5235 Y1.9737
G01 X27.7858 Y1.8443
G01 X28.0628 Y1.7503
G01 X28.3496 Y1.6932
G01 X28.5684 Y1.6789
G01 X28.7145 Y1.6789
G01 X28.9333 Y1.6932
G01 X29.2202 Y1.7503
G01 X29.4971 Y1.8443
G01 X29.7594 Y1.9737
G01 X30.0026 Y2.1362
G01 X30.2225 Y2.3290
G01 X30.4153 Y2.5489
G01 X30.5778 Y2.7921
G01 X30.7072 Y3.0544
G01 X30.8012 Y3.3313
G01 X30.8582 Y3.6182
G01 X30.8773 Y3.9100
G01 X30.8582 Y4.2019
G01 X30.8012 Y4.4887
G01 X30.7072 Y4.7656
G01 X30.5778 Y5.0279
G01 X30.4153 Y5.2711
G01 X30.2225 Y5.4910
G01 X30.0026 Y5.6838
G01 X29.7594 Y5.8463
G01 X29.4971 Y5.9757
G01 X29.2201 Y6.0697
G01 X28.9333 Y6.1268
G01 X28.7145 Y6.1411
G01 X28.5684 Y6.1411
G01 X28.3496 Y6.1268
G01 X28.0628 Y6.0697
G01 X27.7858 Y5.9757
G01 X27.5235 Y5.8463
G01 X27.2803 Y5.6838
G01 X27.0605 Y5.4910
G01 X26.8676 Y5.2711
G01 X26.7051 Y5.0279
G01 X26.5758 Y4.7656
G00 Z2.0000
G00 X26.6974 Y4.7153
G01 F60.00
G01 Z-0.1100
G01 F120.00
G01 X26.6089 Y4.4546
G01 X26.5552 Y4.1847
G01 X26.5372 Y3.9100
G01 X26.5552 Y3.6353
G01 X26.6089 Y3.3654
G01 X26.6974 Y3.1047
G01 X26.8191 Y2.8579
G01 X26.9720 Y2.6290
G01 X27.1535 Y2.4221
G01 X27.3605 Y2.2406
G01 X27.5893 Y2.0877
G01 X27.8362 Y1.9659
G01 X28.0968 Y1.8774
G01 X28.3668 Y1.8237
G01 X28.5727 Y1.8102
G01 X28.7102 Y1.8102
G01 X28.9161 Y1.8237
G01 X29.1861 Y1.8774
G01 X29.4467 Y1.9659
G01 X29.6936 Y2.0877
G01 X29.9225 Y2.2406
G01 X30.1294 Y2.4221
G01 X30.3109 Y2.6290
G01 X30.4638 Y2.8579
G01 X30.5856 Y3.1047
G01 X30.6740 Y3.3654
G01 X30.7277 Y3.6353
G01 X30.7457 Y3.9100
G01 X30.7277 Y4.1847
G01 X30.6740 Y4.4546
G01 X30.5856 Y4.7153
G01 X30.4638 Y4.9621
G01 X30.3109 Y5.1910
G01 X30.1294 Y5.3979
G01 X29.9225 Y5.5794
G01 X29.6936 Y5.7324
G01 X29.4467 Y5.8541
G01 X29.1861 Y5.9426
G01 X28.9161 Y5.9963
G01 X28.7102 Y6.0098
G01 X28.5727 Y6.0098
G01 X28.3668 Y5.9963
G01 X28.0968 Y5.9426
G01 X27.8362 Y5.8541
G01 X27.5893 Y5.7323
G01 X27.3605 Y5.5794
G01 X27.1535 Y5.3979
G01 X26.9720 Y5.1910
G01 X26.8191 Y4.9621
G01 X26.6974 Y4.7153
G00 Z2.0000
G00 X26.8190 Y4.6649
G01 F60.00
G01 Z-0.1100
G01 F120.00
G01 X26.7360 Y4.4206
G01 X26.6857 Y4.1675
G01 X26.6688 Y3.9100
G01 X26.6857 Y3.6525
G01 X26.7360 Y3.3994
G01 X26.8190 Y3.1551
G01 X26.9331 Y2.9237
G01 X27.0765 Y2.7091
G01 X27.2466 Y2.5151
G01 X27.4406 Y2.3450
G01 X27.6551 Y2.2016
G01 X27.8866 Y2.0875
G01 X28.1309 Y2.0046
G01 X28.3840 Y1.9542
G01 X28.5770 Y1.9416
G01 X28.7059 Y1.9416
G01 X28.8989 Y1.9542
G01 X29.1520 Y2.0046
G01 X29.3964 Y2.0875
G01 X29.6278 Y2.2016
G01 X29.8423 Y2.3450
G01 X30.0363 Y2.5151
G01 X30.2065 Y2.7091
G01 X30.3498 Y2.9237
G01 X30.4639 Y3.1551
G01 X30.5469 Y3.3994
G01 X30.5972 Y3.6525
G01 X30.6141 Y3.9100
G01 X30.5972 Y4.1675
G01 X30.5469 Y4.4206
G01 X30.4639 Y4.6649
G01 X30.3498 Y4.8963
G01 X30.2065 Y5.1109
G01 X30.0363 Y5.3049
G01 X29.8423 Y5.4750
G01 X29.6278 Y5.6184
G01 X29.3964 Y5.7325
G01 X29.1520 Y5.8154
G01 X28.8989 Y5.8658
G01 X28.7059 Y5.8784
G01 X28.5770 Y5.8784
G01 X28.3840 Y5.8658
G01 X28.1309 Y5.8154
G01 X27.8866 Y5.7325
G01 X27.6551 Y5.6184
G01 X27.4406 Y5.4750
G01 X27.2466 Y5.3049
G01 X27.0765 Y5.1109
G01 X26.9331 Y4.8963
G01 X26.8190 Y4.6649
G00 Z2.0000
G00 X26.9406 Y4.6145
G01 F60.00
G01 Z-0.1100
G01 F120.00
G01 X26.8632 Y4.3865
G01 X26.8162 Y4.1503
G01 X26.8004 Y3.9100
G01 X26.8162 Y3.6697
G01 X26.8632 Y3.4335
G01 X26.9406 Y3.2055
G01 X27.0471 Y2.9895
G01 X27.1809 Y2.7893
G01 X27.3397 Y2.6082
G01 X27.5207 Y2.4494
G01 X27.7210 Y2.3156
G01 X27.9369 Y2.2091
G01 X28.1650 Y2.1317
G01 X28.4012 Y2.0847
G01 X28.5813 Y2.0729
G01 X28.7016 Y2.0729
G01 X28.8818 Y2.0847
G01 X29.1180 Y2.1317
G01 X29.3460 Y2.2091
G01 X29.5620 Y2.3156
G01 X29.7622 Y2.4494
G01 X29.9433 Y2.6082
G01 X30.1020 Y2.7893
G01 X30.2358 Y2.9895
G01 X30.3423 Y3.2055
G01 X30.4198 Y3.4335
G01 X30.4667 Y3.6697
G01 X30.4825 Y3.9100
G01 X30.4667 Y4.1503
G01 X30.4198 Y4.3865
G01 X30.3423 Y4.6145
G01 X30.2358 Y4.8305
G01 X30.1020 Y5.0307
G01 X29.9433 Y5.2118
G01 X29.7622 Y5.3706
G01 X29.5620 Y5.5044
G01 X29.3460 Y5.6109
G01 X29.1179 Y5.6883
G01 X28.8818 Y5.7353
G01 X28.7016 Y5.7471
G01 X28.5813 Y5.7471
G01 X28.4012 Y5.7353
G01 X28.1650 Y5.6883
G01 X27.9369 Y5.6109
G01 X27.7209 Y5.5044
G01 X27.5207 Y5.3706
G01 X27.3397 Y5.2118
G01 X27.1809 Y5.0307
G01 X27.0471 Y4.8305
G01 X26.9406 Y4.6145
G00 Z2.0000
G00 X27.9915 Y9.1694
G01 F60.00
G01 Z-0.1100
G01 F120.00
G01 X27.9915 Y9.0041
G01 X28.1096 Y9.1222
G01 X28.0988 Y9.1246
G01 X28.0805 Y9.1297
G01 X28.0625 Y9.1356
G01 X28.0448 Y9.1424
G01 X28.0189 Y9.1542
G01 X28.0022 Y9.1631
G01 X27.9915 Y9.1694
G00 Z2.0000
G00 X33.1272 Y13.9842
G01 F60.00
G01 Z-0.1100
G01 F120.00
G01 X33.1280 Y13.9728
G01 X33.1296 Y13.9597
G01 X33.1404 Y13.8869
G01 X33.1425 Y13.8748
G01 X33.1452 Y13.8628
G01 X33.1631 Y13.7914
G01 X33.1664 Y13.7795
G01 X33.1702 Y13.7678
G01 X33.1950 Y13.6985
G01 X33.1994 Y13.6870
G01 X33.2044 Y13.6758
G01 X33.2359 Y13.6092
G01 X33.2414 Y13.5983
G01 X33.2475 Y13.5875
G01 X33.2853 Y13.5244
G01 X33.2919 Y13.5140
G01 X33.2990 Y13.5040
G01 X33.3429 Y13.4448
G01 X33.3504 Y13.4351
G01 X33.3585 Y13.4258
G01 X33.4079 Y13.3713
G01 X33.4164 Y13.3624
G01 X33.4253 Y13.3539
G01 X33.4798 Y13.3045
G01 X33.4891 Y13.2964
G01 X33.4989 Y13.2888
G01 X33.5580 Y13.2450
G01 X33.5680 Y13.2379
G01 X33.5784 Y13.2313
G01 X33.6469 Y13.1904
G01 X33.6633 Y13.1819
G01 X33.7298 Y13.1504
G01 X33.7410 Y13.1454
G01 X33.7525 Y13.1410
G01 X33.8218 Y13.1162
G01 X33.8335 Y13.1124
G01 X33.8454 Y13.1091
G01 X33.9168 Y13.0912
G01 X33.9288 Y13.0885
G01 X33.9409 Y13.0864
G01 X34.0137 Y13.0756
G01 X34.0259 Y13.0741
G01 X34.0382 Y13.0732
G01 X34.1117 Y13.0696
G01 X34.1240 Y13.0693
G01 X34.6240 Y13.0693
G01 X34.6363 Y13.0696
G01 X34.7147 Y13.0735
G01 X34.7343 Y13.0756
G01 X34.8071 Y13.0864
G01 X34.8192 Y13.0885
G01 X34.8313 Y13.0912
G01 X34.9026 Y13.1091
G01 X34.9145 Y13.1124
G01 X34.9262 Y13.1162
G01 X34.9955 Y13.1410
G01 X35.0070 Y13.1454
G01 X35.0182 Y13.1504
G01 X35.0848 Y13.1819
G01 X35.0958 Y13.1874
G01 X35.1065 Y13.1935
G01 X35.1696 Y13.2313
G01 X35.1800 Y13.2379
G01 X35.1901 Y13.2450
G01 X35.2492 Y13.2888
G01 X35.2589 Y13.2964
G01 X35.2682 Y13.3045
G01 X35.3227 Y13.3539
G01 X35.3316 Y13.3624
G01 X35.3401 Y13.3713
G01 X35.3896 Y13.4258
G01 X35.3976 Y13.4351
G01 X35.4052 Y13.4448
G01 X35.4490 Y13.5040
G01 X35.4561 Y13.5140
G01 X35.4627 Y13.5244
G01 X35.5005 Y13.5875
G01 X35.5066 Y13.5983
G01 X35.5121 Y13.6092
G01 X35.5436 Y13.6758
G01 X35.5486 Y13.6870
G01 X35.5530 Y13.6985
G01 X35.5778 Y13.7678
G01 X35.5817 Y13.7795
G01 X35.5849 Y13.7914
G01 X35.6028 Y13.8628
G01 X35.6055 Y13.8748
G01 X35.6076 Y13.8869
G01 X35.6184 Y13.9597
G01 X35.6199 Y13.9719
G01 X35.6208 Y13.9842
G01 X35.6244 Y14.0577
G01 X35.6248 Y14.0700
G01 X35.6244 Y14.0823
G01 X35.6205 Y14.1620
G01 X35.6184 Y14.1803
G01 X35.6076 Y14.2531
G01 X35.6055 Y14.2652
G01 X35.6028 Y14.2772
G01 X35.5849 Y14.3486
G01 X35.5817 Y14.3605
G01 X35.5778 Y14.3722
G01 X35.5530 Y14.4415
G01 X35.5486 Y14.4530
G01 X35.5436 Y14.4642
G01 X35.5121 Y14.5308
G01 X35.5066 Y14.5417
G01 X35.5005 Y14.5525
G01 X35.4627 Y14.6156
G01 X35.4561 Y14.6260
G01 X35.4490 Y14.6360
G01 X35.4052 Y14.6952
G01 X35.3976 Y14.7049
G01 X35.3896 Y14.7142
G01 X35.3401 Y14.7687
G01 X35.3316 Y14.7776
G01 X35.3227 Y14.7861
G01 X35.2682 Y14.8355
G01 X35.2589 Y14.8436
G01 X35.2492 Y14.8512
G01 X35.1901 Y14.8950
G01 X35.1800 Y14.9021
G01 X35.1696 Y14.9087
G01 X35.1011 Y14.9496
G01 X35.0848 Y14.9581
G01 X35.0182 Y14.9896
G01 X35.0070 Y14.9946
G01 X34.9955 Y14.9990
G01 X34.9262 Y15.0238
G01 X34.9145 Y15.0276
G01 X34.9026 Y15.0309
G01 X34.8313 Y15.0488
G01 X34.8192 Y15.0515
G01 X34.8071 Y15.0536
G01 X34.7343 Y15.0644
G01 X34.7221 Y15.0659
G01 X34.7098 Y15.0668
G01 X34.6363 Y15.0704
G01 X34.6240 Y15.0707
G01 X34.1240 Y15.0707
G01 X34.1117 Y15.0704
G01 X34.0321 Y15.0664
G01 X34.0137 Y15.0644
G01 X33.9409 Y15.0536
G01 X33.9288 Y15.0515
G01 X33.9168 Y15.0488
G01 X33.8454 Y15.0309
G01 X33.8335 Y15.0276
G01 X33.8218 Y15.0238
G01 X33.7525 Y14.9990
G01 X33.7410 Y14.9946
G01 X33.7298 Y14.9896
G01 X33.6633 Y14.9581
G01 X33.6523 Y14.9526
G01 X33.6416 Y14.9465
G01 X33.5784 Y14.9087
G01 X33.5680 Y14.9021
G01 X33.5580 Y14.8950
G01 X33.4989 Y14.8512
G01 X33.4891 Y14.8436
G01 X33.4798 Y14.8355
G01 X33.4253 Y14.7861
G01 X33.4164 Y14.7776
G01 X33.4079 Y14.7687
G01 X33.3585 Y14.7142
G01 X33.3504 Y14.7049
G01 X33.3429 Y14.6952
G01 X33.2990 Y14.6360
G01 X33.2919 Y14.6260
G01 X33.2853 Y14.6156
G01 X33.2475 Y14.5525
G01 X33.2414 Y14.5417
G01 X33.2359 Y14.5308
G01 X33.2044 Y14.4642
G01 X33.1994 Y14.4530
G01 X33.1950 Y14.4415
G01 X33.1702 Y14.3722
G01 X33.1664 Y14.3605
G01 X33.1631 Y14.3486
G01 X33.1452 Y14.2772
G01 X33.1425 Y14.2652
G01 X33.1404 Y14.2531
G01 X33.1296 Y14.1803
G01 X33.1281 Y14.1681
G01 X33.1272 Y14.1558
G01 X33.1236 Y14.0823
G01 X33.1233 Y14.0700
G01 X33.1236 Y14.0577
G01 X33.1272 Y13.9842
G00 Z2.0000
G00 X33.2584 Y13.9906
G01 F60.00
G01 Z-0.1100
G01 F120.00
G01 X33.2595 Y13.9790
G01 X33.2713 Y13.9004
G01 X33.2905 Y13.8233
G01 X33.2939 Y13.8121
G01 X33.3208 Y13.7373
G01 X33.3546 Y13.6654
G01 X33.3602 Y13.6551
G01 X33.4011 Y13.5870
G01 X33.4484 Y13.5231
G01 X33.4558 Y13.5140
G01 X33.5093 Y13.4552
G01 X33.5680 Y13.4018
G01 X33.5771 Y13.3943
G01 X33.6410 Y13.3471
G01 X33.7142 Y13.3033
G01 X33.7913 Y13.2668
G01 X33.8716 Y13.2380
G01 X33.9544 Y13.2173
G01 X34.0388 Y13.2048
G01 X34.1240 Y13.2006
G01 X34.6240 Y13.2006
G01 X34.7057 Y13.2045
G01 X34.7150 Y13.2055
G01 X34.7936 Y13.2173
G01 X34.8764 Y13.2380
G01 X34.9567 Y13.2668
G01 X35.0338 Y13.3033
G01 X35.1070 Y13.3471
G01 X35.1756 Y13.3979
G01 X35.2388 Y13.4552
G01 X35.2961 Y13.5185
G01 X35.3469 Y13.5870
G01 X35.3908 Y13.6602
G01 X35.4272 Y13.7373
G01 X35.4560 Y13.8176
G01 X35.4767 Y13.9004
G01 X35.4892 Y13.9848
G01 X35.4934 Y14.0700
G01 X35.4895 Y14.1523
G01 X35.4885 Y14.1610
G01 X35.4767 Y14.2396
G01 X35.4575 Y14.3167
G01 X35.4541 Y14.3279
G01 X35.4272 Y14.4027
G01 X35.3934 Y14.4746
G01 X35.3879 Y14.4849
G01 X35.3469 Y14.5530
G01 X35.2997 Y14.6169
G01 X35.2922 Y14.6260
G01 X35.2388 Y14.6848
G01 X35.1800 Y14.7382
G01 X35.1709 Y14.7457
G01 X35.1070 Y14.7929
G01 X35.0338 Y14.8367
G01 X34.9567 Y14.8732
G01 X34.8764 Y14.9020
G01 X34.7936 Y14.9227
G01 X34.7092 Y14.9352
G01 X34.6240 Y14.9394
G01 X34.1240 Y14.9394
G01 X34.0417 Y14.9355
G01 X34.0330 Y14.9345
G01 X33.9544 Y14.9227
G01 X33.8716 Y14.9020
G01 X33.7913 Y14.8732
G01 X33.7142 Y14.8367
G01 X33.6410 Y14.7929
G01 X33.5725 Y14.7421
G01 X33.5093 Y14.6848
G01 X33.4520 Y14.6215
G01 X33.4011 Y14.5530
G01 X33.3573 Y14.4798
G01 X33.3208 Y14.4027
G01 X33.2920 Y14.3224
G01 X33.2713 Y14.2396
G01 X33.2588 Y14.1552
G01 X33.2546 Y14.0700
G01 X33.2584 Y13.9906
G00 Z2.0000
G00 X34.0563 Y15.1992
G01 F60.00
G01 Z-0.1100
G01 F120.00
G01 X34.1053 Y15.2016
G01 X34.1240 Y15.2021
G01 X34.6240 Y15.2021
G01 X34.6428 Y15.2016
G01 X34.6917 Y15.1992
G01 X34.6769 Y15.2663
G01 X34.6733 Y15.2849
G01 X34.6697 Y15.3132
G01 X34.6684 Y15.3321
G01 X34.6680 Y15.3511
G01 X34.6687 Y15.3700
G01 X34.6702 Y15.3889
G01 X34.6743 Y15.4171
G01 X34.6805 Y15.4449
G01 X34.6857 Y15.4631
G01 X34.6918 Y15.4808
G01 X34.6428 Y15.4784
G01 X34.6240 Y15.4779
G01 X34.1240 Y15.4779
G01 X34.1053 Y15.4784
G01 X34.0564 Y15.4808
G01 X34.0711 Y15.4137
G01 X34.0747 Y15.3951
G01 X34.0784 Y15.3668
G01 X34.0796 Y15.3479
G01 X34.0800 Y15.3289
G01 X34.0794 Y15.3100
G01 X34.0778 Y15.2911
G01 X34.0737 Y15.2629
G01 X34.0676 Y15.2351
G01 X34.0623 Y15.2169
G01 X34.0563 Y15.1992
G00 Z2.0000
G00 X34.2113 Y15.3334
G01 F60.00
G01 Z-0.1100
G01 F120.00
G01 X34.5370 Y15.3334
G01 X34.5367 Y15.3466
G01 X34.2111 Y15.3466
G01 X34.2113 Y15.3334
G00 Z2.0000
G00 X33.2584 Y16.5306
G01 F60.00
G01 Z-0.1100
G01 F120.00
G01 X33.2595 Y16.5190
G01 X33.2713 Y16.4404
G01 X33.2905 Y16.3633
G01 X33.2939 Y16.3521
G01 X33.3208 Y16.2773
G01 X33.3546 Y16.2054
G01 X33.3602 Y16.1951
G01 X33.4011 Y16.1270
G01 X33.4484 Y16.0631
G01 X33.4558 Y16.0540
G01 X33.5093 Y15.9952
G01 X33.5680 Y15.9418
G01 X33.5771 Y15.9343
G01 X33.6410 Y15.8871
G01 X33.7142 Y15.8433
G01 X33.7913 Y15.8068
G01 X33.8716 Y15.7780
G01 X33.9544 Y15.7573
G01 X34.0388 Y15.7448
G01 X34.1240 Y15.7406
G01 X34.6240 Y15.7406
G01 X34.7057 Y15.7445
G01 X34.7150 Y15.7455
G01 X34.7936 Y15.7573
G01 X34.8764 Y15.7780
G01 X34.9567 Y15.8068
G01 X35.0338 Y15.8433
G01 X35.1070 Y15.8871
G01 X35.1756 Y15.9379
G01 X35.2388 Y15.9952
G01 X35.2961 Y16.0585
G01 X35.3469 Y16.1270
G01 X35.3908 Y16.2002
G01 X35.4272 Y16.2773
G01 X35.4560 Y16.3576
G01 X35.4767 Y16.4404
G01 X35.4892 Y16.5248
G01 X35.4934 Y16.6100
G01 X35.4895 Y16.6923
G01 X35.4885 Y16.7010
G01 X35.4767 Y16.7796
G01 X35.4575 Y16.8567
G01 X35.4541 Y16.8679
G01 X35.4272 Y16.9427
G01 X35.3934 Y17.0146
G01 X35.3879 Y17.0249
G01 X35.3469 Y17.0930
G01 X35.2997 Y17.1569
G01 X35.2922 Y17.1660
G01 X35.2388 Y17.2248
G01 X35.1800 Y17.2782
G01 X35.1709 Y17.2857
G01 X35.1070 Y17.3329
G01 X35.0338 Y17.3767
G01 X34.9567 Y17.4132
G01 X34.8764 Y17.4420
G01 X34.7936 Y17.4627
G01 X34.7092 Y17.4752
G01 X34.6240 Y17.4794
G01 X34.1240 Y17.4794
G01 X34.0417 Y17.4755
G01 X34.0330 Y17.4745
G01 X33.9544 Y17.4627
G01 X33.8716 Y17.4420
G01 X33.7913 Y17.4132
G01 X33.7142 Y17.3767
G01 X33.6410 Y17.3329
G01 X33.5725 Y17.2821
G01 X33.5093 Y17.2248
G01 X33.4520 Y17.1615
G01 X33.4011 Y17.0930
G01 X33.3573 Y17.0198
G01 X33.3208 Y16.9427
G01 X33.2920 Y16.8624
G01 X33.2713 Y16.7796
G01 X33.2588 Y16.6952
G01 X33.2546 Y16.6100
G01 X33.2584 Y16.5306
G00 Z2.0000
G00 X33.1272 Y16.5242
G01 F60.00
G01 Z-0.1100
G01 F120.00
G01 X33.1280 Y16.5128
G01 X33.1296 Y16.4997
G01 X33.1404 Y16.4269
G01 X33.1425 Y16.4148
G01 X33.1452 Y16.4028
G01 X33.1631 Y16.3314
G01 X33.1664 Y16.3195
G01 X33.1702 Y16.3078
G01 X33.1950 Y16.2385
G01 X33.1994 Y16.2270
G01 X33.2044 Y16.2158
G01 X33.2359 Y16.1492
G01 X33.2414 Y16.1383
G01 X33.2475 Y16.1275
G01 X33.2853 Y16.0644
G01 X33.2919 Y16.0540
G01 X33.2990 Y16.0440
G01 X33.3429 Y15.9848
G01 X33.3504 Y15.9751
G01 X33.3585 Y15.9658
G01 X33.4079 Y15.9113
G01 X33.4164 Y15.9024
G01 X33.4253 Y15.8939
G01 X33.4798 Y15.8445
G01 X33.4891 Y15.8364
G01 X33.4989 Y15.8288
G01 X33.5580 Y15.7850
G01 X33.5680 Y15.7779
G01 X33.5784 Y15.7713
G01 X33.6469 Y15.7304
G01 X33.6633 Y15.7219
G01 X33.7298 Y15.6904
G01 X33.7410 Y15.6854
G01 X33.7525 Y15.6810
G01 X33.8218 Y15.6562
G01 X33.8335 Y15.6524
G01 X33.8454 Y15.6491
G01 X33.9168 Y15.6312
G01 X33.9288 Y15.6285
G01 X33.9409 Y15.6264
G01 X34.0137 Y15.6156
G01 X34.0259 Y15.6141
G01 X34.0382 Y15.6132
G01 X34.1117 Y15.6096
G01 X34.1240 Y15.6093
G01 X34.6240 Y15.6093
G01 X34.6363 Y15.6096
G01 X34.7147 Y15.6135
G01 X34.7343 Y15.6156
G01 X34.8071 Y15.6264
G01 X34.8192 Y15.6285
G01 X34.8313 Y15.6312
G01 X34.9026 Y15.6491
G01 X34.9145 Y15.6524
G01 X34.9262 Y15.6562
G01 X34.9955 Y15.6810
G01 X35.0070 Y15.6854
G01 X35.0182 Y15.6904
G01 X35.0848 Y15.7219
G01 X35.0958 Y15.7274
G01 X35.1065 Y15.7335
G01 X35.1696 Y15.7713
G01 X35.1800 Y15.7779
G01 X35.1901 Y15.7850
G01 X35.2492 Y15.8288
G01 X35.2589 Y15.8364
G01 X35.2682 Y15.8445
G01 X35.3227 Y15.8939
G01 X35.3316 Y15.9024
G01 X35.3401 Y15.9113
G01 X35.3896 Y15.9658
G01 X35.3976 Y15.9751
G01 X35.4052 Y15.9848
G01 X35.4490 Y16.0440
G01 X35.4561 Y16.0540
G01 X35.4627 Y16.0644
G01 X35.5005 Y16.1275
G01 X35.5066 Y16.1383
G01 X35.5121 Y16.1492
G01 X35.5436 Y16.2158
G01 X35.5486 Y16.2270
G01 X35.5530 Y16.2385
G01 X35.5778 Y16.3078
G01 X35.5817 Y16.3195
G01 X35.5849 Y16.3314
G01 X35.6028 Y16.4028
G01 X35.6055 Y16.4148
G01 X35.6076 Y16.4269
G01 X35.6184 Y16.4997
G01 X35.6199 Y16.5119
G01 X35.6208 Y16.5242
G01 X35.6244 Y16.5977
G01 X35.6248 Y16.6100
G01 X35.6244 Y16.6223
G01 X35.6205 Y16.7020
G01 X35.6184 Y16.7203
G01 X35.6076 Y16.7931
G01 X35.6055 Y16.8052
G01 X35.6028 Y16.8172
G01 X35.5849 Y16.8886
G01 X35.5817 Y16.9005
G01 X35.5778 Y16.9122
G01 X35.5530 Y16.9815
G01 X35.5486 Y16.9930
G01 X35.5436 Y17.0042
G01 X35.5121 Y17.0708
G01 X35.5066 Y17.0817
G01 X35.5005 Y17.0925
G01 X35.4627 Y17.1556
G01 X35.4561 Y17.1660
G01 X35.4490 Y17.1760
G01 X35.4052 Y17.2352
G01 X35.3976 Y17.2449
G01 X35.3896 Y17.2542
G01 X35.3401 Y17.3087
G01 X35.3316 Y17.3176
G01 X35.3227 Y17.3261
G01 X35.2682 Y17.3755
G01 X35.2589 Y17.3836
G01 X35.2492 Y17.3912
G01 X35.1901 Y17.4350
G01 X35.1800 Y17.4421
G01 X35.1696 Y17.4487
G01 X35.1011 Y17.4896
G01 X35.0848 Y17.4981
G01 X35.0182 Y17.5296
G01 X35.0070 Y17.5346
G01 X34.9955 Y17.5390
G01 X34.9262 Y17.5638
G01 X34.9145 Y17.5676
G01 X34.9026 Y17.5709
G01 X34.8313 Y17.5888
G01 X34.8192 Y17.5915
G01 X34.8071 Y17.5936
G01 X34.7343 Y17.6044
G01 X34.7221 Y17.6059
G01 X34.7098 Y17.6068
G01 X34.6363 Y17.6104
G01 X34.6240 Y17.6107
G01 X34.1240 Y17.6107
G01 X34.1117 Y17.6104
G01 X34.0321 Y17.6064
G01 X34.0137 Y17.6044
G01 X33.9409 Y17.5936
G01 X33.9288 Y17.5915
G01 X33.9168 Y17.5888
G01 X33.8454 Y17.5709
G01 X33.8335 Y17.5676
G01 X33.8218 Y17.5638
G01 X33.7525 Y17.5390
G01 X33.7410 Y17.5346
G01 X33.7298 Y17.5296
G01 X33.6633 Y17.4981
G01 X33.6523 Y17.4926
G01 X33.6416 Y17.4865
G01 X33.5784 Y17.4487
G01 X33.5680 Y17.4421
G01 X33.5580 Y17.4350
G01 X33.4989 Y17.3912
G01 X33.4891 Y17.3836
G01 X33.4798 Y17.3755
G01 X33.4253 Y17.3261
G01 X33.4164 Y17.3176
G01 X33.4079 Y17.3087
G01 X33.3585 Y17.2542
G01 X33.3504 Y17.2449
G01 X33.3429 Y17.2352
G01 X33.2990 Y17.1760
G01 X33.2919 Y17.1660
G01 X33.2853 Y17.1556
G01 X33.2475 Y17.0925
G01 X33.2414 Y17.0817
G01 X33.2359 Y17.0708
G01 X33.2044 Y17.0042
G01 X33.1994 Y16.9930
G01 X33.1950 Y16.9815
G01 X33.1702 Y16.9122
G01 X33.1664 Y16.9005
G01 X33.1631 Y16.8886
G01 X33.1452 Y16.8172
G01 X33.1425 Y16.8052
G01 X33.1404 Y16.7931
G01 X33.1296 Y16.7203
G01 X33.1281 Y16.7081
G01 X33.1272 Y16.6958
G01 X33.1236 Y16.6223
G01 X33.1233 Y16.6100
G01 X33.1236 Y16.5977
G01 X33.1272 Y16.5242
G00 Z2.0000
G00 X34.0563 Y17.7392
G01 F60.00
G01 Z-0.1100
G01 F120.00
G01 X34.1053 Y17.7416
G01 X34.1240 Y17.7421
G01 X34.6240 Y17.7421
G01 X34.6428 Y17.7416
G01 X34.6917 Y17.7392
G01 X34.6769 Y17.8063
G01 X34.6733 Y17.8249
G01 X34.6697 Y17.8532
G01 X34.6684 Y17.8721
G01 X34.6680 Y17.8911
G01 X34.6693 Y17.9195
G01 X34.6713 Y17.9384
G01 X34.6743 Y17.9571
G01 X34.6805 Y17.9849
G01 X34.6857 Y18.0031
G01 X34.6918 Y18.0208
G01 X34.6428 Y18.0184
G01 X34.6240 Y18.0179
G01 X34.1240 Y18.0179
G01 X34.1053 Y18.0184
G01 X34.0564 Y18.0208
G01 X34.0711 Y17.9537
G01 X34.0747 Y17.9351
G01 X34.0784 Y17.9068
G01 X34.0796 Y17.8879
G01 X34.0800 Y17.8689
G01 X34.0787 Y17.8405
G01 X34.0767 Y17.8216
G01 X34.0737 Y17.8029
G01 X34.0676 Y17.7751
G01 X34.0623 Y17.7569
G01 X34.0563 Y17.7392
G00 Z2.0000
G00 X34.2113 Y17.8734
G01 F60.00
G01 Z-0.1100
G01 F120.00
G01 X34.5370 Y17.8734
G01 X34.5367 Y17.8866
G01 X34.2111 Y17.8866
G01 X34.2113 Y17.8734
G00 Z2.0000
G00 X34.6240 Y18.1493
G01 F60.00
G01 Z-0.1100
G01 F120.00
G01 X34.6363 Y18.1496
G01 X34.7212 Y18.1540
G01 X34.7343 Y18.1556
G01 X34.8071 Y18.1664
G01 X34.8192 Y18.1685
G01 X34.8313 Y18.1712
G01 X34.9026 Y18.1891
G01 X34.9145 Y18.1924
G01 X34.9262 Y18.1962
G01 X34.9955 Y18.2210
G01 X35.0070 Y18.2254
G01 X35.0182 Y18.2304
G01 X35.0848 Y18.2619
G01 X35.0958 Y18.2674
G01 X35.1065 Y18.2735
G01 X35.1696 Y18.3113
G01 X35.1800 Y18.3179
G01 X35.1901 Y18.3250
G01 X35.2492 Y18.3688
G01 X35.2589 Y18.3764
G01 X35.2682 Y18.3845
G01 X35.3227 Y18.4339
G01 X35.3316 Y18.4424
G01 X35.3401 Y18.4513
G01 X35.3896 Y18.5058
G01 X35.3976 Y18.5151
G01 X35.4052 Y18.5248
G01 X35.4490 Y18.5840
G01 X35.4561 Y18.5940
G01 X35.4627 Y18.6044
G01 X35.5005 Y18.6675
G01 X35.5066 Y18.6783
G01 X35.5121 Y18.6892
G01 X35.5436 Y18.7558
G01 X35.5486 Y18.7670
G01 X35.5530 Y18.7785
G01 X35.5778 Y18.8478
G01 X35.5817 Y18.8595
G01 X35.5849 Y18.8714
G01 X35.6028 Y18.9428
G01 X35.6055 Y18.9548
G01 X35.6076 Y18.9669
G01 X35.6184 Y19.0397
G01 X35.6199 Y19.0519
G01 X35.6208 Y19.0642
G01 X35.6244 Y19.1377
G01 X35.6248 Y19.1500
G01 X35.6244 Y19.1623
G01 X35.6208 Y19.2358
G01 X35.6199 Y19.2481
G01 X35.6184 Y19.2603
G01 X35.6076 Y19.3331
G01 X35.6055 Y19.3452
G01 X35.6028 Y19.3572
G01 X35.5849 Y19.4286
G01 X35.5817 Y19.4405
G01 X35.5778 Y19.4522
G01 X35.5530 Y19.5215
G01 X35.5486 Y19.5330
G01 X35.5436 Y19.5442
G01 X35.5094 Y19.6163
G01 X35.5005 Y19.6325
G01 X35.4627 Y19.6956
G01 X35.4561 Y19.7060
G01 X35.4490 Y19.7160
G01 X35.4052 Y19.7752
G01 X35.3976 Y19.7849
G01 X35.3896 Y19.7942
G01 X35.3401 Y19.8487
G01 X35.3316 Y19.8576
G01 X35.3227 Y19.8661
G01 X35.2682 Y19.9155
G01 X35.2589 Y19.9236
G01 X35.2492 Y19.9312
G01 X35.1901 Y19.9750
G01 X35.1800 Y19.9821
G01 X35.1696 Y19.9887
G01 X35.1065 Y20.0265
G01 X35.0903 Y20.0354
G01 X35.0182 Y20.0696
G01 X35.0070 Y20.0746
G01 X34.9955 Y20.0790
G01 X34.9262 Y20.1038
G01 X34.9145 Y20.1076
G01 X34.9026 Y20.1109
G01 X34.8253 Y20.1302
G01 X34.8071 Y20.1336
G01 X34.7343 Y20.1444
G01 X34.7221 Y20.1459
G01 X34.7098 Y20.1468
G01 X34.6302 Y20.1507
G01 X34.1240 Y20.1507
G01 X34.1117 Y20.1504
G01 X34.0321 Y20.1464
G01 X34.0137 Y20.1444
G01 X33.9409 Y20.1336
G01 X33.9288 Y20.1315
G01 X33.9168 Y20.1288
G01 X33.8454 Y20.1109
G01 X33.8335 Y20.1076
G01 X33.8218 Y20.1038
G01 X33.7525 Y20.0790
G01 X33.7410 Y20.0746
G01 X33.7298 Y20.0696
G01 X33.6577 Y20.0354
G01 X33.6416 Y20.0265
G01 X33.5784 Y19.9887
G01 X33.5680 Y19.9821
G01 X33.5580 Y19.9750
G01 X33.4989 Y19.9312
G01 X33.4891 Y19.9236
G01 X33.4798 Y19.9155
G01 X33.4253 Y19.8661
G01 X33.4164 Y19.8576
G01 X33.4079 Y19.8487
G01 X33.3585 Y19.7942
G01 X33.3504 Y19.7849
G01 X33.3429 Y19.7752
G01 X33.2990 Y19.7160
G01 X33.2919 Y19.7060
G01 X33.2853 Y19.6956
G01 X33.2475 Y19.6325
G01 X33.2414 Y19.6217
G01 X33.2359 Y19.6108
G01 X33.2044 Y19.5442
G01 X33.1994 Y19.5330
G01 X33.1950 Y19.5215
G01 X33.1702 Y19.4522
G01 X33.1664 Y19.4405
G01 X33.1631 Y19.4286
G01 X33.1452 Y19.3572
G01 X33.1425 Y19.3452
G01 X33.1404 Y19.3331
G01 X33.1296 Y19.2603
G01 X33.1281 Y19.2481
G01 X33.1272 Y19.2358
G01 X33.1236 Y19.1623
G01 X33.1233 Y19.1500
G01 X33.1236 Y19.1377
G01 X33.1272 Y19.0642
G01 X33.1281 Y19.0519
G01 X33.1296 Y19.0397
G01 X33.1404 Y18.9669
G01 X33.1425 Y18.9548
G01 X33.1452 Y18.9428
G01 X33.1631 Y18.8714
G01 X33.1664 Y18.8595
G01 X33.1702 Y18.8478
G01 X33.1950 Y18.7785
G01 X33.1994 Y18.7670
G01 X33.2044 Y18.7558
G01 X33.2386 Y18.6837
G01 X33.2475 Y18.6675
G01 X33.2853 Y18.6044
G01 X33.2919 Y18.5940
G01 X33.2990 Y18.5840
G01 X33.3429 Y18.5248
G01 X33.3504 Y18.5151
G01 X33.3585 Y18.5058
G01 X33.4079 Y18.4513
G01 X33.4164 Y18.4424
G01 X33.4253 Y18.4339
G01 X33.4798 Y18.3845
G01 X33.4891 Y18.3764
G01 X33.4989 Y18.3688
G01 X33.5630 Y18.3214
G01 X33.5784 Y18.3113
G01 X33.6416 Y18.2735
G01 X33.6523 Y18.2674
G01 X33.6633 Y18.2619
G01 X33.7298 Y18.2304
G01 X33.7468 Y18.2232
G01 X33.8218 Y18.1962
G01 X33.8335 Y18.1924
G01 X33.8454 Y18.1891
G01 X33.9168 Y18.1712
G01 X33.9288 Y18.1685
G01 X33.9409 Y18.1664
G01 X34.0137 Y18.1556
G01 X34.0321 Y18.1536
G01 X34.1117 Y18.1496
G01 X34.1240 Y18.1493
G01 X34.6240 Y18.1493
G00 Z2.0000
G00 X34.6240 Y18.2806
G01 F60.00
G01 Z-0.1100
G01 F120.00
G01 X34.7034 Y18.2844
G01 X34.7150 Y18.2855
G01 X34.7936 Y18.2973
G01 X34.8707 Y18.3165
G01 X34.8819 Y18.3199
G01 X34.9567 Y18.3468
G01 X35.0286 Y18.3806
G01 X35.0389 Y18.3861
G01 X35.1070 Y18.4271
G01 X35.1709 Y18.4743
G01 X35.1800 Y18.4818
G01 X35.2388 Y18.5352
G01 X35.2922 Y18.5940
G01 X35.2997 Y18.6031
G01 X35.3469 Y18.6670
G01 X35.3879 Y18.7351
G01 X35.3934 Y18.7454
G01 X35.4272 Y18.8173
G01 X35.4541 Y18.8921
G01 X35.4575 Y18.9033
G01 X35.4767 Y18.9804
G01 X35.4885 Y19.0590
G01 X35.4897 Y19.0706
G01 X35.4934 Y19.1500
G01 X35.4897 Y19.2294
G01 X35.4885 Y19.2410
G01 X35.4767 Y19.3196
G01 X35.4575 Y19.3967
G01 X35.4541 Y19.4079
G01 X35.4272 Y19.4827
G01 X35.3934 Y19.5546
G01 X35.3893 Y19.5624
G01 X35.3469 Y19.6330
G01 X35.2997 Y19.6969
G01 X35.2922 Y19.7060
G01 X35.2388 Y19.7648
G01 X35.1800 Y19.8182
G01 X35.1709 Y19.8257
G01 X35.1118 Y19.8695
G01 X35.1021 Y19.8760
G01 X35.0338 Y19.9167
G01 X34.9567 Y19.9532
G01 X34.8764 Y19.9820
G01 X34.7936 Y20.0027
G01 X34.7092 Y20.0152
G01 X34.6269 Y20.0194
G01 X34.1240 Y20.0194
G01 X34.0417 Y20.0155
G01 X34.0330 Y20.0145
G01 X33.9544 Y20.0027
G01 X33.8716 Y19.9820
G01 X33.7913 Y19.9532
G01 X33.7194 Y19.9194
G01 X33.7116 Y19.9153
G01 X33.6410 Y19.8729
G01 X33.5725 Y19.8221
G01 X33.5093 Y19.7648
G01 X33.4520 Y19.7015
G01 X33.4011 Y19.6330
G01 X33.3573 Y19.5598
G01 X33.3208 Y19.4827
G01 X33.2920 Y19.4024
G01 X33.2713 Y19.3196
G01 X33.2588 Y19.2352
G01 X33.2546 Y19.1500
G01 X33.2588 Y19.0648
G01 X33.2713 Y18.9804
G01 X33.2920 Y18.8976
G01 X33.3208 Y18.8173
G01 X33.3546 Y18.7454
G01 X33.3587 Y18.7376
G01 X33.4011 Y18.6670
G01 X33.4520 Y18.5985
G01 X33.5093 Y18.5352
G01 X33.5680 Y18.4818
G01 X33.5771 Y18.4743
G01 X33.6410 Y18.4271
G01 X33.7091 Y18.3861
G01 X33.7194 Y18.3806
G01 X33.7859 Y18.3492
G01 X33.7968 Y18.3447
G01 X33.8716 Y18.3180
G01 X33.9487 Y18.2986
G01 X33.9602 Y18.2963
G01 X34.0330 Y18.2855
G01 X34.0417 Y18.2845
G01 X34.1240 Y18.2806
G01 X34.6240 Y18.2806
G00 Z2.0000
G00 X35.6293 Y18.6298
G01 F60.00
G01 Z-0.1100
G01 F120.00
G01 X35.6179 Y18.6081
G01 X35.5930 Y18.5664
G01 X35.6293 Y18.5561
G01 X35.6293 Y18.6298
G00 Z2.0000
G00 X34.2113 Y20.4134
G01 F60.00
G01 Z-0.1100
G01 F120.00
G01 X34.5532 Y20.4134
G01 X34.5401 Y20.4266
G01 X34.2111 Y20.4266
G01 X34.2113 Y20.4134
G00 Z2.0000
G00 X34.0563 Y20.2792
G01 F60.00
G01 Z-0.1100
G01 F120.00
G01 X34.1053 Y20.2816
G01 X34.1240 Y20.2821
G01 X34.6240 Y20.2821
G01 X34.6428 Y20.2816
G01 X34.7256 Y20.2774
G01 X34.7536 Y20.2743
G01 X34.8264 Y20.2635
G01 X34.8449 Y20.2603
G01 X34.8632 Y20.2562
G01 X34.9072 Y20.2452
G01 X34.5945 Y20.5579
G01 X34.1240 Y20.5579
G01 X34.1053 Y20.5584
G01 X34.0564 Y20.5608
G01 X34.0711 Y20.4937
G01 X34.0747 Y20.4751
G01 X34.0784 Y20.4468
G01 X34.0796 Y20.4279
G01 X34.0800 Y20.4089
G01 X34.0787 Y20.3805
G01 X34.0767 Y20.3616
G01 X34.0737 Y20.3429
G01 X34.0676 Y20.3151
G01 X34.0623 Y20.2969
G01 X34.0563 Y20.2792
G00 Z2.0000
G00 X33.0363 Y21.3366
G01 F60.00
G01 Z-0.1100
G01 F120.00
G01 X33.1169 Y21.1480
G01 X33.2298 Y20.9769
G01 X33.3715 Y20.8287
G01 X33.5374 Y20.7082
G01 X33.6824 Y20.6383
G01 X33.6977 Y20.6299
G01 X33.7092 Y20.6215
G01 X33.7177 Y20.6139
G01 X33.7672 Y20.5646
G01 X33.7770 Y20.5535
G01 X33.7838 Y20.5438
G01 X33.7910 Y20.5308
G01 X33.7955 Y20.5198
G01 X33.7995 Y20.5056
G01 X33.8145 Y20.4373
G01 X33.8161 Y20.4286
G01 X33.8170 Y20.4197
G01 X33.8173 Y20.4109
G01 X33.8169 Y20.4020
G01 X33.8159 Y20.3931
G01 X33.8134 Y20.3815
G01 X33.8109 Y20.3730
G01 X33.7834 Y20.2992
G01 X33.7796 Y20.2912
G01 X33.7752 Y20.2834
G01 X33.7702 Y20.2760
G01 X33.7628 Y20.2668
G01 X33.7566 Y20.2604
G01 X33.7477 Y20.2526
G01 X33.6895 Y20.2088
G01 X33.6795 Y20.2020
G01 X33.6715 Y20.1976
G01 X33.6632 Y20.1938
G01 X33.6278 Y20.1804
G01 X33.4518 Y20.0753
G01 X33.2973 Y19.9404
G01 X33.1695 Y19.7801
G01 X33.0723 Y19.5995
G01 X33.0090 Y19.4045
G01 X32.9815 Y19.2013
G01 X32.9907 Y18.9965
G01 X33.0363 Y18.7966
G01 X33.1169 Y18.6080
G01 X33.2298 Y18.4369
G01 X33.3715 Y18.2887
G01 X33.5374 Y18.1682
G01 X33.6798 Y18.0996
G01 X33.6904 Y18.0942
G01 X33.7001 Y18.0883
G01 X33.7070 Y18.0833
G01 X33.7156 Y18.0759
G01 X33.7692 Y18.0224
G01 X33.7788 Y18.0111
G01 X33.7854 Y18.0013
G01 X33.7922 Y17.9881
G01 X33.7964 Y17.9770
G01 X33.7995 Y17.9656
G01 X33.8151 Y17.8944
G01 X33.8168 Y17.8827
G01 X33.8173 Y17.8709
G01 X33.8169 Y17.8620
G01 X33.8159 Y17.8531
G01 X33.8126 Y17.8387
G01 X33.8099 Y17.8302
G01 X33.7845 Y17.7619
G01 X33.7796 Y17.7512
G01 X33.7736 Y17.7409
G01 X33.7666 Y17.7313
G01 X33.7566 Y17.7204
G01 X33.7454 Y17.7108
G01 X33.6895 Y17.6688
G01 X33.6795 Y17.6620
G01 X33.6715 Y17.6576
G01 X33.6632 Y17.6538
G01 X33.6278 Y17.6404
G01 X33.4518 Y17.5353
G01 X33.2973 Y17.4004
G01 X33.1695 Y17.2401
G01 X33.0723 Y17.0595
G01 X33.0090 Y16.8645
G01 X32.9815 Y16.6613
G01 X32.9907 Y16.4565
G01 X33.0363 Y16.2566
G01 X33.1169 Y16.0680
G01 X33.2298 Y15.8969
G01 X33.3715 Y15.7487
G01 X33.5374 Y15.6282
G01 X33.6878 Y15.5555
G01 X33.6953 Y15.5514
G01 X33.7024 Y15.5467
G01 X33.7092 Y15.5415
G01 X33.7156 Y15.5359
G01 X33.7713 Y15.4803
G01 X33.7770 Y15.4735
G01 X33.7822 Y15.4663
G01 X33.7897 Y15.4535
G01 X33.7955 Y15.4398
G01 X33.7995 Y15.4256
G01 X33.8151 Y15.3544
G01 X33.8168 Y15.3427
G01 X33.8173 Y15.3309
G01 X33.8169 Y15.3220
G01 X33.8159 Y15.3131
G01 X33.8126 Y15.2987
G01 X33.8099 Y15.2902
G01 X33.7845 Y15.2219
G01 X33.7796 Y15.2112
G01 X33.7736 Y15.2009
G01 X33.7647 Y15.1890
G01 X33.7566 Y15.1804
G01 X33.7454 Y15.1708
G01 X33.6895 Y15.1288
G01 X33.6795 Y15.1220
G01 X33.6715 Y15.1176
G01 X33.6632 Y15.1138
G01 X33.6278 Y15.1004
G01 X33.4518 Y14.9953
G01 X33.2973 Y14.8604
G01 X33.1695 Y14.7001
G01 X33.0723 Y14.5195
G01 X33.0090 Y14.3245
G01 X32.9815 Y14.1213
G01 X32.9907 Y13.9165
G01 X33.0363 Y13.7166
G01 X33.1169 Y13.5280
G01 X33.2298 Y13.3569
G01 X33.3715 Y13.2087
G01 X33.5374 Y13.0882
G01 X33.7222 Y12.9992
G01 X33.9198 Y12.9447
G01 X34.0729 Y12.9309
G01 X34.7265 Y12.9309
G01 X34.9283 Y12.9675
G01 X35.1202 Y13.0396
G01 X35.2963 Y13.1447
G01 X35.4507 Y13.2796
G01 X35.5785 Y13.4399
G01 X35.6757 Y13.6205
G01 X35.7390 Y13.8155
G01 X35.7666 Y14.0187
G01 X35.7574 Y14.2235
G01 X35.7117 Y14.4234
G01 X35.6312 Y14.6120
G01 X35.5182 Y14.7831
G01 X35.3765 Y14.9313
G01 X35.2106 Y15.0518
G01 X35.0682 Y15.1204
G01 X35.0577 Y15.1258
G01 X35.0479 Y15.1317
G01 X35.0388 Y15.1385
G01 X35.0324 Y15.1441
G01 X34.9788 Y15.1976
G01 X34.9710 Y15.2065
G01 X34.9626 Y15.2187
G01 X34.9571 Y15.2292
G01 X34.9516 Y15.2430
G01 X34.9485 Y15.2544
G01 X34.9335 Y15.3227
G01 X34.9312 Y15.3373
G01 X34.9308 Y15.3521
G01 X34.9317 Y15.3639
G01 X34.9346 Y15.3785
G01 X34.9382 Y15.3898
G01 X34.9624 Y15.4553
G01 X34.9671 Y15.4662
G01 X34.9713 Y15.4740
G01 X34.9761 Y15.4815
G01 X34.9814 Y15.4887
G01 X34.9893 Y15.4975
G01 X34.9957 Y15.5036
G01 X35.0027 Y15.5092
G01 X35.0585 Y15.5512
G01 X35.0686 Y15.5580
G01 X35.0765 Y15.5624
G01 X35.0848 Y15.5662
G01 X35.1202 Y15.5796
G01 X35.2963 Y15.6847
G01 X35.4507 Y15.8196
G01 X35.5785 Y15.9799
G01 X35.6757 Y16.1605
G01 X35.7390 Y16.3555
G01 X35.7666 Y16.5587
G01 X35.7574 Y16.7635
G01 X35.7117 Y16.9634
G01 X35.6312 Y17.1520
G01 X35.5182 Y17.3231
G01 X35.3765 Y17.4713
G01 X35.2106 Y17.5918
G01 X35.0682 Y17.6604
G01 X35.0577 Y17.6658
G01 X35.0479 Y17.6717
G01 X35.0410 Y17.6767
G01 X35.0324 Y17.6841
G01 X34.9788 Y17.7376
G01 X34.9710 Y17.7465
G01 X34.9642 Y17.7562
G01 X34.9571 Y17.7692
G01 X34.9526 Y17.7802
G01 X34.9485 Y17.7944
G01 X34.9329 Y17.8656
G01 X34.9310 Y17.8803
G01 X34.9309 Y17.8951
G01 X34.9327 Y17.9098
G01 X34.9346 Y17.9185
G01 X34.9372 Y17.9270
G01 X34.9624 Y17.9953
G01 X34.9671 Y18.0062
G01 X34.9728 Y18.0166
G01 X34.9778 Y18.0240
G01 X34.9852 Y18.0332
G01 X34.9914 Y18.0396
G01 X35.0027 Y18.0492
G01 X35.0585 Y18.0912
G01 X35.0686 Y18.0980
G01 X35.0765 Y18.1024
G01 X35.0848 Y18.1062
G01 X35.1202 Y18.1196
G01 X35.2963 Y18.2247
G01 X35.3376 Y18.2606
G01 X35.3584 Y18.2763
G01 X35.3714 Y18.2840
G01 X35.3797 Y18.2878
G01 X35.3882 Y18.2910
G01 X35.4637 Y18.3137
G01 X35.4724 Y18.3155
G01 X35.4812 Y18.3167
G01 X35.4901 Y18.3172
G01 X35.4990 Y18.3170
G01 X35.5107 Y18.3158
G01 X35.5224 Y18.3134
G01 X35.5981 Y18.2917
G01 X35.6091 Y18.2873
G01 X35.6170 Y18.2834
G01 X35.6271 Y18.2772
G01 X35.6343 Y18.2719
G01 X35.6410 Y18.2660
G01 X35.6473 Y18.2597
G01 X35.6974 Y18.2029
G01 X35.7027 Y18.1960
G01 X35.7075 Y18.1888
G01 X35.7118 Y18.1812
G01 X35.7168 Y18.1708
G01 X35.7194 Y18.1668
G01 X35.7648 Y18.1126
G01 X35.7832 Y18.0894
G01 X35.7932 Y18.0787
G01 X35.8199 Y18.0470
G01 X35.8328 Y18.0372
G01 X35.8550 Y18.0176
G01 X36.2809 Y17.5918
G01 X36.2908 Y17.5805
G01 X36.3164 Y17.5458
G01 X36.3211 Y17.5385
G01 X36.3265 Y17.5283
G01 X36.3309 Y17.5176
G01 X36.3336 Y17.5093
G01 X36.3356 Y17.5009
G01 X36.3494 Y17.4324
G01 X36.3513 Y17.4183
G01 X36.3517 Y17.4098
G01 X36.3512 Y17.3984
G01 X36.3378 Y17.2450
G01 X36.3560 Y17.0377
G01 X36.4098 Y16.8368
G01 X36.4977 Y16.6482
G01 X36.6171 Y16.4777
G01 X36.7642 Y16.3306
G01 X36.9346 Y16.2113
G01 X37.1232 Y16.1233
G01 X37.3242 Y16.0695
G01 X37.5315 Y16.0514
G01 X37.7387 Y16.0695
G01 X37.9397 Y16.1233
G01 X38.1283 Y16.2113
G01 X38.2987 Y16.3306
G01 X38.4458 Y16.4777
G01 X38.4646 Y16.5045
G01 X38.4719 Y16.5135
G01 X38.4780 Y16.5197
G01 X38.5125 Y16.5529
G01 X38.5211 Y16.5604
G01 X38.5281 Y16.5655
G01 X38.5353 Y16.5701
G01 X38.5429 Y16.5741
G01 X38.5535 Y16.5787
G01 X38.5616 Y16.5814
G01 X38.6341 Y16.6025
G01 X38.6481 Y16.6051
G01 X38.6623 Y16.6059
G01 X39.5756 Y16.6059
G01 X39.5872 Y16.6053
G01 X39.5958 Y16.6042
G01 X39.6513 Y16.5932
G01 X39.6623 Y16.5899
G01 X39.6703 Y16.5867
G01 X39.6805 Y16.5817
G01 X39.6879 Y16.5772
G01 X39.6972 Y16.5705
G01 X39.7518 Y16.5269
G01 X39.7603 Y16.5194
G01 X39.7662 Y16.5132
G01 X39.7716 Y16.5067
G01 X39.7921 Y16.4777
G01 X39.9392 Y16.3306
G01 X40.1096 Y16.2113
G01 X40.2982 Y16.1233
G01 X40.4992 Y16.0695
G01 X40.7065 Y16.0514
G01 X40.9137 Y16.0695
G01 X41.1147 Y16.1233
G01 X41.3033 Y16.2113
G01 X41.4737 Y16.3306
G01 X41.6208 Y16.4777
G01 X41.7402 Y16.6482
G01 X41.8281 Y16.8368
G01 X41.8820 Y17.0377
G01 X41.9001 Y17.2450
G01 X41.8820 Y17.4523
G01 X41.8281 Y17.6533
G01 X41.7402 Y17.8418
G01 X41.6208 Y18.0123
G01 X41.4737 Y18.1594
G01 X41.3033 Y18.2787
G01 X41.1147 Y18.3667
G01 X40.9137 Y18.4205
G01 X40.7065 Y18.4386
G01 X40.4992 Y18.4205
G01 X40.2982 Y18.3667
G01 X40.1096 Y18.2787
G01 X39.9392 Y18.1594
G01 X39.7921 Y18.0123
G01 X39.7733 Y17.9855
G01 X39.7660 Y17.9765
G01 X39.7599 Y17.9703
G01 X39.7254 Y17.9371
G01 X39.7145 Y17.9278
G01 X39.7050 Y17.9214
G01 X39.6976 Y17.9171
G01 X39.6898 Y17.9135
G01 X39.6818 Y17.9104
G01 X39.6093 Y17.8889
G01 X39.5982 Y17.8863
G01 X39.5870 Y17.8846
G01 X39.5756 Y17.8841
G01 X38.6623 Y17.8841
G01 X38.6507 Y17.8847
G01 X38.6392 Y17.8863
G01 X38.5922 Y17.8956
G01 X38.5811 Y17.8983
G01 X38.5730 Y17.9011
G01 X38.5650 Y17.9044
G01 X38.5574 Y17.9083
G01 X38.5476 Y17.9144
G01 X38.5407 Y17.9195
G01 X38.4862 Y17.9631
G01 X38.4776 Y17.9706
G01 X38.4717 Y17.9768
G01 X38.4663 Y17.9833
G01 X38.4458 Y18.0123
G01 X38.2987 Y18.1594
G01 X38.1283 Y18.2787
G01 X37.9397 Y18.3667
G01 X37.7387 Y18.4205
G01 X37.5315 Y18.4386
G01 X37.3780 Y18.4252
G01 X37.3630 Y18.4249
G01 X37.3200 Y18.4276
G01 X37.3085 Y18.4292
G01 X37.3001 Y18.4311
G01 X37.2918 Y18.4336
G01 X37.2836 Y18.4367
G01 X37.2758 Y18.4404
G01 X37.2094 Y18.4766
G01 X37.1976 Y18.4844
G01 X37.1888 Y18.4917
G01 X36.9719 Y18.7084
G01 X36.9633 Y18.7179
G01 X36.9414 Y18.7456
G01 X36.9367 Y18.7530
G01 X36.9325 Y18.7608
G01 X36.9289 Y18.7688
G01 X36.9259 Y18.7771
G01 X36.9046 Y18.8496
G01 X36.9018 Y18.8636
G01 X36.9007 Y18.8749
G01 X36.9006 Y19.7739
G01 X36.9027 Y19.8481
G01 X36.9022 Y19.8529
G01 X36.8851 Y19.9250
G01 X36.8708 Y19.9942
G01 X36.8692 Y19.9988
G01 X36.8375 Y20.0620
G01 X36.8062 Y20.1291
G01 X36.8035 Y20.1332
G01 X36.7581 Y20.1874
G01 X36.7397 Y20.2106
G01 X36.7297 Y20.2213
G01 X36.7030 Y20.2530
G01 X36.6901 Y20.2628
G01 X36.6679 Y20.2824
G01 X35.7895 Y21.1608
G01 X35.7815 Y21.1696
G01 X35.7744 Y21.1792
G01 X35.7382 Y21.2419
G01 X35.7327 Y21.2525
G01 X35.7284 Y21.2637
G01 X35.7252 Y21.2751
G01 X35.7232 Y21.2869
G01 X35.7223 Y21.2988
G01 X35.7243 Y21.3746
G01 X35.7252 Y21.3859
G01 X35.7266 Y21.3944
G01 X35.7285 Y21.4026
G01 X35.7390 Y21.4355
G01 X35.7666 Y21.6387
G01 X35.7574 Y21.8435
G01 X35.7117 Y22.0434
G01 X35.6312 Y22.2320
G01 X35.5182 Y22.4031
G01 X35.3765 Y22.5513
G01 X35.2106 Y22.6718
G01 X35.0682 Y22.7404
G01 X35.0577 Y22.7458
G01 X35.0479 Y22.7517
G01 X35.0388 Y22.7585
G01 X35.0324 Y22.7641
G01 X34.9788 Y22.8176
G01 X34.9692 Y22.8289
G01 X34.9626 Y22.8387
G01 X34.9571 Y22.8492
G01 X34.9526 Y22.8602
G01 X34.9485 Y22.8744
G01 X34.9329 Y22.9456
G01 X34.9310 Y22.9603
G01 X34.9309 Y22.9751
G01 X34.9327 Y22.9898
G01 X34.9362 Y23.0042
G01 X34.9624 Y23.0753
G01 X34.9658 Y23.0835
G01 X34.9713 Y23.0940
G01 X34.9761 Y23.1015
G01 X34.9833 Y23.1110
G01 X34.9893 Y23.1175
G01 X34.9957 Y23.1236
G01 X35.0027 Y23.1292
G01 X35.0585 Y23.1712
G01 X35.0686 Y23.1780
G01 X35.0765 Y23.1824
G01 X35.0848 Y23.1862
G01 X35.1202 Y23.1996
G01 X35.2963 Y23.3047
G01 X35.4507 Y23.4396
G01 X35.5785 Y23.5999
G01 X35.6757 Y23.7805
G01 X35.7390 Y23.9755
G01 X35.7666 Y24.1787
G01 X35.7574 Y24.3835
G01 X35.7117 Y24.5834
G01 X35.6312 Y24.7720
G01 X35.5182 Y24.9431
G01 X35.3765 Y25.0913
G01 X35.2106 Y25.2118
G01 X35.0682 Y25.2804
G01 X35.0577 Y25.2858
G01 X35.0479 Y25.2917
G01 X35.0388 Y25.2985
G01 X35.0324 Y25.3041
G01 X34.9788 Y25.3576
G01 X34.9710 Y25.3665
G01 X34.9626 Y25.3787
G01 X34.9558 Y25.3919
G01 X34.9516 Y25.4030
G01 X34.9485 Y25.4144
G01 X34.9335 Y25.4827
G01 X34.9312 Y25.4973
G01 X34.9308 Y25.5121
G01 X34.9317 Y25.5239
G01 X34.9346 Y25.5385
G01 X34.9382 Y25.5498
G01 X34.9624 Y25.6153
G01 X34.9671 Y25.6262
G01 X34.9728 Y25.6366
G01 X34.9778 Y25.6440
G01 X34.9852 Y25.6532
G01 X34.9914 Y25.6596
G01 X35.0027 Y25.6692
G01 X35.0585 Y25.7112
G01 X35.0686 Y25.7180
G01 X35.0765 Y25.7224
G01 X35.0848 Y25.7262
G01 X35.1202 Y25.7396
G01 X35.2963 Y25.8447
G01 X35.4507 Y25.9796
G01 X35.4982 Y26.0393
G01 X35.5056 Y26.0476
G01 X35.5116 Y26.0534
G01 X35.5437 Y26.0824
G01 X35.5507 Y26.0880
G01 X35.5581 Y26.0930
G01 X35.5711 Y26.1001
G01 X35.5850 Y26.1055
G01 X35.6576 Y26.1268
G01 X35.6659 Y26.1287
G01 X35.6743 Y26.1301
G01 X35.6885 Y26.1309
G01 X35.9023 Y26.1307
G01 X35.9350 Y26.1274
G01 X35.9437 Y26.1261
G01 X35.9551 Y26.1235
G01 X35.9662 Y26.1197
G01 X35.9795 Y26.1135
G01 X36.0433 Y26.0786
G01 X36.0529 Y26.0724
G01 X36.0618 Y26.0654
G01 X36.0680 Y26.0596
G01 X39.1223 Y23.0053
G01 X39.1398 Y22.9858
G01 X39.1451 Y22.9788
G01 X39.1498 Y22.9715
G01 X39.1540 Y22.9638
G01 X39.1576 Y22.9559
G01 X39.1862 Y22.8857
G01 X39.1895 Y22.8743
G01 X39.1922 Y22.8597
G01 X39.1929 Y22.8509
G01 X39.1929 Y22.8420
G01 X39.1923 Y22.8331
G01 X39.1910 Y22.8243
G01 X39.1777 Y22.7527
G01 X39.1738 Y22.7384
G01 X39.1694 Y22.7274
G01 X39.1654 Y22.7195
G01 X39.1608 Y22.7118
G01 X39.1556 Y22.7046
G01 X39.1499 Y22.6977
G01 X39.0981 Y22.6425
G01 X39.0893 Y22.6345
G01 X39.0799 Y22.6273
G01 X39.0723 Y22.6226
G01 X39.0644 Y22.6185
G01 X39.0563 Y22.6150
G01 X39.0479 Y22.6121
G01 X38.9744 Y22.5935
G01 X38.9627 Y22.5912
G01 X38.9509 Y22.5900
G01 X38.9420 Y22.5899
G01 X38.9302 Y22.5909
G01 X38.9186 Y22.5929
G01 X38.9071 Y22.5962
G01 X38.8409 Y22.6185
G01 X38.8304 Y22.6226
G01 X38.8202 Y22.6278
G01 X38.8130 Y22.6322
G01 X38.7399 Y22.6833
G01 X38.5587 Y22.7678
G01 X38.3656 Y22.8195
G01 X38.1665 Y22.8370
G01 X37.9673 Y22.8195
G01 X37.9244 Y22.8080
G01 X38.1612 Y22.5713
G01 X38.1723 Y22.5713
G01 X38.2529 Y22.5672
G01 X38.3384 Y22.5545
G01 X38.4223 Y22.5334
G01 X38.5038 Y22.5043
G01 X38.5820 Y22.4673
G01 X38.6561 Y22.4229
G01 X38.7256 Y22.3713
G01 X38.7897 Y22.3132
G01 X38.8478 Y22.2492
G01 X38.8993 Y22.1797
G01 X38.9438 Y22.1055
G01 X38.9808 Y22.0273
G01 X39.0099 Y21.9459
G01 X39.0309 Y21.8620
G01 X39.0436 Y21.7764
G01 X39.0477 Y21.6959
G01 X39.0477 Y21.6847
G01 X39.3827 Y21.3497
G01 X39.3942 Y21.3494
G01 X39.4590 Y21.3443
G01 X39.4738 Y21.3418
G01 X39.4881 Y21.3375
G01 X39.4991 Y21.3328
G01 X39.5122 Y21.3254
G01 X39.5694 Y21.2858
G01 X39.5815 Y21.2762
G01 X39.5960 Y21.2616
G01 X39.6032 Y21.2537
G01 X39.6299 Y21.2220
G01 X39.6428 Y21.2122
G01 X39.6650 Y21.1926
G01 X40.8817 Y19.9759
G01 X40.9327 Y19.9220
G01 X40.9364 Y19.9189
G01 X40.9965 Y19.8819
G01 X41.0594 Y19.8407
G01 X41.0629 Y19.8390
G01 X41.1332 Y19.8157
G01 X41.1997 Y19.7915
G01 X41.2044 Y19.7904
G01 X41.2748 Y19.7843
G01 X41.3042 Y19.7809
G01 X41.3188 Y19.7804
G01 X41.3602 Y19.7768
G01 X41.3762 Y19.7790
G01 X41.4058 Y19.7809
G01 X42.2491 Y19.7809
G01 X42.2587 Y19.7802
G01 X42.2850 Y19.7774
G01 X42.2966 Y19.7756
G01 X42.3107 Y19.7717
G01 X42.3243 Y19.7661
G01 X42.3957 Y19.7271
G01 X42.4074 Y19.7190
G01 X42.4160 Y19.7116
G01 X43.1733 Y18.9543
G01 X43.1796 Y18.9471
G01 X43.1998 Y18.9218
G01 X43.2077 Y18.9094
G01 X43.2129 Y18.8989
G01 X43.2178 Y18.8851
G01 X43.2375 Y18.8181
G01 X43.2402 Y18.8071
G01 X43.2418 Y18.7958
G01 X43.2424 Y18.7845
G01 X43.2424 Y15.7055
G01 X43.2420 Y15.6960
G01 X43.2385 Y15.6635
G01 X43.2370 Y15.6548
G01 X43.2349 Y15.6463
G01 X43.2311 Y15.6352
G01 X43.2263 Y15.6246
G01 X43.1914 Y15.5606
G01 X43.1839 Y15.5486
G01 X43.1787 Y15.5418
G01 X43.1731 Y15.5355
G01 X42.1674 Y14.5297
G01 X42.1135 Y14.4788
G01 X42.1104 Y14.4750
G01 X42.0715 Y14.4120
G01 X42.0322 Y14.3521
G01 X42.0305 Y14.3486
G01 X42.0071 Y14.2782
G01 X41.9830 Y14.2118
G01 X41.9819 Y14.2071
G01 X41.9758 Y14.1367
G01 X41.9724 Y14.1072
G01 X41.9719 Y14.0926
G01 X41.9683 Y14.0513
G01 X41.9705 Y14.0352
G01 X41.9724 Y14.0057
G01 X41.9724 Y10.1158
G01 X41.9720 Y10.1062
G01 X41.9688 Y10.0766
G01 X41.9676 Y10.0679
G01 X41.9649 Y10.0565
G01 X41.9611 Y10.0454
G01 X41.9549 Y10.0322
G01 X41.9214 Y9.9709
G01 X41.9171 Y9.9635
G01 X41.9105 Y9.9543
G01 X41.9011 Y9.9436
G01 X41.6240 Y9.6665
G01 X41.6259 Y9.6250
G01 X41.6240 Y9.5835
G01 X41.9011 Y9.3064
G01 X41.9096 Y9.2968
G01 X41.9315 Y9.2692
G01 X41.9377 Y9.2592
G01 X41.9429 Y9.2487
G01 X41.9478 Y9.2349
G01 X41.9675 Y9.1679
G01 X41.9707 Y9.1540
G01 X41.9721 Y9.1428
G01 X41.9724 Y9.1342
G01 X41.9723 Y7.9108
G01 X41.9715 Y7.8994
G01 X41.9702 Y7.8910
G01 X41.9584 Y7.8367
G01 X41.9544 Y7.8224
G01 X41.9498 Y7.8113
G01 X41.9427 Y7.7983
G01 X41.9376 Y7.7909
G01 X41.9320 Y7.7839
G01 X41.8843 Y7.7289
G01 X41.8759 Y7.7205
G01 X41.8643 Y7.7113
G01 X41.8568 Y7.7065
G01 X41.8489 Y7.7023
G01 X41.8353 Y7.6965
G01 X41.7626 Y7.6750
G01 X41.7488 Y7.6718
G01 X41.7403 Y7.6707
G01 X41.7290 Y7.6702
G01 X41.0542 Y7.6702
G01 X41.0149 Y7.6660
G01 X40.9081 Y7.6261
G01 X40.8185 Y7.5591
G01 X40.7514 Y7.4695
G01 X40.7122 Y7.3643
G01 X40.7066 Y7.3515
G01 X40.6838 Y7.3116
G01 X40.6774 Y7.3016
G01 X40.6720 Y7.2945
G01 X40.6660 Y7.2879
G01 X40.6550 Y7.2778
G01 X40.6478 Y7.2725
G01 X40.5902 Y7.2330
G01 X40.5827 Y7.2282
G01 X40.5748 Y7.2241
G01 X40.5667 Y7.2205
G01 X40.5555 Y7.2166
G01 X40.5468 Y7.2145
G01 X40.5351 Y7.2127
G01 X40.5262 Y7.2121
G01 X40.4564 Y7.2100
G01 X40.4445 Y7.2102
G01 X40.4299 Y7.2122
G01 X40.4183 Y7.2150
G01 X40.4072 Y7.2190
G01 X40.3965 Y7.2241
G01 X40.3290 Y7.2645
G01 X40.3220 Y7.2693
G01 X40.3153 Y7.2746
G01 X40.3051 Y7.2845
G01 X40.2486 Y7.3459
G01 X40.1395 Y7.4308
G01 X40.1307 Y7.4383
G01 X40.1247 Y7.4445
G01 X40.0927 Y7.4796
G01 X40.0843 Y7.4911
G01 X40.0773 Y7.5035
G01 X40.0738 Y7.5114
G01 X40.0701 Y7.5222
G01 X40.0496 Y7.5919
G01 X40.0468 Y7.6059
G01 X40.0459 Y7.6143
G01 X40.0456 Y7.6228
G01 X40.0456 Y7.7389
G01 X40.0476 Y7.8140
G01 X40.0472 Y7.8179
G01 X40.0301 Y7.8900
G01 X40.0158 Y7.9592
G01 X40.0142 Y7.9638
G01 X39.9810 Y8.0301
G01 X39.9507 Y8.0949
G01 X39.9485 Y8.0982
G01 X39.9031 Y8.1524
G01 X39.8847 Y8.1756
G01 X39.8730 Y8.1882
G01 X39.8528 Y8.2128
G01 X39.8480 Y8.2201
G01 X39.8442 Y8.2267
G01 X39.8199 Y8.2725
G01 X39.8149 Y8.2832
G01 X39.8109 Y8.2943
G01 X39.8087 Y8.3029
G01 X39.8071 Y8.3117
G01 X39.8062 Y8.3205
G01 X39.8060 Y8.3294
G01 X39.8065 Y8.3992
G01 X39.8076 Y8.4140
G01 X39.8097 Y8.4257
G01 X39.8130 Y8.4371
G01 X39.8174 Y8.4481
G01 X39.8244 Y8.4611
G01 X39.8676 Y8.5270
G01 X39.8731 Y8.5340
G01 X39.8791 Y8.5406
G01 X39.8856 Y8.5467
G01 X39.8925 Y8.5523
G01 X39.9023 Y8.5589
G01 X39.9127 Y8.5645
G01 X39.9847 Y8.5966
G01 X39.9931 Y8.5995
G01 X40.0046 Y8.6024
G01 X40.0134 Y8.6038
G01 X40.0252 Y8.6047
G01 X40.0370 Y8.6043
G01 X40.0459 Y8.6033
G01 X40.1177 Y8.5924
G01 X40.1316 Y8.5891
G01 X40.1396 Y8.5863
G01 X40.1475 Y8.5830
G01 X40.3011 Y8.5114
G01 X40.5007 Y8.4579
G01 X40.7065 Y8.4399
G01 X40.9123 Y8.4579
G01 X40.9796 Y8.4759
G01 X40.7480 Y8.7075
G01 X40.7123 Y8.7057
G01 X40.7035 Y8.7056
G01 X40.6193 Y8.7098
G01 X40.6105 Y8.7107
G01 X40.5300 Y8.7227
G01 X40.5214 Y8.7246
G01 X40.4396 Y8.7452
G01 X40.3573 Y8.7745
G01 X40.3493 Y8.7780
G01 X40.2731 Y8.8142
G01 X40.1957 Y8.8605
G01 X40.1232 Y8.9143
G01 X40.0563 Y8.9749
G01 X39.9958 Y9.0417
G01 X39.9420 Y9.1142
G01 X39.8956 Y9.1916
G01 X39.8594 Y9.2678
G01 X39.8560 Y9.2759
G01 X39.8267 Y9.3581
G01 X39.8060 Y9.4399
G01 X39.8042 Y9.4485
G01 X39.7922 Y9.5291
G01 X39.7912 Y9.5378
G01 X39.7871 Y9.6221
G01 X39.7872 Y9.6309
G01 X39.7890 Y9.6665
G01 X39.5574 Y9.8981
G01 X39.5394 Y9.8308
G01 X39.5214 Y9.6250
G01 X39.5394 Y9.4192
G01 X39.5928 Y9.2197
G01 X39.6667 Y9.0613
G01 X39.6722 Y9.0472
G01 X39.6759 Y9.0325
G01 X39.6881 Y8.9655
G01 X39.6890 Y8.9567
G01 X39.6892 Y8.9479
G01 X39.6881 Y8.9334
G01 X39.6859 Y8.9218
G01 X39.6826 Y8.9106
G01 X39.6572 Y8.8424
G01 X39.6525 Y8.8315
G01 X39.6452 Y8.8186
G01 X39.6382 Y8.8091
G01 X39.6282 Y8.7981
G01 X39.6169 Y8.7885
G01 X39.5561 Y8.7432
G01 X39.5486 Y8.7385
G01 X39.5407 Y8.7344
G01 X39.5269 Y8.7289
G01 X39.5126 Y8.7251
G01 X39.4979 Y8.7231
G01 X39.4253 Y8.7180
G01 X39.4134 Y8.7180
G01 X39.4046 Y8.7188
G01 X39.3929 Y8.7209
G01 X39.3843 Y8.7232
G01 X39.3759 Y8.7262
G01 X39.3651 Y8.7311
G01 X39.2987 Y8.7673
G01 X39.2868 Y8.7752
G01 X39.2781 Y8.7824
G01 X38.7820 Y9.2782
G01 X38.7721 Y9.2895
G01 X38.7449 Y9.3266
G01 X38.7390 Y9.3365
G01 X38.7352 Y9.3444
G01 X38.7320 Y9.3524
G01 X38.7294 Y9.3607
G01 X38.7273 Y9.3691
G01 X38.7136 Y9.4376
G01 X38.7116 Y9.4517
G01 X38.7112 Y9.4602
G01 X38.7117 Y9.4716
G01 X38.7251 Y9.6250
G01 X38.7070 Y9.8323
G01 X38.6531 Y10.0333
G01 X38.5652 Y10.2218
G01 X38.4458 Y10.3923
G01 X38.2987 Y10.5394
G01 X38.1283 Y10.6587
G01 X37.9397 Y10.7467
G01 X37.7387 Y10.8005
G01 X37.5315 Y10.8186
G01 X37.3242 Y10.8005
G01 X37.1232 Y10.7467
G01 X36.9346 Y10.6587
G01 X36.7642 Y10.5394
G01 X36.6171 Y10.3923
G01 X36.4977 Y10.2218
G01 X36.4098 Y10.0332
G01 X36.3560 Y9.8323
G01 X36.3378 Y9.6250
G01 X36.3560 Y9.4177
G01 X36.4098 Y9.2168
G01 X36.4977 Y9.0282
G01 X36.6171 Y8.8577
G01 X36.7642 Y8.7106
G01 X36.9346 Y8.5913
G01 X37.1232 Y8.5033
G01 X37.3242 Y8.4495
G01 X37.5315 Y8.4314
G01 X37.6879 Y8.4450
G01 X37.6999 Y8.4451
G01 X37.7458 Y8.4421
G01 X37.7544 Y8.4408
G01 X37.7657 Y8.4382
G01 X37.7739 Y8.4355
G01 X37.7819 Y8.4322
G01 X37.7897 Y8.4283
G01 X37.8510 Y8.3948
G01 X37.8630 Y8.3873
G01 X37.8720 Y8.3802
G01 X37.8782 Y8.3744
G01 X38.5634 Y7.6893
G01 X38.5711 Y7.6807
G01 X38.5780 Y7.6715
G01 X38.6077 Y7.6271
G01 X38.6119 Y7.6196
G01 X38.6155 Y7.6118
G01 X38.6203 Y7.5983
G01 X38.6224 Y7.5900
G01 X38.6238 Y7.5815
G01 X38.6323 Y7.5063
G01 X38.6328 Y7.4974
G01 X38.6326 Y7.4886
G01 X38.6308 Y7.4738
G01 X38.6271 Y7.4595
G01 X38.6217 Y7.4457
G01 X38.5883 Y7.3778
G01 X38.5840 Y7.3704
G01 X38.5793 Y7.3633
G01 X38.5703 Y7.3523
G01 X38.4253 Y7.1948
G01 X38.3351 Y7.0568
G01 X38.3282 Y7.0477
G01 X38.3052 Y7.0206
G01 X38.2988 Y7.0142
G01 X38.2920 Y7.0083
G01 X38.2846 Y7.0029
G01 X38.2770 Y6.9982
G01 X38.2039 Y6.9612
G01 X38.1929 Y6.9570
G01 X38.1785 Y6.9532
G01 X38.1638 Y6.9512
G01 X38.1520 Y6.9510
G01 X38.1431 Y6.9516
G01 X38.0707 Y6.9591
G01 X38.0561 Y6.9619
G01 X38.0420 Y6.9665
G01 X38.0286 Y6.9728
G01 X38.0161 Y6.9807
G01 X37.9546 Y7.0297
G01 X37.9443 Y7.0394
G01 X37.9352 Y7.0503
G01 X37.8128 Y7.2251
G01 X37.6605 Y7.3774
G01 X37.4859 Y7.4997
G01 X37.4859 Y7.1766
G01 X37.5477 Y7.1206
G01 X37.5560 Y7.1123
G01 X37.6158 Y7.0461
G01 X37.6691 Y6.9745
G01 X37.6756 Y6.9647
G01 X37.7214 Y6.8881
G01 X37.7621 Y6.8021
G01 X37.7941 Y6.7125
G01 X37.8160 Y6.6259
G01 X37.8182 Y6.6144
G01 X37.8312 Y6.5261
G01 X37.8357 Y6.4370
G01 X37.8357 Y6.4252
G01 X37.8314 Y6.3390
G01 X37.8305 Y6.3303
G01 X37.8172 Y6.2420
G01 X37.7957 Y6.1553
G01 X37.7923 Y6.1441
G01 X37.7621 Y6.0601
G01 X37.7240 Y5.9794
G01 X37.7185 Y5.9690
G01 X37.6725 Y5.8925
G01 X37.6158 Y5.8161
G01 X37.5560 Y5.7499
G01 X37.5477 Y5.7416
G01 X37.4859 Y5.6856
G01 X37.4768 Y5.6781
G01 X37.4050 Y5.6251
G01 X37.3285 Y5.5790
G01 X37.3182 Y5.5735
G01 X37.2428 Y5.5379
G01 X37.2320 Y5.5334
G01 X37.1479 Y5.5034
G01 X37.0613 Y5.4816
G01 X37.0504 Y5.4794
G01 X36.9615 Y5.4664
G01 X36.8665 Y5.4617
G01 X36.7714 Y5.4664
G01 X36.6831 Y5.4793
G01 X36.6716 Y5.4816
G01 X36.5853 Y5.5034
G01 X36.5010 Y5.5334
G01 X36.4901 Y5.5379
G01 X36.4147 Y5.5735
G01 X36.4044 Y5.5790
G01 X36.3279 Y5.6251
G01 X36.2515 Y5.6817
G01 X36.1810 Y5.7456
G01 X36.1209 Y5.8117
G01 X35.7979 Y5.8117
G01 X35.9202 Y5.6371
G01 X36.0724 Y5.4848
G01 X36.2488 Y5.3613
G01 X36.4440 Y5.2703
G01 X36.6520 Y5.2146
G01 X36.7181 Y5.2087
G01 X36.7270 Y5.2074
G01 X36.7359 Y5.2054
G01 X36.7473 Y5.2016
G01 X36.8162 Y5.1751
G01 X36.8292 Y5.1685
G01 X36.8413 Y5.1602
G01 X36.8523 Y5.1506
G01 X36.8602 Y5.1420
G01 X36.9057 Y5.0814
G01 X36.9107 Y5.0741
G01 X36.9152 Y5.0665
G01 X36.9214 Y5.0530
G01 X36.9243 Y5.0446
G01 X36.9266 Y5.0360
G01 X36.9282 Y5.0273
G01 X36.9292 Y5.0184
G01 X36.9343 Y4.9458
G01 X36.9343 Y4.9339
G01 X36.9326 Y4.9192
G01 X36.9307 Y4.9105
G01 X36.9282 Y4.9020
G01 X36.9250 Y4.8937
G01 X36.9212 Y4.8856
G01 X36.8850 Y4.8192
G01 X36.8788 Y4.8096
G01 X36.8718 Y4.8007
G01 X36.8660 Y4.7945
G01 X36.4374 Y4.3658
G01 X36.3835 Y4.3149
G01 X36.3804 Y4.3111
G01 X36.3415 Y4.2481
G01 X36.3022 Y4.1882
G01 X36.3005 Y4.1847
G01 X36.2771 Y4.1143
G01 X36.2530 Y4.0479
G01 X36.2519 Y4.0432
G01 X36.2458 Y3.9728
G01 X36.2424 Y3.9433
G01 X36.2419 Y3.9287
G01 X36.2383 Y3.8874
G01 X36.2405 Y3.8713
G01 X36.2424 Y3.8418
G01 X36.2424 Y3.1968
G01 X36.2418 Y3.1852
G01 X36.2407 Y3.1767
G01 X36.2331 Y3.1327
G01 X36.2295 Y3.1189
G01 X36.2266 Y3.1108
G01 X36.2231 Y3.1030
G01 X36.2161 Y3.0906
G01 X36.1720 Y3.0292
G01 X36.1631 Y3.0181
G01 X36.1571 Y3.0121
G01 X36.1485 Y3.0047
G01 X36.0394 Y2.9198
G01 X35.9003 Y2.7687
G01 X35.8101 Y2.6307
G01 X35.8050 Y2.6238
G01 X35.7842 Y2.5990
G01 X35.7738 Y2.5881
G01 X35.7621 Y2.5786
G01 X35.7520 Y2.5721
G01 X35.6843 Y2.5377
G01 X35.6762 Y2.5340
G01 X35.6679 Y2.5309
G01 X35.6593 Y2.5284
G01 X35.6477 Y2.5261
G01 X35.6329 Y2.5249
G01 X35.6211 Y2.5252
G01 X35.5427 Y2.5334
G01 X35.5311 Y2.5358
G01 X35.5198 Y2.5393
G01 X35.5089 Y2.5440
G01 X35.4985 Y2.5496
G01 X35.4864 Y2.5582
G01 X35.4318 Y2.6018
G01 X35.4253 Y2.6073
G01 X35.4173 Y2.6154
G01 X35.4085 Y2.6266
G01 X35.2878 Y2.7990
G01 X35.1355 Y2.9513
G01 X34.9609 Y3.0736
G01 X34.9609 Y2.7505
G01 X35.0269 Y2.6905
G01 X35.0870 Y2.6244
G01 X35.0944 Y2.6154
G01 X35.1475 Y2.5436
G01 X35.1935 Y2.4671
G01 X35.1990 Y2.4567
G01 X35.2347 Y2.3813
G01 X35.2392 Y2.3705
G01 X35.2691 Y2.2864
G01 X35.2922 Y2.1941
G01 X35.3062 Y2.1000
G01 X35.3109 Y2.0050
G01 X35.3062 Y1.9100
G01 X35.2922 Y1.8159
G01 X35.2691 Y1.7236
G01 X35.2392 Y1.6395
G01 X35.2347 Y1.6287
G01 X35.1990 Y1.5533
G01 X35.1935 Y1.5429
G01 X35.1475 Y1.4664
G01 X35.0944 Y1.3946
G01 X35.0870 Y1.3856
G01 X35.0269 Y1.3195
G01 X34.9609 Y1.2595
G01 X34.9609 Y0.9364
G01 X35.1355 Y1.0587
G01 X35.2878 Y1.2110
G01 X35.4102 Y1.3857
G01 X35.4155 Y1.3924
G01 X35.4370 Y1.4166
G01 X35.4478 Y1.4271
G01 X35.4598 Y1.4363
G01 X35.4702 Y1.4425
G01 X35.5444 Y1.4770
G01 X35.5555 Y1.4809
G01 X35.5671 Y1.4837
G01 X35.5788 Y1.4854
G01 X35.5907 Y1.4858
G01 X35.6054 Y1.4847
G01 X35.6776 Y1.4749
G01 X35.6921 Y1.4716
G01 X35.7060 Y1.4666
G01 X35.7192 Y1.4599
G01 X35.7315 Y1.4516
G01 X35.7892 Y1.4025
G01 X35.7995 Y1.3926
G01 X35.8050 Y1.3862
G01 X35.8101 Y1.3793
G01 X35.9003 Y1.2413
G01 X36.0394 Y1.0902
G01 X36.2014 Y0.9641
G01 X36.3820 Y0.8664
G01 X36.5762 Y0.7997
G01 X36.7788 Y0.7659
G01 X36.9841 Y0.7659
G01 X37.1867 Y0.7997
G01 X37.3809 Y0.8664
G01 X37.5615 Y0.9641
G01 X37.7236 Y1.0902
G01 X37.7801 Y1.1516
G01 X37.7859 Y1.1576
G01 X37.7944 Y1.1649
G01 X37.8262 Y1.1897
G01 X37.8359 Y1.1966
G01 X37.8437 Y1.2010
G01 X37.8517 Y1.2049
G01 X37.8628 Y1.2092
G01 X37.8714 Y1.2116
G01 X37.9455 Y1.2277
G01 X37.9543 Y1.2291
G01 X37.9661 Y1.2298
G01 X37.9750 Y1.2297
G01 X37.9868 Y1.2284
G01 X37.9984 Y1.2259
G01 X38.0097 Y1.2223
G01 X38.0752 Y1.1979
G01 X38.0834 Y1.1945
G01 X38.0913 Y1.1905
G01 X38.0989 Y1.1859
G01 X38.1062 Y1.1807
G01 X38.1130 Y1.1751
G01 X38.1194 Y1.1689
G01 X38.1272 Y1.1600
G01 X38.1709 Y1.1017
G01 X38.1777 Y1.0916
G01 X38.1821 Y1.0836
G01 X38.1869 Y1.0725
G01 X38.2264 Y0.9666
G01 X38.2935 Y0.8770
G01 X38.3831 Y0.8100
G01 X38.4899 Y0.7701
G01 X38.5292 Y0.7659
G01 X40.3137 Y0.7659
G01 X40.3530 Y0.7701
G01 X40.4599 Y0.8100
G01 X40.5494 Y0.8770
G01 X40.6165 Y0.9666
G01 X40.6563 Y1.0735
G01 X40.6606 Y1.1127
G01 X40.6606 Y2.8973
G01 X40.6563 Y2.9365
G01 X40.6165 Y3.0434
G01 X40.5494 Y3.1330
G01 X40.4599 Y3.2000
G01 X40.3530 Y3.2399
G01 X40.3137 Y3.2441
G01 X40.2983 Y3.2442
G01 X40.2842 Y3.2458
G01 X40.2242 Y3.2587
G01 X40.2156 Y3.2612
G01 X40.2072 Y3.2642
G01 X40.1990 Y3.2679
G01 X40.1912 Y3.2722
G01 X40.1837 Y3.2771
G01 X40.1765 Y3.2825
G01 X40.1192 Y3.3322
G01 X40.1109 Y3.3406
G01 X40.1034 Y3.3498
G01 X40.0984 Y3.3572
G01 X40.0940 Y3.3649
G01 X40.0901 Y3.3729
G01 X40.0869 Y3.3812
G01 X40.0654 Y3.4539
G01 X40.0633 Y3.4621
G01 X40.0614 Y3.4733
G01 X40.0606 Y3.4847
G01 X40.0606 Y3.5437
G01 X40.0612 Y3.5533
G01 X40.0649 Y3.5855
G01 X40.0672 Y3.5970
G01 X40.0707 Y3.6081
G01 X40.0766 Y3.6215
G01 X40.1129 Y3.6879
G01 X40.1207 Y3.6998
G01 X40.1260 Y3.7064
G01 X40.1319 Y3.7127
G01 X41.5399 Y5.1207
G01 X41.5469 Y5.1272
G01 X41.5701 Y5.1459
G01 X41.5771 Y5.1511
G01 X41.5845 Y5.1559
G01 X41.5976 Y5.1625
G01 X41.6085 Y5.1666
G01 X41.6784 Y5.1872
G01 X41.6922 Y5.1903
G01 X41.7007 Y5.1915
G01 X41.7092 Y5.1920
G01 X42.8387 Y5.1920
G01 X42.8780 Y5.1962
G01 X42.9849 Y5.2361
G01 X43.0744 Y5.3031
G01 X43.1415 Y5.3927
G01 X43.1813 Y5.4996
G01 X43.1856 Y5.5388
G01 X43.1857 Y6.7630
G01 X43.1867 Y6.7739
G01 X43.1934 Y6.8156
G01 X43.1963 Y6.8289
G01 X43.2146 Y6.8846
G01 X43.2400 Y6.9543
G01 X43.2410 Y6.9590
G01 X43.2472 Y7.0294
G01 X43.2506 Y7.0589
G01 X43.2511 Y7.0735
G01 X43.2546 Y7.1148
G01 X43.2524 Y7.1309
G01 X43.2506 Y7.1604
G01 X43.2506 Y13.7045
G01 X43.2512 Y13.7172
G01 X43.2553 Y13.7523
G01 X43.2589 Y13.7665
G01 X43.2629 Y13.7775
G01 X43.2680 Y13.7880
G01 X43.3029 Y13.8518
G01 X43.3107 Y13.8637
G01 X43.3179 Y13.8725
G01 X44.3256 Y14.8803
G01 X44.3801 Y14.9319
G01 X44.3825 Y14.9350
G01 X44.4215 Y14.9980
G01 X44.4607 Y15.0579
G01 X44.4624 Y15.0614
G01 X44.4858 Y15.1318
G01 X44.5102 Y15.1991
G01 X44.5110 Y15.2029
G01 X44.5172 Y15.2733
G01 X44.5206 Y15.3028
G01 X44.5211 Y15.3174
G01 X44.5246 Y15.3587
G01 X44.5224 Y15.3748
G01 X44.5206 Y15.4043
G01 X44.5206 Y19.1389
G01 X44.5227 Y19.2131
G01 X44.5222 Y19.2179
G01 X44.5051 Y19.2900
G01 X44.4908 Y19.3592
G01 X44.4892 Y19.3638
G01 X44.4575 Y19.4270
G01 X44.4262 Y19.4941
G01 X44.4235 Y19.4982
G01 X44.3781 Y19.5524
G01 X44.3597 Y19.5756
G01 X44.3497 Y19.5863
G01 X44.3230 Y19.6180
G01 X44.3101 Y19.6278
G01 X44.2879 Y19.6474
G01 X43.0712 Y20.8641
G01 X43.0203 Y20.9180
G01 X43.0165 Y20.9211
G01 X42.9535 Y20.9600
G01 X42.8944 Y20.9989
G01 X42.8900 Y21.0010
G01 X42.8197 Y21.0243
G01 X42.7533 Y21.0485
G01 X42.7485 Y21.0496
G01 X42.6782 Y21.0557
G01 X42.6487 Y21.0591
G01 X42.6341 Y21.0596
G01 X42.5928 Y21.0632
G01 X42.5767 Y21.0610
G01 X42.5472 Y21.0591
G01 X41.7070 Y21.0591
G01 X41.6942 Y21.0598
G01 X41.6592 Y21.0639
G01 X41.6478 Y21.0665
G01 X41.6340 Y21.0714
G01 X41.6234 Y21.0765
G01 X41.5596 Y21.1114
G01 X41.5501 Y21.1176
G01 X41.5390 Y21.1265
G01 X40.7819 Y21.8834
G01 X40.7733 Y21.8929
G01 X40.7531 Y21.9182
G01 X40.7452 Y21.9306
G01 X40.7401 Y21.9411
G01 X40.7351 Y21.9549
G01 X40.7146 Y22.0246
G01 X40.7118 Y22.0386
G01 X40.7106 Y22.0527
G01 X40.7106 Y22.9489
G01 X40.7127 Y23.0231
G01 X40.7122 Y23.0279
G01 X40.6959 Y23.0966
G01 X40.6806 Y23.1701
G01 X40.6792 Y23.1738
G01 X40.6460 Y23.2401
G01 X40.6162 Y23.3041
G01 X40.6135 Y23.3082
G01 X40.5681 Y23.3624
G01 X40.5497 Y23.3856
G01 X40.5397 Y23.3963
G01 X40.5130 Y23.4280
G01 X40.5001 Y23.4378
G01 X40.4779 Y23.4574
G01 X36.7212 Y27.2141
G01 X36.6696 Y27.2686
G01 X36.6665 Y27.2711
G01 X36.6035 Y27.3100
G01 X36.5436 Y27.3493
G01 X36.5400 Y27.3510
G01 X36.4697 Y27.3743
G01 X36.4033 Y27.3985
G01 X36.3985 Y27.3996
G01 X36.3282 Y27.4057
G01 X36.2987 Y27.4091
G01 X36.2841 Y27.4096
G01 X36.2428 Y27.4132
G01 X36.2267 Y27.4110
G01 X36.1972 Y27.4091
G01 X35.6901 Y27.4091
G01 X35.6789 Y27.4099
G01 X35.6498 Y27.4134
G01 X35.6409 Y27.4148
G01 X35.6292 Y27.4177
G01 X35.6151 Y27.4230
G01 X35.6043 Y27.4285
G01 X35.5438 Y27.4633
G01 X35.5342 Y27.4695
G01 X35.5274 Y27.4746
G01 X35.5170 Y27.4843
G01 X35.3765 Y27.6313
G01 X35.2106 Y27.7518
G01 X35.0602 Y27.8245
G01 X35.0479 Y27.8317
G01 X35.0410 Y27.8367
G01 X35.0345 Y27.8422
G01 X34.9768 Y27.8997
G01 X34.9675 Y27.9113
G01 X34.9597 Y27.9239
G01 X34.9536 Y27.9374
G01 X34.9492 Y27.9515
G01 X34.9335 Y28.0227
G01 X34.9319 Y28.0314
G01 X34.9307 Y28.0462
G01 X34.9314 Y28.0610
G01 X34.9339 Y28.0756
G01 X34.9382 Y28.0898
G01 X34.9624 Y28.1553
G01 X34.9684 Y28.1688
G01 X34.9744 Y28.1791
G01 X34.9814 Y28.1887
G01 X34.9893 Y28.1975
G01 X34.9957 Y28.2036
G01 X35.0027 Y28.2092
G01 X35.0585 Y28.2512
G01 X35.0686 Y28.2580
G01 X35.0765 Y28.2624
G01 X35.0848 Y28.2662
G01 X35.1202 Y28.2796
G01 X35.2963 Y28.3847
G01 X35.4507 Y28.5196
G01 X35.4982 Y28.5793
G01 X35.5037 Y28.5856
G01 X35.5116 Y28.5934
G01 X35.5415 Y28.6204
G01 X35.5531 Y28.6297
G01 X35.5658 Y28.6374
G01 X35.5739 Y28.6413
G01 X35.5822 Y28.6446
G01 X35.6549 Y28.6661
G01 X35.6631 Y28.6682
G01 X35.6715 Y28.6697
G01 X35.6800 Y28.6706
G01 X35.6885 Y28.6709
G01 X39.7059 Y28.6709
G01 X39.7187 Y28.6702
G01 X39.7509 Y28.6666
G01 X39.7651 Y28.6635
G01 X39.7790 Y28.6586
G01 X39.7895 Y28.6535
G01 X39.8557 Y28.6171
G01 X39.8674 Y28.6090
G01 X39.8780 Y28.5996
G01 X45.0761 Y23.4016
G01 X45.0846 Y23.3921
G01 X45.1048 Y23.3668
G01 X45.1112 Y23.3570
G01 X45.1167 Y23.3466
G01 X45.1201 Y23.3385
G01 X45.1228 Y23.3301
G01 X45.1433 Y23.2604
G01 X45.1461 Y23.2464
G01 X45.1471 Y23.2380
G01 X45.1474 Y23.2295
G01 X45.1472 Y3.1910
G01 X45.1457 Y3.1767
G01 X45.1375 Y3.1299
G01 X45.1345 Y3.1189
G01 X45.1294 Y3.1056
G01 X45.1255 Y3.0979
G01 X45.1195 Y3.0882
G01 X45.0770 Y3.0292
G01 X45.0681 Y3.0181
G01 X45.0621 Y3.0121
G01 X45.0535 Y3.0047
G01 X44.9444 Y2.9198
G01 X44.8053 Y2.7687
G01 X44.7151 Y2.6307
G01 X44.7100 Y2.6238
G01 X44.6892 Y2.5990
G01 X44.6788 Y2.5881
G01 X44.6671 Y2.5786
G01 X44.6570 Y2.5721
G01 X44.5866 Y2.5364
G01 X44.5784 Y2.5329
G01 X44.5672 Y2.5291
G01 X44.5585 Y2.5271
G01 X44.5468 Y2.5254
G01 X44.5379 Y2.5249
G01 X44.5261 Y2.5252
G01 X44.4536 Y2.5327
G01 X44.4390 Y2.5351
G01 X44.4248 Y2.5393
G01 X44.4112 Y2.5453
G01 X44.4035 Y2.5496
G01 X44.3961 Y2.5546
G01 X44.3368 Y2.6018
G01 X44.3262 Y2.6113
G01 X44.3205 Y2.6176
G01 X44.3152 Y2.6243
G01 X44.1928 Y2.7990
G01 X44.0405 Y2.9513
G01 X43.8659 Y3.0736
G01 X43.8659 Y2.7505
G01 X43.9319 Y2.6905
G01 X43.9920 Y2.6244
G01 X43.9994 Y2.6154
G01 X44.0525 Y2.5436
G01 X44.0985 Y2.4671
G01 X44.1040 Y2.4567
G01 X44.1397 Y2.3813
G01 X44.1442 Y2.3705
G01 X44.1741 Y2.2864
G01 X44.1972 Y2.1941
G01 X44.2112 Y2.1000
G01 X44.2159 Y2.0050
G01 X44.2112 Y1.9100
G01 X44.1972 Y1.8159
G01 X44.1741 Y1.7236
G01 X44.1442 Y1.6395
G01 X44.1397 Y1.6287
G01 X44.1040 Y1.5533
G01 X44.0985 Y1.5429
G01 X44.0525 Y1.4664
G01 X43.9994 Y1.3946
G01 X43.9920 Y1.3856
G01 X43.9319 Y1.3195
G01 X43.8659 Y1.2595
G01 X43.8659 Y0.9364
G01 X44.0405 Y1.0587
G01 X44.1928 Y1.2110
G01 X44.3152 Y1.3857
G01 X44.3205 Y1.3924
G01 X44.3420 Y1.4166
G01 X44.3528 Y1.4271
G01 X44.3648 Y1.4363
G01 X44.3752 Y1.4425
G01 X44.4494 Y1.4770
G01 X44.4605 Y1.4809
G01 X44.4750 Y1.4843
G01 X44.4868 Y1.4856
G01 X44.5016 Y1.4856
G01 X44.5104 Y1.4847
G01 X44.5797 Y1.4753
G01 X44.5942 Y1.4724
G01 X44.6055 Y1.4688
G01 X44.6164 Y1.4641
G01 X44.6267 Y1.4583
G01 X44.6365 Y1.4516
G01 X44.6964 Y1.4006
G01 X44.7025 Y1.3947
G01 X44.7082 Y1.3884
G01 X44.7167 Y1.3770
G01 X44.8053 Y1.2413
G01 X44.9444 Y1.0902
G01 X45.1064 Y0.9641
G01 X45.2870 Y0.8664
G01 X45.4812 Y0.7997
G01 X45.6838 Y0.7659
G01 X45.8891 Y0.7659
G01 X46.0917 Y0.7997
G01 X46.2859 Y0.8664
G01 X46.4665 Y0.9641
G01 X46.6286 Y1.0902
G01 X46.7676 Y1.2413
G01 X46.8557 Y1.3760
G01 X46.8624 Y1.3844
G01 X46.8843 Y1.4097
G01 X46.8947 Y1.4202
G01 X46.9062 Y1.4294
G01 X46.9188 Y1.4371
G01 X46.9929 Y1.4716
G01 X47.0041 Y1.4755
G01 X47.0156 Y1.4783
G01 X47.0274 Y1.4799
G01 X47.0422 Y1.4803
G01 X47.0540 Y1.4793
G01 X47.1232 Y1.4699
G01 X47.1349 Y1.4677
G01 X47.1491 Y1.4634
G01 X47.1599 Y1.4587
G01 X47.1703 Y1.4529
G01 X47.1800 Y1.4461
G01 X47.2399 Y1.3952
G01 X47.2461 Y1.3893
G01 X47.2518 Y1.3829
G01 X47.2602 Y1.3715
G01 X47.3453 Y1.2413
G01 X47.4844 Y1.0902
G01 X47.6464 Y0.9641
G01 X47.8270 Y0.8664
G01 X48.0212 Y0.7997
G01 X48.2238 Y0.7659
G01 X48.4291 Y0.7659
G01 X48.6317 Y0.7997
G01 X48.8259 Y0.8664
G01 X49.0065 Y0.9641
G01 X49.1686 Y1.0902
G01 X49.3076 Y1.2413
G01 X49.3957 Y1.3760
G01 X49.4024 Y1.3844
G01 X49.4243 Y1.4097
G01 X49.4347 Y1.4202
G01 X49.4462 Y1.4294
G01 X49.4588 Y1.4371
G01 X49.5329 Y1.4716
G01 X49.5441 Y1.4755
G01 X49.5556 Y1.4783
G01 X49.5674 Y1.4799
G01 X49.5822 Y1.4803
G01 X49.5940 Y1.4793
G01 X49.6632 Y1.4699
G01 X49.6749 Y1.4677
G01 X49.6863 Y1.4644
G01 X49.6999 Y1.4587
G01 X49.7103 Y1.4529
G01 X49.7200 Y1.4461
G01 X49.7799 Y1.3952
G01 X49.7861 Y1.3893
G01 X49.7918 Y1.3829
G01 X49.8002 Y1.3715
G01 X49.8853 Y1.2413
G01 X50.0244 Y1.0902
G01 X50.1864 Y0.9641
G01 X50.3670 Y0.8664
G01 X50.5612 Y0.7997
G01 X50.7638 Y0.7659
G01 X50.9691 Y0.7659
G01 X51.1717 Y0.7997
G01 X51.3659 Y0.8664
G01 X51.5465 Y0.9641
G01 X51.7086 Y1.0902
G01 X51.8476 Y1.2413
G01 X51.9357 Y1.3760
G01 X51.9424 Y1.3844
G01 X51.9643 Y1.4097
G01 X51.9747 Y1.4202
G01 X51.9862 Y1.4294
G01 X51.9988 Y1.4371
G01 X52.0729 Y1.4716
G01 X52.0841 Y1.4755
G01 X52.0956 Y1.4783
G01 X52.1074 Y1.4799
G01 X52.1192 Y1.4804
G01 X52.1340 Y1.4793
G01 X52.2032 Y1.4699
G01 X52.2149 Y1.4677
G01 X52.2291 Y1.4634
G01 X52.2399 Y1.4587
G01 X52.2503 Y1.4529
G01 X52.2600 Y1.4461
G01 X52.3199 Y1.3952
G01 X52.3261 Y1.3893
G01 X52.3318 Y1.3829
G01 X52.3402 Y1.3715
G01 X52.4253 Y1.2413
G01 X52.5644 Y1.0902
G01 X52.7264 Y0.9641
G01 X52.9070 Y0.8664
G01 X53.1012 Y0.7997
G01 X53.3038 Y0.7659
G01 X53.5091 Y0.7659
G01 X53.7117 Y0.7997
G01 X53.9059 Y0.8664
