; generated by PrusaSlicer 2.6.0+win64 on 2023-06-22 at 21:24:30 UTC

; 

; external perimeters extrusion width = 0.42mm
; perimeters extrusion width = 0.44mm
; infill extrusion width = 0.44mm
; solid infill extrusion width = 0.44mm
; top infill extrusion width = 0.40mm
; support material extrusion width = 0.36mm
; first layer extrusion width = 0.42mm

; external perimeters extrusion width = 0.42mm
; perimeters extrusion width = 0.44mm
; infill extrusion width = 0.44mm
; solid infill extrusion width = 0.44mm
; top infill extrusion width = 0.40mm
; support material extrusion width = 0.36mm
; first layer extrusion width = 0.42mm

; external perimeters extrusion width = 0.42mm
; perimeters extrusion width = 0.44mm
; infill extrusion width = 0.44mm
; solid infill extrusion width = 0.44mm
; top infill extrusion width = 0.40mm
; support material extrusion width = 0.36mm
; first layer extrusion width = 0.42mm

M201 X500 Y500 Z100 E5000 ; sets maximum accelerations, mm/sec^2
M203 X500 Y500 Z10 E60 ; sets maximum feedrates, mm / sec
M204 S500 T1000 ; sets acceleration (S) and retract acceleration (R), mm/sec^2
M205 X8.00 Y8.00 Z0.40 E5.00 ; sets the jerk limits, mm/sec
M205 S0 T0 ; sets the minimum extruding and travel feed rate, mm/sec
;TYPE:Custom
G90 ; use absolute coordinates
M83 ; extruder relative mode
M104 S150 ; set temporary nozzle temp to prevent oozing during homing
M140 S100 ; set final bed temp
G4 S30 ; allow partial nozzle warmup
G28 ; home all axis
G29 ; auto-bed-level
G1 Z50 F240
G1 X2.0 Y10 F3000
M104 S240 ; set final nozzle temp
M190 S100 ; wait for bed temp to stabilize
M109 S240 ; wait for nozzle temp to stabilize
G1 Z0.28 F240
G92 E0
G1 X2.0 Y140 E10 F1500 ; prime the nozzle
G1 X2.3 Y140 F5000
G92 E0
G1 X2.3 Y10 E10 F1200 ; prime the nozzle
G92 E0
G21 ; set units to millimeters
G90 ; use absolute coordinates
M83 ; use relative distances for extrusion
; Filament gcode
M107
;LAYER_CHANGE
;Z:0.35
;HEIGHT:0.35
;BEFORE_LAYER_CHANGE
G92 E0
;0.35


G1 E-5 F3600
G1 Z.35 F10200
;AFTER_LAYER_CHANGE
;0.35
G1 X62.626 Y59.6
G1 E5 F2400
M204 S500
;TYPE:Skirt/Brim
;WIDTH:0.42
G1 F1200
G1 X64.436 Y57.777 E.12892
G1 X67.099 Y55.916 E.16305
G1 X69.026 Y54.983 E.10745
G1 X70.926 Y54.334 E.10076
G1 X74.023 Y53.831 E.15746
G1 X117.911 Y53.812 E2.20256
G1 X120.013 Y54.06 E.10622
G1 X122.073 Y54.581 E.10664
G1 X125.063 Y55.899 E.16399
G1 X127.026 Y57.192 E.11797
G1 X128.799 Y58.76 E.11878
G1 X130.544 Y60.892 E.13827
G1 X137.317 Y72.413 E.6707
G1 X138.024 Y73.831 E.07952
G1 X138.604 Y75.303 E.0794
G1 X139.001 Y76.594 E.06778
G1 X139.23 Y77.606 E.05207
G1 X156.368 Y77.606 E.86009
G1 X158.768 Y76.595 E.1307
G1 X161.587 Y76.127 E.14341
G1 X167.141 Y76.179 E.27874
G1 X170.218 Y76.863 E.15819
G1 X173.175 Y78.218 E.16324
G1 X173.665 Y78.613 E.03159
G1 X178.337 Y83.578 E.34214
G1 X179.404 Y86.109 E.13785
G1 X180.019 Y88.793 E.13819
G1 X180.127 Y91.747 E.14835
G1 X180.23 Y93.167 E.07145
G1 X180.23 Y95.16 E.10002
G1 X180.136 Y96.456 E.06521
G1 X180.11 Y98.852 E.12025
G1 X179.221 Y102.731 E.19972
G1 X177.307 Y106.239 E.20055
G1 X174.618 Y109.053 E.19533
G1 X173.858 Y109.524 E.04487
G1 X173.858 Y133.445 E1.2005
G1 X173.202 Y136.852 E.17412
G1 X171.81 Y140.035 E.17435
G1 X166.672 Y145.126 E.363
G1 X163.549 Y146.458 E.17039
G1 X160.207 Y147.095 E.17074
G1 X126.358 Y147.095 E1.69874
G1 X125.48 Y146.955 E.04462
G1 X124.568 Y147.057 E.04605
G1 X67.446 Y147.057 E2.86672
G1 X63.369 Y146.321 E.20792
G1 X59.578 Y144.509 E.21087
G1 X56.736 Y142.119 E.18636
G1 X54.597 Y139.22 E.18081
G1 X53.185 Y135.921 E.18009
G1 X52.572 Y132.441 E.17734
G1 X52.538 Y81.054 E2.5789
G1 X52.613 Y79.725 E.0668
G1 X52.872 Y77.942 E.09042
G1 X53.282 Y76.245 E.08762
G1 X53.641 Y75.134 E.0586
G1 X54.089 Y73.996 E.06138
G1 X54.744 Y72.647 E.07526
G1 X61.309 Y61.391 E.65395
G1 X62.59 Y59.649 E.10852
G1 X62.867 Y59.852 F10200
G1 F1200
G1 X64.669 Y58.031 E.12857
G1 X67.285 Y56.207 E.16005
G1 X69.166 Y55.298 E.10484
G1 X71.024 Y54.665 E.09851
G1 X74.064 Y54.174 E.15454
G1 X117.881 Y54.155 E2.199
G1 X119.962 Y54.401 E.10516
G1 X121.974 Y54.912 E.10418
G1 X124.91 Y56.209 E.16108
G1 X126.826 Y57.473 E.1152
G1 X128.542 Y58.99 E.11495
G1 X130.253 Y61.078 E.13548
G1 X137.016 Y72.583 E.66976
G1 X137.712 Y73.978 E.07824
G1 X138.28 Y75.423 E.07792
G1 X138.669 Y76.689 E.06647
G1 X138.955 Y77.951 E.06494
G1 X156.438 Y77.951 E.8774
G1 X158.844 Y76.932 E.13113
G1 X161.629 Y76.469 E.14169
G1 X167.084 Y76.52 E.27378
G1 X170.092 Y77.185 E.1546
G1 X172.976 Y78.5 E.15907
G1 X173.422 Y78.858 E.0287
G1 X178.031 Y83.741 E.33698
G1 X179.081 Y86.229 E.13553
G1 X179.675 Y88.822 E.1335
G1 X179.782 Y91.766 E.14784
G1 X179.885 Y93.173 E.0708
G1 X179.885 Y95.154 E.09942
G1 X179.792 Y96.442 E.06481
G1 X179.766 Y98.829 E.1198
G1 X178.89 Y102.63 E.19576
G1 X177.016 Y106.053 E.19585
G1 X174.385 Y108.798 E.19082
G1 X173.513 Y109.329 E.05124
G1 X173.513 Y133.428 E1.20943
G1 X172.867 Y136.768 E.17073
G1 X171.507 Y139.867 E.16984
G1 X166.506 Y144.821 E.35328
G1 X163.431 Y146.133 E.16778
G1 X160.191 Y146.75 E.16552
G1 X126.372 Y146.75 E1.69724
G1 X125.488 Y146.607 E.04494
G1 X124.558 Y146.712 E.04697
G1 X67.462 Y146.712 E2.86541
G1 X63.453 Y145.986 E.20447
G1 X59.747 Y144.208 E.20629
G1 X56.974 Y141.869 E.18206
G1 X54.887 Y139.032 E.17675
G1 X53.51 Y135.804 E.17612
G1 X52.914 Y132.396 E.17363
G1 X52.883 Y81.059 E2.57639
G1 X52.956 Y79.767 E.06494
G1 X53.209 Y78.014 E.08889
G1 X53.612 Y76.345 E.08617
G1 X53.964 Y75.256 E.05744
G1 X54.403 Y74.14 E.06018
G1 X55.045 Y72.815 E.07389
G1 X61.602 Y61.573 E.65314
G1 X62.831 Y59.9 E.10418
G1 X63.108 Y60.103 F10200
G1 F1200
G1 X64.903 Y58.286 E.12818
G1 X67.47 Y56.498 E.157
G1 X69.306 Y55.614 E.10227
G1 X71.121 Y54.997 E.09621
G1 X74.105 Y54.516 E.15169
G1 X117.851 Y54.499 E2.19543
G1 X119.888 Y54.739 E.10294
G1 X121.875 Y55.242 E.10286
G1 X124.757 Y56.518 E.15818
G1 X126.607 Y57.74 E.11127
G1 X128.284 Y59.219 E.11222
G1 X129.963 Y61.265 E.13283
G1 X136.716 Y72.753 E.66877
G1 X137.4 Y74.125 E.07694
G1 X137.957 Y75.542 E.07641
G1 X138.337 Y76.784 E.06518
G1 X138.679 Y78.296 E.0778
G1 X156.509 Y78.296 E.89481
G1 X158.921 Y77.268 E.13158
G1 X161.671 Y76.812 E.1399
G1 X167.027 Y76.861 E.26881
G1 X169.966 Y77.506 E.15101
G1 X172.778 Y78.784 E.15501
G1 X173.18 Y79.105 E.02582
G1 X177.725 Y83.904 E.33171
G1 X178.748 Y86.321 E.13172
G1 X179.331 Y88.851 E.1303
G1 X179.438 Y91.785 E.14734
G1 X179.54 Y93.179 E.07015
G1 X179.54 Y95.147 E.09877
G1 X179.447 Y96.428 E.06446
G1 X179.421 Y98.807 E.1194
G1 X178.559 Y102.529 E.19174
G1 X176.724 Y105.867 E.19116
G1 X174.153 Y108.542 E.1862
G1 X173.168 Y109.133 E.05765
G1 X173.168 Y133.412 E1.21846
G1 X172.544 Y136.647 E.16534
G1 X171.204 Y139.698 E.16723
G1 X166.34 Y144.517 E.34362
G1 X163.347 Y145.798 E.16339
G1 X160.174 Y146.405 E.16213
G1 X126.386 Y146.405 E1.69568
G1 X125.497 Y146.259 E.04521
G1 X124.548 Y146.367 E.04793
G1 X67.477 Y146.367 E2.86416
G1 X63.538 Y145.651 E.20092
G1 X59.916 Y143.907 E.20175
G1 X57.212 Y141.619 E.17776
G1 X55.177 Y138.844 E.1727
G1 X53.835 Y135.688 E.17211
G1 X53.256 Y132.352 E.16992
G1 X53.228 Y81.064 E2.57394
G1 X53.298 Y79.809 E.06308
G1 X53.547 Y78.087 E.08732
G1 X53.942 Y76.445 E.08476
G1 X54.287 Y75.377 E.05633
G1 X54.716 Y74.284 E.05893
G1 X55.346 Y72.983 E.07254
G1 X61.895 Y61.754 E.65238
G1 X63.072 Y60.151 E.0998
G1 X63.349 Y60.354 F10200
G1 F1200
G1 X65.137 Y58.54 E.12783
G1 X67.656 Y56.789 E.15396
G1 X69.446 Y55.929 E.09966
G1 X71.218 Y55.328 E.09391
G1 X74.146 Y54.859 E.14882
G1 X117.821 Y54.843 E2.19187
G1 X119.814 Y55.076 E.1007
G1 X121.777 Y55.573 E.10162
G1 X124.604 Y56.828 E.15523
G1 X126.407 Y58.021 E.1085
G1 X128.026 Y59.449 E.10834
G1 X129.672 Y61.451 E.13007
G1 X136.416 Y72.922 E.6678
G1 X137.088 Y74.272 E.07568
G1 X137.633 Y75.662 E.07493
G1 X138.003 Y76.869 E.06336
G1 X138.283 Y78.065 E.06165
G1 X138.377 Y78.641 E.02929
G1 X156.58 Y78.641 E.91353
G1 X158.998 Y77.605 E.13202
G1 X161.712 Y77.155 E.13806
G1 X166.971 Y77.201 E.26394
G1 X169.84 Y77.828 E.14738
G1 X172.581 Y79.067 E.15096
G1 X172.939 Y79.351 E.02293
G1 X177.42 Y84.067 E.32648
G1 X178.415 Y86.414 E.12793
G1 X178.987 Y88.88 E.12704
G1 X179.094 Y91.804 E.14684
G1 X179.195 Y93.186 E.06954
G1 X179.195 Y95.141 E.09811
G1 X179.102 Y96.413 E.06401
G1 X179.076 Y98.784 E.119
G1 X178.246 Y102.384 E.18541
G1 X176.433 Y105.681 E.18883
G1 X173.921 Y108.286 E.18162
G1 X172.823 Y108.936 E.06404
G1 X172.823 Y133.395 E1.2275
G1 X172.209 Y136.562 E.1619
G1 X170.902 Y139.529 E.16271
G1 X166.174 Y144.213 E.33401
G1 X163.264 Y145.463 E.15894
G1 X160.158 Y146.06 E.15873
G1 X126.401 Y146.06 E1.69413
G1 X125.506 Y145.911 E.04553
G1 X124.539 Y146.022 E.04885
G1 X67.493 Y146.022 E2.86291
G1 X63.623 Y145.316 E.19742
G1 X60.086 Y143.606 E.19716
G1 X57.451 Y141.369 E.17347
G1 X55.467 Y138.657 E.16864
G1 X54.161 Y135.572 E.16813
G1 X53.599 Y132.308 E.16622
G1 X53.573 Y81.068 E2.57153
G1 X53.641 Y79.851 E.06117
G1 X53.884 Y78.16 E.08574
G1 X54.272 Y76.544 E.08341
G1 X54.61 Y75.498 E.05517
G1 X55.029 Y74.428 E.05767
G1 X55.647 Y73.151 E.0712
G1 X62.189 Y61.936 E.65159
G1 X63.313 Y60.403 E.0954
G1 X63.59 Y60.605 F10200
G1 F1200
G1 X65.37 Y58.794 E.12744
G1 X67.841 Y57.08 E.15092
G1 X69.586 Y56.245 E.09708
G1 X71.314 Y55.659 E.09157
G1 X74.187 Y55.202 E.146
G1 X117.791 Y55.186 E2.18831
G1 X119.763 Y55.417 E.09964
G1 X121.677 Y55.904 E.09912
G1 X124.451 Y57.137 E.15235
G1 X126.188 Y58.287 E.10455
G1 X127.769 Y59.679 E.10572
G1 X129.382 Y61.638 E.12735
G1 X136.11 Y73.082 E.66623
G1 X136.77 Y74.406 E.07424
G1 X137.306 Y75.77 E.07355
G1 X137.669 Y76.953 E.0621
G1 X137.946 Y78.137 E.06102
G1 X138.083 Y78.985 E.04311
G1 X156.651 Y78.985 E.93185
G1 X159.076 Y77.942 E.13248
G1 X161.754 Y77.498 E.13623
G1 X166.916 Y77.542 E.25907
G1 X169.716 Y78.15 E.1438
G1 X172.384 Y79.352 E.14686
G1 X172.698 Y79.599 E.02005
G1 X177.115 Y84.231 E.32121
G1 X178.083 Y86.507 E.12412
G1 X178.643 Y88.909 E.12378
G1 X178.749 Y91.823 E.14634
G1 X178.85 Y93.192 E.06889
G1 X178.85 Y95.135 E.09751
G1 X178.757 Y96.399 E.06361
G1 X178.732 Y98.762 E.1186
G1 X177.915 Y102.283 E.1814
G1 X176.143 Y105.494 E.18406
G1 X173.69 Y108.028 E.177
G1 X172.478 Y108.738 E.07049
G1 X172.479 Y133.378 E1.23658
G1 X171.874 Y136.477 E.15846
G1 X170.599 Y139.36 E.1582
G1 X166.008 Y143.909 E.32435
G1 X163.18 Y145.128 E.15455
G1 X160.141 Y145.715 E.15533
G1 X126.415 Y145.715 E1.69257
G1 X125.515 Y145.563 E.04581
G1 X124.528 Y145.678 E.04987
G1 X67.508 Y145.678 E2.8616
G1 X63.708 Y144.981 E.19389
G1 X60.257 Y143.305 E.19254
G1 X57.69 Y141.12 E.16918
G1 X55.757 Y138.47 E.16461
G1 X54.486 Y135.456 E.16416
G1 X53.941 Y132.264 E.16251
G1 X53.918 Y81.073 E2.56907
G1 X53.983 Y79.892 E.05936
G1 X54.221 Y78.233 E.08411
G1 X54.602 Y76.644 E.08201
G1 X54.934 Y75.618 E.05412
G1 X55.343 Y74.572 E.05636
G1 X55.949 Y73.319 E.06985
G1 X62.482 Y62.118 E.65076
G1 X63.555 Y60.654 E.09109
G1 X63.831 Y60.856 F10200
G1 F1200
G1 X63.895 Y60.769 E.00542
G1 X65.604 Y59.048 E.12172
G1 X68.026 Y57.372 E.14781
G1 X69.725 Y56.56 E.0945
G1 X71.411 Y55.991 E.0893
G1 X74.228 Y55.544 E.14314
G1 X117.761 Y55.53 E2.18474
G1 X119.689 Y55.754 E.09741
G1 X121.578 Y56.234 E.09781
G1 X124.297 Y57.446 E.1494
G1 X125.987 Y58.568 E.1018
G1 X127.512 Y59.909 E.10191
G1 X129.091 Y61.824 E.12456
G1 X135.804 Y73.241 E.66468
G1 X136.452 Y74.539 E.07281
G1 X136.978 Y75.877 E.07215
G1 X137.334 Y77.037 E.0609
G1 X137.609 Y78.21 E.06046
G1 X137.789 Y79.33 E.05693
G1 X156.723 Y79.33 E.95022
G1 X159.153 Y78.279 E.13287
G1 X161.796 Y77.84 E.13446
G1 X166.86 Y77.883 E.25415
G1 X169.591 Y78.472 E.14021
G1 X172.189 Y79.637 E.14289
G1 X172.458 Y79.846 E.0171
G1 X176.81 Y84.395 E.31595
G1 X177.751 Y86.6 E.12032
G1 X178.299 Y88.939 E.12056
G1 X178.405 Y91.842 E.14579
G1 X178.505 Y93.198 E.06824
G1 X178.505 Y95.128 E.09686
G1 X178.413 Y96.384 E.0632
G1 X178.387 Y98.739 E.1182
G1 X177.585 Y102.181 E.17737
G1 X175.852 Y105.307 E.17938
G1 X173.46 Y107.771 E.17234
G1 X172.133 Y108.538 E.07692
G1 X172.134 Y133.362 E1.24582
G1 X171.539 Y136.391 E.15492
G1 X170.297 Y139.191 E.15372
G1 X165.842 Y143.605 E.31474
G1 X163.061 Y144.804 E.15199
G1 X160.125 Y145.37 E.15006
G1 X126.43 Y145.37 E1.69101
G1 X125.524 Y145.214 E.04614
G1 X124.518 Y145.333 E.05084
G1 X67.524 Y145.333 E2.8603
G1 X63.838 Y144.66 E.18804
G1 X60.427 Y143.005 E.19027
G1 X57.93 Y140.871 E.16484
G1 X56.048 Y138.283 E.16059
G1 X54.812 Y135.341 E.16015
G1 X54.284 Y132.221 E.15881
G1 X54.262 Y81.078 E2.56666
G1 X54.326 Y79.933 E.05755
G1 X54.558 Y78.305 E.08253
G1 X54.933 Y76.743 E.08062
G1 X55.257 Y75.739 E.05295
G1 X55.656 Y74.716 E.05511
G1 X56.25 Y73.487 E.0685
G1 X62.776 Y62.299 E.65002
G1 X63.796 Y60.905 E.08669
G1 X64.073 Y61.107 F10200
G1 F1200
G1 X64.149 Y61.003 E.00646
G1 X65.837 Y59.303 E.12023
G1 X68.21 Y57.663 E.14476
G1 X69.864 Y56.876 E.09192
G1 X71.507 Y56.322 E.08702
G1 X74.268 Y55.887 E.14027
G1 X117.731 Y55.874 E2.18123
G1 X119.638 Y56.095 E.09635
G1 X121.478 Y56.565 E.09531
G1 X124.143 Y57.755 E.14647
G1 X125.768 Y58.835 E.09792
G1 X127.255 Y60.14 E.09929
G1 X128.801 Y62.011 E.12181
G1 X135.498 Y73.4 E.66306
G1 X136.134 Y74.672 E.07137
G1 X136.65 Y75.985 E.0708
G1 X137 Y77.122 E.0597
G1 X137.272 Y78.283 E.05984
G1 X137.494 Y79.675 E.07074
G1 X156.795 Y79.675 E.96864
G1 X159.231 Y78.615 E.13333
G1 X161.838 Y78.183 E.13262
G1 X166.805 Y78.224 E.24928
G1 X169.467 Y78.794 E.13662
G1 X171.995 Y79.922 E.13893
G1 X172.219 Y80.095 E.0142
G1 X176.505 Y84.56 E.31061
G1 X177.428 Y86.722 E.11798
G1 X177.955 Y88.968 E.11578
G1 X178.06 Y91.861 E.14528
G1 X178.16 Y93.205 E.06764
G1 X178.16 Y95.122 E.09621
G1 X178.068 Y96.37 E.0628
G1 X178.042 Y98.716 E.11774
G1 X177.254 Y102.079 E.17335
G1 X175.562 Y105.119 E.1746
G1 X173.23 Y107.512 E.16769
G1 X171.789 Y108.338 E.08336
G1 X171.789 Y133.345 E1.255
G1 X171.216 Y136.269 E.14953
G1 X169.995 Y139.022 E.15114
G1 X165.675 Y143.301 E.30515
G1 X162.976 Y144.469 E.14759
G1 X160.108 Y145.025 E.14661
G1 X126.445 Y145.025 E1.68941
G1 X125.534 Y144.866 E.04641
G1 X124.508 Y144.988 E.05185
G1 X67.54 Y144.988 E2.85899
G1 X63.923 Y144.325 E.18455
G1 X60.599 Y142.704 E.1856
G1 X58.17 Y140.623 E.16052
G1 X56.339 Y138.097 E.15657
G1 X55.138 Y135.226 E.15618
G1 X54.626 Y132.178 E.15511
G1 X54.607 Y81.092 E2.5638
G1 X54.668 Y79.974 E.05619
G1 X54.896 Y78.378 E.08091
G1 X55.263 Y76.843 E.07921
G1 X55.58 Y75.859 E.05188
G1 X55.97 Y74.86 E.05382
G1 X56.551 Y73.654 E.06718
G1 X63.069 Y62.48 E.64921
G1 X64.038 Y61.156 E.08234
G1 X64.315 Y61.358 F10200
G1 F1200
G1 X64.403 Y61.237 E.00751
G1 X66.071 Y59.557 E.11881
G1 X68.394 Y57.955 E.14162
G1 X70.002 Y57.192 E.08932
G1 X71.603 Y56.654 E.08476
G1 X74.308 Y56.23 E.13741
G1 X117.701 Y56.218 E2.17772
G1 X119.564 Y56.432 E.09411
G1 X121.379 Y56.895 E.094
G1 X123.989 Y58.064 E.14352
G1 X125.568 Y59.116 E.09522
G1 X126.998 Y60.37 E.09545
G1 X128.511 Y62.198 E.11909
G1 X135.192 Y73.56 E.66149
G1 X135.816 Y74.806 E.06993
G1 X136.322 Y76.093 E.0694
G1 X136.668 Y77.218 E.05907
G1 X136.935 Y78.355 E.05861
G1 X137.128 Y79.568 E.06164
G1 X137.163 Y80.02 E.02275
G1 X156.866 Y80.02 E.98881
G1 X159.348 Y78.94 E.13584
G1 X161.879 Y78.526 E.12871
G1 X166.751 Y78.565 E.24451
G1 X169.344 Y79.117 E.13305
G1 X171.803 Y80.209 E.13503
G1 X171.98 Y80.344 E.01117
G1 X176.201 Y84.724 E.30527
G1 X177.095 Y86.816 E.11417
G1 X177.611 Y88.997 E.11248
G1 X177.716 Y91.88 E.14478
G1 X177.815 Y93.211 E.06698
G1 X177.815 Y95.116 E.0956
G1 X177.723 Y96.355 E.06235
G1 X177.698 Y98.693 E.11734
G1 X176.924 Y101.976 E.16928
G1 X175.272 Y104.93 E.16986
G1 X173.001 Y107.254 E.16307
G1 X171.444 Y108.136 E.08981
G1 X171.444 Y133.328 E1.26428
G1 X170.882 Y136.183 E.14603
G1 X169.693 Y138.852 E.14664
G1 X165.509 Y142.998 E.29561
G1 X162.892 Y144.134 E.14318
G1 X160.091 Y144.681 E.14323
G1 X126.461 Y144.681 E1.68775
G1 X125.544 Y144.517 E.04675
G1 X124.498 Y144.643 E.05287
G1 X67.555 Y144.643 E2.85774
G1 X64.009 Y143.99 E.18095
G1 X60.77 Y142.405 E.18097
G1 X58.41 Y140.375 E.15623
G1 X56.63 Y137.912 E.15251
G1 X55.464 Y135.112 E.15222
G1 X54.969 Y132.135 E.15145
G1 X54.952 Y81.106 E2.56094
G1 X55.011 Y80.015 E.05483
G1 X55.233 Y78.45 E.07933
G1 X55.593 Y76.942 E.07781
