; generated by Slic3r 1.3.0 on 2023-06-17 at 21:20:20

; external perimeters extrusion width = 0.44mm (2.38mm^3/s)
; perimeters extrusion width = 0.56mm (6.20mm^3/s)
; infill extrusion width = 0.50mm (8.23mm^3/s)
; solid infill extrusion width = 0.56mm (2.07mm^3/s)
; top infill extrusion width = 0.56mm (1.55mm^3/s)

M190 S100 ; set bed temperature and wait for it to be reached
M104 S240 ; set temperature
G28 ; home all axes
G29 ; auto-bed-level
G1 Z5 F5000 ; lift nozzle

; Filament gcode

M109 S240 ; set temperature and wait for it to be reached
G21 ; set units to millimeters
G90 ; use absolute coordinates
M82 ; use absolute distances for extrusion
G92 E0
G1 Z0.350 F10200.000
G1 E-2.00000 F2400.00000
G92 E0
G1 X80.936 Y70.747 F10200.000
G1 E2.00000 F2400.00000
G1 F1800
G1 X71.855 Y70.747 E2.82582
G1 X66.878 Y65.770 E3.46600
G1 X66.878 Y43.407 E5.49974
G1 X75.211 Y38.471 E6.38056
G1 X99.749 Y51.917 E8.92529
G1 X102.122 Y55.922 E9.34867
G1 X102.122 Y64.451 E10.12431
G1 X102.248 Y64.624 E10.14375
G1 X103.673 Y65.084 E10.27990
G1 X105.012 Y65.565 E10.40935
G1 X106.206 Y66.037 E10.52616
G1 X107.513 Y66.601 E10.65560
G1 X108.801 Y67.208 E10.78506
G1 X110.068 Y67.856 E10.91450
G1 X111.313 Y68.546 E11.04395
G1 X112.535 Y69.276 E11.17341
G1 X113.848 Y70.122 E11.31550
G1 X115.018 Y70.934 E11.44495
G1 X116.049 Y71.699 E11.56176
G1 X117.165 Y72.582 E11.69119
G1 X118.252 Y73.501 E11.82066
G1 X119.308 Y74.455 E11.95009
G1 X120.333 Y75.444 E12.07956
G1 X121.324 Y76.465 E12.20900
G1 X122.282 Y77.518 E12.33846
G1 X123.205 Y78.602 E12.46790
G1 X124.091 Y79.715 E12.59734
G1 X124.941 Y80.857 E12.72680
G1 X125.753 Y82.027 E12.85625
G1 X126.526 Y83.222 E12.98570
G1 X127.260 Y84.441 E13.11515
G1 X128.019 Y85.807 E13.25724
G1 X128.667 Y87.074 E13.38668
G1 X129.274 Y88.362 E13.51614
G1 X129.838 Y89.669 E13.64559
G1 X130.359 Y90.993 E13.77505
G1 X130.791 Y92.203 E13.89185
G1 X131.229 Y93.557 E14.02129
G1 X131.622 Y94.925 E14.15075
G1 X131.970 Y96.305 E14.28020
G1 X132.300 Y97.832 E14.42228
G1 X132.552 Y99.233 E14.55175
G1 X132.759 Y100.641 E14.68118
G1 X132.906 Y101.917 E14.79798
G1 X133.024 Y103.336 E14.92744
G1 X133.101 Y104.896 E15.06954
G1 X133.122 Y106.181 E15.18635
G1 X133.101 Y107.604 E15.31579
G1 X132.995 Y109.516 E15.48997
G1 X133.034 Y109.639 E15.50171
G1 X133.183 Y109.816 E15.52273
G1 X132.300 Y114.668 E15.97117
G1 X131.970 Y116.195 E16.11326
G1 X131.658 Y117.441 E16.23007
G1 X131.269 Y118.810 E16.35951
G1 X130.836 Y120.166 E16.48897
G1 X130.310 Y121.637 E16.63106
G1 X129.838 Y122.831 E16.74786
G1 X129.274 Y124.138 E16.87731
G1 X128.606 Y125.551 E17.01941
G1 X127.822 Y127.052 E17.17339
G1 X127.260 Y128.059 E17.27830
G1 X126.599 Y129.160 E17.39510
G1 X125.753 Y130.473 E17.53719
G1 X124.941 Y131.643 E17.66666
G1 X124.091 Y132.784 E17.79609
G1 X123.293 Y133.790 E17.91290
G1 X122.282 Y134.982 E18.05499
G1 X121.324 Y136.035 E18.18444
G1 X120.431 Y136.958 E18.30125
G1 X119.410 Y137.949 E18.43068
G1 X118.252 Y138.999 E18.57279
G1 X117.273 Y139.830 E18.68961
G1 X116.371 Y140.548 E18.79450
G1 X115.017 Y141.566 E18.94849
G1 X113.733 Y142.455 E19.09056
G1 X112.535 Y143.224 E19.22004
G1 X111.434 Y143.885 E19.33685
G1 X110.191 Y144.578 E19.46629
G1 X108.801 Y145.292 E19.60838
G1 X107.513 Y145.898 E19.73782
G1 X106.335 Y146.409 E19.85462
G1 X105.012 Y146.935 E19.98409
G1 X103.541 Y147.461 E20.12618
G1 X102.318 Y147.854 E20.24298
G1 X101.254 Y148.160 E20.34365
G1 X101.122 Y148.335 E20.36364
G1 X101.122 Y150.528 E20.56306
G1 X101.086 Y151.083 E20.61366
G1 X100.926 Y152.298 E20.72507
G1 X100.638 Y153.371 E20.82614
G1 X100.061 Y154.765 E20.96335
G1 X99.505 Y155.729 E21.06456
G1 X98.588 Y156.925 E21.20165
G1 X97.800 Y157.713 E21.30296
G1 X96.611 Y158.626 E21.43931
G1 X95.643 Y159.185 E21.54093
G1 X94.249 Y159.763 E21.67821
G1 X93.174 Y160.051 E21.77940
G1 X91.687 Y160.247 E21.91582
G1 X90.570 Y160.247 E22.01743
G1 X89.070 Y160.049 E22.15497
G1 X87.998 Y159.761 E22.25596
G1 X86.611 Y159.187 E22.39245
G1 X85.887 Y158.769 E22.46850
G1 X85.803 Y158.747 E22.47635
G1 X71.855 Y158.747 E23.74487
G1 X66.878 Y153.770 E24.38505
G1 X66.878 Y141.730 E25.47995
G1 X71.855 Y136.753 E26.12013
G1 X80.936 Y136.753 E26.94595
G1 X81.128 Y136.561 E26.97067
G1 X81.128 Y134.812 E27.12975
G1 X85.910 Y129.870 E27.75515
G1 X91.156 Y129.698 E28.23252
G1 X92.687 Y129.548 E28.37238
G1 X94.215 Y129.296 E28.51320
G1 X95.702 Y128.949 E28.65207
G1 X97.173 Y128.503 E28.79192
G1 X98.622 Y127.958 E28.93274
G1 X100.013 Y127.327 E29.07160
G1 X101.369 Y126.603 E29.21145
G1 X102.684 Y125.785 E29.35228
G1 X103.926 Y124.896 E29.49114
G1 X105.114 Y123.921 E29.63098
G1 X106.237 Y122.870 E29.77083
G1 X107.288 Y121.748 E29.91068
G1 X108.264 Y120.559 E30.05053
G1 X109.160 Y119.309 E30.19037
G1 X109.978 Y117.995 E30.33119
G1 X110.702 Y116.638 E30.47103
G1 X111.337 Y115.237 E30.61088
G1 X111.875 Y113.808 E30.74976
G1 X112.321 Y112.337 E30.88960
G1 X112.671 Y110.840 E31.02944
G1 X112.922 Y109.322 E31.16929
G1 X113.073 Y107.792 E31.30914
G1 X113.123 Y106.255 E31.44898
G1 X113.073 Y104.718 E31.58883
G1 X112.923 Y103.188 E31.72867
G1 X112.671 Y101.660 E31.86950
G1 X112.324 Y100.173 E32.00836
G1 X111.878 Y98.702 E32.14821
G1 X111.333 Y97.253 E32.28904
G1 X110.702 Y95.862 E32.42791
G1 X109.978 Y94.505 E32.56775
G1 X109.160 Y93.191 E32.70857
G1 X108.271 Y91.949 E32.84744
G1 X107.295 Y90.760 E32.98729
G1 X106.237 Y89.630 E33.12811
G1 X105.114 Y88.579 E33.26796
G1 X103.926 Y87.604 E33.40780
G1 X102.676 Y86.709 E33.54764
G1 X101.379 Y85.903 E33.68652
G1 X100.023 Y85.177 E33.82636
G1 X98.612 Y84.538 E33.96718
G1 X97.173 Y83.997 E34.10703
G1 X95.712 Y83.554 E34.24589
G1 X94.204 Y83.202 E34.38672
G1 X92.697 Y82.953 E34.52559
G1 X91.167 Y82.802 E34.66543
G1 X85.911 Y82.630 E35.14375
G1 X81.128 Y77.688 E35.76919
G1 X81.128 Y70.939 E36.38301
G1 X80.978 Y70.789 E36.40227
G1 X81.561 Y70.122 F10200.000
G1 F1800
G1 X72.114 Y70.122 E37.26139
G1 X67.503 Y65.511 E37.85448
G1 X67.503 Y43.764 E39.83228
G1 X75.223 Y39.191 E40.64831
G1 X99.299 Y52.383 E43.14507
G1 X101.497 Y56.094 E43.53731
G1 X101.497 Y64.922 E44.34019
G1 X101.629 Y65.097 E44.36018
G1 X103.345 Y65.632 E44.52361
G1 X104.787 Y66.149 E44.66292
G1 X105.972 Y66.617 E44.77879
G1 X107.260 Y67.173 E44.90637
G1 X108.529 Y67.771 E45.03398
G1 X109.778 Y68.410 E45.16156
G1 X111.005 Y69.090 E45.28915
G1 X112.210 Y69.809 E45.41675
G1 X113.390 Y70.567 E45.54433
G1 X114.545 Y71.364 E45.67193
G1 X115.775 Y72.277 E45.81121
G1 X116.872 Y73.150 E45.93881
G1 X117.941 Y74.060 E46.06640
G1 X118.979 Y75.003 E46.19399
G1 X119.895 Y75.889 E46.30987
G1 X120.872 Y76.896 E46.43746
G1 X121.815 Y77.934 E46.56506
G1 X122.725 Y79.003 E46.69264
G1 X123.598 Y80.100 E46.82022
G1 X124.436 Y81.226 E46.94782
G1 X125.308 Y82.485 E47.08712
G1 X126.066 Y83.665 E47.21472
G1 X126.721 Y84.758 E47.33059
G1 X127.404 Y85.983 E47.45817
G1 X128.047 Y87.230 E47.58576
G1 X128.649 Y88.498 E47.71335
G1 X129.209 Y89.784 E47.84095
G1 X129.726 Y91.088 E47.96853
G1 X130.242 Y92.530 E48.10783
G1 X130.670 Y93.867 E48.23542
G1 X131.053 Y95.216 E48.36302
G1 X131.392 Y96.578 E48.49061
G1 X131.661 Y97.823 E48.60648
G1 X131.914 Y99.203 E48.73407
G1 X132.122 Y100.590 E48.86167
G1 X132.284 Y101.984 E48.98924
G1 X132.409 Y103.510 E49.12856
G1 X132.476 Y104.912 E49.25615
G1 X132.497 Y106.186 E49.37202
G1 X132.472 Y107.717 E49.51131
G1 X132.409 Y108.990 E49.62719
G1 X132.352 Y109.720 E49.69381
G1 X132.391 Y109.843 E49.70556
G1 X132.515 Y109.992 E49.72325
G1 X131.661 Y114.677 E50.15633
G1 X131.392 Y115.922 E50.27221
G1 X131.053 Y117.284 E50.39980
G1 X130.632 Y118.757 E50.53911
G1 X130.201 Y120.092 E50.66669
G1 X129.772 Y121.291 E50.78257
G1 X129.258 Y122.597 E50.91016
G1 X128.649 Y124.002 E51.04946
G1 X128.047 Y125.270 E51.17705
G1 X127.465 Y126.403 E51.29294
G1 X126.721 Y127.742 E51.43223
G1 X125.854 Y129.167 E51.58389
G1 X125.236 Y130.122 E51.68740
G1 X124.511 Y131.170 E51.80327
G1 X123.598 Y132.400 E51.94257
G1 X122.553 Y133.699 E52.09425
G1 X121.815 Y134.566 E52.19774
G1 X120.960 Y135.510 E52.31362
G1 X119.895 Y136.611 E52.45293
G1 X118.885 Y137.585 E52.58051
G1 X117.941 Y138.440 E52.69638
G1 X116.872 Y139.350 E52.82399
G1 X115.673 Y140.302 E52.96329
G1 X114.649 Y141.061 E53.07917
G1 X113.497 Y141.861 E53.20674
G1 X112.319 Y142.623 E53.33433
G1 X111.005 Y143.410 E53.47365
G1 X109.892 Y144.029 E53.58952
G1 X108.645 Y144.672 E53.71710
G1 X107.260 Y145.327 E53.85641
G1 X105.972 Y145.883 E53.98401
G1 X104.787 Y146.351 E54.09989
G1 X103.467 Y146.826 E54.22746
G1 X102.009 Y147.295 E54.36676
G1 X100.633 Y147.685 E54.49683
G1 X100.497 Y147.862 E54.51709
G1 X100.497 Y150.508 E54.75775
G1 X100.463 Y151.022 E54.80463
G1 X100.311 Y152.176 E54.91046
G1 X100.045 Y153.170 E55.00410
G1 X99.847 Y153.650 E55.05127
G1 X99.500 Y154.489 E55.13384
G1 X98.984 Y155.381 E55.22760
G1 X98.117 Y156.512 E55.35723
G1 X97.387 Y157.242 E55.45108
G1 X96.262 Y158.105 E55.58003
G1 X95.366 Y158.623 E55.67417
G1 X94.048 Y159.170 E55.80397
G1 X93.052 Y159.436 E55.89771
G1 X91.646 Y159.622 E56.02672
G1 X90.610 Y159.622 E56.12086
G1 X89.193 Y159.435 E56.25090
G1 X88.199 Y159.168 E56.34446
G1 X86.888 Y158.625 E56.47353
G1 X86.054 Y158.144 E56.56108
G1 X85.971 Y158.122 E56.56893
G1 X72.114 Y158.122 E57.82912
G1 X67.503 Y153.511 E58.42221
G1 X67.503 Y141.989 E59.47003
G1 X72.114 Y137.378 E60.06312
G1 X81.561 Y137.378 E60.92224
G1 X81.753 Y137.186 E60.94696
G1 X81.753 Y135.065 E61.13987
G1 X86.183 Y130.487 E61.71927
G1 X91.197 Y130.322 E62.17551
G1 X92.768 Y130.168 E62.31908
G1 X94.337 Y129.909 E62.46362
G1 X95.864 Y129.553 E62.60622
G1 X97.374 Y129.095 E62.74978
G1 X98.862 Y128.535 E62.89433
G1 X100.290 Y127.888 E63.03691
G1 X101.682 Y127.144 E63.18048
G1 X103.032 Y126.305 E63.32503
G1 X104.306 Y125.392 E63.46762
G1 X105.527 Y124.391 E63.61118
G1 X106.679 Y123.312 E63.75475
G1 X107.759 Y122.160 E63.89832
G1 X108.767 Y120.931 E64.04287
G1 X109.686 Y119.648 E64.18643
G1 X110.519 Y118.307 E64.33000
G1 X111.263 Y116.915 E64.47356
G1 X111.914 Y115.477 E64.61713
G1 X112.467 Y114.009 E64.75973
G1 X112.925 Y112.499 E64.90329
G1 X113.284 Y110.962 E65.04685
G1 X113.542 Y109.404 E65.19043
G1 X113.697 Y107.833 E65.33399
G1 X113.749 Y106.255 E65.47756
G1 X113.697 Y104.678 E65.62113
G1 X113.543 Y103.107 E65.76469
G1 X113.284 Y101.538 E65.90924
G1 X112.928 Y100.012 E66.05183
G1 X112.470 Y98.501 E66.19540
G1 X111.910 Y97.013 E66.33994
G1 X111.258 Y95.576 E66.48351
G1 X110.519 Y94.193 E66.62610
G1 X109.680 Y92.843 E66.77064
G1 X108.760 Y91.560 E66.91421
G1 X107.766 Y90.348 E67.05681
G1 X106.679 Y89.188 E67.20135
G1 X105.535 Y88.116 E67.34394
G1 X104.315 Y87.115 E67.48750
G1 X103.023 Y86.189 E67.63205
G1 X101.691 Y85.361 E67.77464
G1 X100.299 Y84.617 E67.91821
G1 X98.852 Y83.961 E68.06275
G1 X97.384 Y83.408 E68.20534
G1 X95.874 Y82.950 E68.34890
G1 X94.326 Y82.589 E68.49345
G1 X92.779 Y82.333 E68.63604
G1 X91.208 Y82.178 E68.77961
G1 X86.184 Y82.014 E69.23679
G1 X81.753 Y77.436 E69.81622
G1 X81.753 Y70.314 E70.46388
G1 X81.603 Y70.164 E70.48314
G1 X82.186 Y69.497 F10200.000
G1 F1800
G1 X72.373 Y69.497 E71.37555
G1 X68.128 Y65.252 E71.92156
G1 X68.128 Y44.120 E73.84342
G1 X75.235 Y39.910 E74.59466
G1 X98.848 Y52.849 E77.04345
G1 X100.872 Y56.265 E77.40455
G1 X100.872 Y65.393 E78.23474
G1 X101.004 Y65.569 E78.25473
G1 X101.945 Y65.839 E78.34378
G1 X103.149 Y66.226 E78.45873
G1 X104.451 Y66.690 E78.58447
G1 X105.737 Y67.196 E78.71019
G1 X107.115 Y67.793 E78.84671
G1 X108.364 Y68.386 E78.97244
G1 X109.488 Y68.964 E79.08738
G1 X110.697 Y69.633 E79.21311
G1 X111.884 Y70.342 E79.33885
G1 X113.047 Y71.090 E79.46457
G1 X114.185 Y71.875 E79.59031
G1 X115.296 Y72.697 E79.71604
G1 X116.380 Y73.555 E79.84175
G1 X117.525 Y74.526 E79.97827
G1 X118.548 Y75.456 E80.10400
G1 X119.456 Y76.335 E80.21895
G1 X120.419 Y77.327 E80.34468
G1 X121.349 Y78.350 E80.47042
G1 X122.245 Y79.403 E80.59614
G1 X123.106 Y80.485 E80.72186
G1 X123.931 Y81.594 E80.84760
G1 X124.785 Y82.828 E80.98411
G1 X125.533 Y83.991 E81.10985
G1 X126.242 Y85.178 E81.23556
G1 X126.856 Y86.283 E81.35051
G1 X127.489 Y87.511 E81.47624
G1 X128.082 Y88.760 E81.60197
G1 X128.633 Y90.028 E81.72771
G1 X129.143 Y91.313 E81.85343
G1 X129.649 Y92.726 E81.98994
G1 X130.070 Y94.043 E82.11567
G1 X130.448 Y95.373 E82.24141
G1 X130.782 Y96.714 E82.36714
G1 X131.049 Y97.950 E82.48207
G1 X131.298 Y99.310 E82.60781
G1 X131.503 Y100.677 E82.73355
G1 X131.663 Y102.050 E82.85926
G1 X131.785 Y103.546 E82.99579
G1 X131.847 Y104.809 E83.11073
G1 X131.872 Y106.191 E83.23646
G1 X131.847 Y107.691 E83.37296
G1 X131.785 Y108.954 E83.48791
G1 X131.708 Y109.924 E83.57641
G1 X131.747 Y110.047 E83.58815
G1 X131.848 Y110.168 E83.60251
G1 X131.049 Y114.550 E84.00761
G1 X130.782 Y115.786 E84.12256
G1 X130.448 Y117.127 E84.24828
G1 X130.036 Y118.570 E84.38480
G1 X129.611 Y119.886 E84.51052
G1 X129.185 Y121.076 E84.62547
G1 X128.679 Y122.362 E84.75120
G1 X128.082 Y123.740 E84.88771
G1 X127.541 Y124.882 E85.00266
G1 X126.911 Y126.113 E85.12840
G1 X126.182 Y127.425 E85.26490
G1 X125.329 Y128.828 E85.41424
G1 X124.719 Y129.770 E85.51635
G1 X124.000 Y130.810 E85.63130
G1 X123.178 Y131.921 E85.75703
G1 X122.245 Y133.097 E85.89354
G1 X121.427 Y134.061 E86.00849
G1 X120.500 Y135.086 E86.13421
G1 X119.456 Y136.165 E86.27073
G1 X118.462 Y137.125 E86.39645
G1 X117.525 Y137.974 E86.51140
G1 X116.472 Y138.870 E86.63714
G1 X115.296 Y139.803 E86.77365
G1 X114.281 Y140.556 E86.88860
G1 X113.146 Y141.344 E87.01431
G1 X111.985 Y142.095 E87.14005
G1 X110.697 Y142.867 E87.27657
G1 X109.488 Y143.536 E87.40229
G1 X108.364 Y144.114 E87.51723
G1 X107.007 Y144.756 E87.65375
G1 X105.737 Y145.304 E87.77949
G1 X104.562 Y145.768 E87.89444
G1 X103.261 Y146.236 E88.02015
G1 X101.832 Y146.695 E88.15666
G1 X100.011 Y147.196 E88.32844
G1 X99.872 Y147.374 E88.34897
G1 X99.872 Y150.487 E88.63212
G1 X99.841 Y150.961 E88.67528
G1 X99.697 Y152.054 E88.77554
G1 X99.452 Y152.969 E88.86174
G1 X99.269 Y153.413 E88.90538
G1 X98.938 Y154.212 E88.98401
G1 X98.463 Y155.034 E89.07032
G1 X97.646 Y156.099 E89.19249
G1 X96.974 Y156.771 E89.27889
G1 X95.914 Y157.585 E89.40043
G1 X95.089 Y158.062 E89.48709
G1 X93.846 Y158.576 E89.60941
G1 X92.930 Y158.822 E89.69572
G1 X91.604 Y158.997 E89.81731
G1 X90.651 Y158.997 E89.90397
G1 X89.315 Y158.821 E90.02651
G1 X88.401 Y158.575 E90.11265
G1 X87.165 Y158.064 E90.23430
G1 X86.267 Y157.532 E90.32917
G1 X86.165 Y157.497 E90.33902
G1 X72.373 Y157.497 E91.59332
G1 X68.128 Y153.252 E92.13932
G1 X68.128 Y142.248 E93.14005
G1 X72.373 Y138.003 E93.68605
G1 X82.186 Y138.003 E94.57846
G1 X82.378 Y137.811 E94.60318
G1 X82.378 Y135.317 E94.82994
G1 X86.457 Y131.103 E95.36334
G1 X91.238 Y130.946 E95.79843
G1 X92.850 Y130.788 E95.94572
G1 X94.459 Y130.522 E96.09399
G1 X96.036 Y130.154 E96.24128
G1 X97.575 Y129.687 E96.38759
G1 X99.101 Y129.113 E96.53586
G1 X100.566 Y128.449 E96.68216
G1 X101.995 Y127.686 E96.82945
G1 X103.379 Y126.825 E96.97772
G1 X104.687 Y125.888 E97.12404
G1 X105.939 Y124.861 E97.27132
G1 X107.121 Y123.754 E97.41861
G1 X108.229 Y122.572 E97.56590
G1 X109.256 Y121.320 E97.71319
G1 X110.200 Y120.004 E97.86048
G1 X111.061 Y118.620 E98.00874
G1 X111.824 Y117.191 E98.15603
G1 X112.492 Y115.716 E98.30332
G1 X113.059 Y114.210 E98.44964
G1 X113.529 Y112.661 E98.59692
G1 X113.897 Y111.084 E98.74421
G1 X114.162 Y109.486 E98.89150
G1 X114.321 Y107.874 E99.03879
G1 X114.374 Y106.255 E99.18608
G1 X114.321 Y104.637 E99.33337
G1 X114.163 Y103.025 E99.48065
G1 X113.897 Y101.416 E99.62893
G1 X113.532 Y99.850 E99.77523
G1 X113.062 Y98.300 E99.92252
G1 X112.488 Y96.774 E100.07079
G1 X111.824 Y95.309 E100.21710
G1 X111.061 Y93.880 E100.36439
G1 X110.200 Y92.496 E100.51265
G1 X109.256 Y91.180 E100.65995
G1 X108.236 Y89.936 E100.80626
G1 X107.121 Y88.746 E100.95452
G1 X105.947 Y87.646 E101.10084
G1 X104.695 Y86.619 E101.24812
G1 X103.370 Y85.669 E101.39639
G1 X102.004 Y84.819 E101.54270
G1 X100.576 Y84.056 E101.68999
G1 X99.091 Y83.383 E101.83826
G1 X97.585 Y82.816 E101.98457
G1 X96.036 Y82.346 E102.13185
G1 X94.459 Y81.978 E102.27915
G1 X92.850 Y81.712 E102.42741
G1 X91.238 Y81.554 E102.57470
G1 X86.457 Y81.397 E103.00976
G1 X82.378 Y77.183 E103.54319
