; generated by Slic3r 1.3.0 on 2023-06-21 at 05:01:12

; external perimeters extrusion width = 0.44mm (2.38mm^3/s)
; perimeters extrusion width = 0.56mm (6.20mm^3/s)
; infill extrusion width = 0.50mm (8.23mm^3/s)
; solid infill extrusion width = 0.56mm (2.07mm^3/s)
; top infill extrusion width = 0.56mm (1.55mm^3/s)
; support material extrusion width = 0.44mm (4.76mm^3/s)

M190 S100 ; set bed temperature and wait for it to be reached
M104 S240 ; set temperature
G28 ; home all axes
G29 ; auto-bed-level
G1 Z5 F5000 ; lift nozzle

; Filament gcode

M109 S240 ; set temperature and wait for it to be reached
G21 ; set units to millimeters
G90 ; use absolute coordinates
M82 ; use absolute distances for extrusion
G92 E0
G1 Z0.350 F10200.000
G1 E-2.00000 F2400.00000
G92 E0
G1 X52.764 Y61.493 F10200.000
G1 E2.00000 F2400.00000
G1 F1800
G1 X52.878 Y61.326 E2.01837
G1 X52.878 Y54.724 E2.61880
G1 X56.472 Y48.656 E3.26018
G1 X84.248 Y33.436 E6.14066
G1 X96.872 Y40.914 E7.47503
G1 X96.872 Y68.186 E9.95530
G1 X97.064 Y68.378 E9.98002
G1 X102.936 Y68.378 E10.51402
G1 X103.128 Y68.186 E10.53874
G1 X103.128 Y40.914 E13.01900
G1 X115.752 Y33.436 E14.35338
G1 X143.528 Y48.656 E17.23385
G1 X147.122 Y54.724 E17.87524
G1 X147.122 Y61.326 E18.47567
G1 X147.236 Y61.493 E18.49404
G1 X148.667 Y62.062 E18.63416
G1 X150.103 Y62.689 E18.77661
G1 X151.518 Y63.362 E18.91912
G1 X152.909 Y64.080 E19.06154
G1 X154.095 Y64.739 E19.18487
G1 X155.441 Y65.542 E19.32739
G1 X159.362 Y68.066 E19.75154
G1 X159.560 Y68.401 E19.78691
G1 X160.701 Y69.311 E19.91968
G1 X161.735 Y70.189 E20.04301
G1 X162.898 Y71.238 E20.18546
G1 X164.026 Y72.325 E20.32793
G1 X165.118 Y73.448 E20.47042
G1 X166.312 Y74.765 E20.63204
G1 X167.322 Y75.961 E20.77447
G1 X168.165 Y77.024 E20.89783
G1 X169.101 Y78.280 E21.04028
G1 X169.995 Y79.566 E21.18272
G1 X170.959 Y81.060 E21.34441
G1 X171.761 Y82.405 E21.48681
G1 X172.519 Y83.776 E21.62930
G1 X173.139 Y84.983 E21.75268
G1 X173.811 Y86.397 E21.89513
G1 X174.518 Y88.027 E22.05672
G1 X175.017 Y89.288 E22.18003
G1 X175.548 Y90.763 E22.32255
G1 X176.091 Y92.454 E22.48412
G1 X176.463 Y93.758 E22.60743
G1 X176.847 Y95.277 E22.74992
G1 X177.223 Y97.014 E22.91160
G1 X177.500 Y98.556 E23.05404
G1 X177.726 Y100.105 E23.19645
G1 X177.881 Y101.453 E23.31983
G1 X178.013 Y103.014 E23.46228
G1 X178.100 Y104.789 E23.62395
G1 X178.122 Y106.355 E23.76632
G1 X178.093 Y107.921 E23.90878
G1 X178.026 Y109.276 E24.03219
G1 X177.902 Y110.838 E24.17466
G1 X177.699 Y112.603 E24.33626
G1 X177.465 Y114.152 E24.47870
G1 X177.182 Y115.692 E24.62114
G1 X176.848 Y117.223 E24.76366
G1 X176.518 Y118.539 E24.88701
G1 X176.091 Y120.046 E25.02947
G1 X175.615 Y121.538 E25.17190
G1 X175.017 Y123.211 E25.33354
G1 X174.438 Y124.667 E25.47597
G1 X173.898 Y125.911 E25.59935
G1 X173.232 Y127.329 E25.74181
G1 X172.519 Y128.724 E25.88425
G1 X171.655 Y130.277 E26.04592
G1 X170.959 Y131.440 E26.16921
G1 X170.113 Y132.759 E26.31168
G1 X169.224 Y134.049 E26.45417
G1 X168.165 Y135.476 E26.61580
G1 X167.088 Y136.820 E26.77236
G1 X166.173 Y137.893 E26.90067
G1 X165.262 Y138.898 E27.02403
G1 X164.026 Y140.175 E27.18564
G1 X163.052 Y141.118 E27.30896
G1 X162.008 Y142.068 E27.43730
G1 X160.701 Y143.189 E27.59391
G1 X159.309 Y144.293 E27.75551
G1 X158.049 Y145.224 E27.89801
G1 X156.934 Y145.996 E28.02134
G1 X155.619 Y146.847 E28.16378
G1 X154.095 Y147.761 E28.32542
G1 X152.909 Y148.420 E28.44879
G1 X151.518 Y149.138 E28.59114
G1 X150.103 Y149.811 E28.73363
G1 X148.472 Y150.518 E28.89530
G1 X147.212 Y151.016 E29.01857
G1 X146.180 Y151.389 E29.11833
G1 X146.064 Y151.533 E29.13511
G1 X145.850 Y153.157 E29.28407
G1 X145.414 Y154.785 E29.43740
G1 X144.619 Y156.703 E29.62623
G1 X143.775 Y158.167 E29.77987
G1 X142.509 Y159.817 E29.96902
G1 X141.315 Y161.010 E30.12252
G1 X139.667 Y162.275 E30.31146
G1 X138.204 Y163.119 E30.46504
G1 X136.284 Y163.914 E30.65405
G1 X134.653 Y164.351 E30.80763
G1 X132.595 Y164.622 E30.99641
G1 X130.909 Y164.622 E31.14973
G1 X128.844 Y164.350 E31.33918
G1 X127.212 Y163.913 E31.49281
G1 X125.271 Y163.122 E31.68347
G1 X74.729 Y163.122 E36.27998
G1 X72.786 Y163.913 E36.47078
G1 X71.156 Y164.350 E36.62432
G1 X69.092 Y164.622 E36.81365
G1 X67.405 Y164.622 E36.96701
G1 X65.347 Y164.351 E37.15587
G1 X63.715 Y163.914 E37.30947
G1 X61.797 Y163.119 E37.49834
G1 X60.334 Y162.275 E37.65191
G1 X58.686 Y161.011 E37.84082
G1 X57.491 Y159.816 E37.99450
G1 X56.226 Y158.167 E38.18354
G1 X55.381 Y156.705 E38.33709
G1 X54.586 Y154.784 E38.52613
G1 X54.149 Y153.155 E38.67955
G1 X53.936 Y151.533 E38.82835
G1 X53.820 Y151.389 E38.84513
G1 X52.789 Y151.017 E38.94487
G1 X51.527 Y150.518 E39.06821
G1 X50.089 Y149.899 E39.21061
G1 X48.671 Y149.232 E39.35315
G1 X47.090 Y148.420 E39.51476
G1 X45.723 Y147.656 E39.65718
G1 X44.381 Y146.847 E39.79971
G1 X43.066 Y145.995 E39.94218
G1 X41.780 Y145.102 E40.08459
G1 X40.691 Y144.294 E40.20792
G1 X39.461 Y143.322 E40.35046
G1 X38.107 Y142.173 E40.51205
G1 X36.948 Y141.118 E40.65451
G1 X35.825 Y140.026 E40.79701
G1 X34.738 Y138.898 E40.93949
G1 X33.827 Y137.893 E41.06279
G1 X32.812 Y136.701 E41.20520
G1 X31.835 Y135.476 E41.34774
G1 X30.899 Y134.220 E41.49018
G1 X29.888 Y132.759 E41.65178
G1 X29.042 Y131.440 E41.79425
G1 X28.239 Y130.095 E41.93676
G1 X27.481 Y128.724 E42.07919
G1 X26.768 Y127.329 E42.22166
G1 X26.102 Y125.911 E42.36415
G1 X25.482 Y124.473 E42.50663
G1 X24.909 Y123.015 E42.64907
G1 X24.385 Y121.538 E42.79156
G1 X23.970 Y120.247 E42.91490
G1 X23.536 Y118.742 E43.05735
G1 X23.152 Y117.223 E43.19984
G1 X22.818 Y115.693 E43.34227
G1 X22.535 Y114.152 E43.48476
G1 X22.301 Y112.603 E43.62722
G1 X22.119 Y111.047 E43.76973
G1 X21.987 Y109.486 E43.91216
G1 X21.907 Y107.921 E44.05468
G1 X21.878 Y106.355 E44.19711
G1 X21.900 Y104.789 E44.33957
G1 X21.987 Y103.014 E44.50120
G1 X22.119 Y101.453 E44.64364
G1 X22.274 Y100.106 E44.76694
G1 X23.019 Y95.054 E45.23144
G1 X23.220 Y94.880 E45.25557
G1 X23.273 Y94.794 E45.26480
G1 X23.537 Y93.758 E45.36203
G1 X23.909 Y92.454 E45.48532
G1 X24.385 Y90.962 E45.62778
G1 X24.909 Y89.485 E45.77027
G1 X25.562 Y87.833 E45.93188
G1 X26.189 Y86.397 E46.07437
G1 X26.768 Y85.171 E46.19768
G1 X27.481 Y83.776 E46.34014
G1 X28.344 Y82.223 E46.50173
G1 X29.153 Y80.881 E46.64427
G1 X30.005 Y79.566 E46.78672
G1 X30.899 Y78.280 E46.92915
G1 X31.706 Y77.191 E47.05247
G1 X32.678 Y75.962 E47.19497
G1 X33.827 Y74.607 E47.35656
G1 X34.990 Y73.337 E47.51316
G1 X35.974 Y72.325 E47.64151
G1 X36.948 Y71.382 E47.76482
G1 X38.107 Y70.327 E47.90731
G1 X39.299 Y69.311 E48.04978
G1 X40.524 Y68.335 E48.19227
G1 X41.951 Y67.276 E48.35386
G1 X43.241 Y66.387 E48.49633
G1 X44.381 Y65.653 E48.61967
G1 X45.723 Y64.844 E48.76212
G1 X47.276 Y63.981 E48.92375
G1 X48.671 Y63.268 E49.06621
G1 X50.089 Y62.602 E49.20871
G1 X51.333 Y62.062 E49.33201
G1 X52.709 Y61.515 E49.46666
G1 X53.383 Y61.931 F10200.000
G1 F1800
G1 X53.503 Y61.761 E49.48557
G1 X53.503 Y54.895 E50.10998
G1 X56.923 Y49.122 E50.72022
G1 X84.236 Y34.156 E53.55272
G1 X96.247 Y41.270 E54.82231
G1 X96.247 Y68.811 E57.32702
G1 X96.439 Y69.003 E57.35174
G1 X103.561 Y69.003 E57.99942
G1 X103.753 Y68.811 E58.02414
G1 X103.753 Y41.270 E60.52885
G1 X115.764 Y34.156 E61.79844
G1 X143.077 Y49.122 E64.63095
G1 X146.497 Y54.895 E65.24119
G1 X146.497 Y61.761 E65.86560
G1 X146.617 Y61.931 E65.88450
G1 X148.423 Y62.638 E66.06094
G1 X149.658 Y63.173 E66.18334
G1 X151.057 Y63.831 E66.32395
G1 X152.434 Y64.535 E66.46454
G1 X153.787 Y65.283 E66.60514
G1 X155.285 Y66.181 E66.76400
G1 X158.890 Y68.505 E67.15407
G1 X159.072 Y68.812 E67.18651
G1 X160.301 Y69.791 E67.32943
G1 X161.477 Y70.794 E67.47003
G1 X162.621 Y71.835 E67.61065
G1 X163.729 Y72.912 E67.75124
G1 X164.665 Y73.879 E67.87365
G1 X165.706 Y75.023 E68.01426
G1 X166.929 Y76.472 E68.18673
G1 X167.795 Y77.568 E68.31372
G1 X168.712 Y78.810 E68.45423
G1 X169.590 Y80.084 E68.59490
G1 X170.319 Y81.216 E68.71733
G1 X171.117 Y82.540 E68.85791
G1 X171.871 Y83.889 E68.99849
G1 X172.669 Y85.443 E69.15736
G1 X173.327 Y86.843 E69.29802
G1 X173.939 Y88.262 E69.43856
G1 X174.433 Y89.513 E69.56094
G1 X174.957 Y90.968 E69.70160
G1 X175.492 Y92.631 E69.86038
G1 X175.861 Y93.925 E69.98277
G1 X176.240 Y95.424 E70.12339
G1 X176.609 Y97.131 E70.28228
G1 X176.882 Y98.653 E70.42286
G1 X177.106 Y100.182 E70.56341
G1 X177.260 Y101.519 E70.68586
G1 X177.389 Y103.060 E70.82645
G1 X177.475 Y104.805 E70.98532
G1 X177.497 Y106.350 E71.12585
G1 X177.468 Y107.895 E71.26644
G1 X177.402 Y109.240 E71.38892
G1 X177.279 Y110.782 E71.52953
G1 X177.080 Y112.516 E71.68834
G1 X176.850 Y114.045 E71.82892
G1 X176.570 Y115.565 E71.96950
G1 X176.240 Y117.076 E72.11017
G1 X175.913 Y118.382 E72.23258
G1 X175.433 Y120.061 E72.39138
G1 X175.022 Y121.342 E72.51375
G1 X174.504 Y122.799 E72.65435
G1 X173.803 Y124.561 E72.82683
G1 X173.244 Y125.841 E72.95383
G1 X172.580 Y127.237 E73.09447
G1 X171.965 Y128.434 E73.21680
G1 X171.217 Y129.787 E73.35745
G1 X170.319 Y131.285 E73.51625
G1 X169.478 Y132.583 E73.65693
G1 X168.596 Y133.852 E73.79745
G1 X167.794 Y134.933 E73.91987
G1 X166.709 Y136.300 E74.07867
G1 X165.706 Y137.477 E74.21927
G1 X164.802 Y138.475 E74.34170
G1 X163.588 Y139.729 E74.50052
G1 X162.621 Y140.665 E74.62291
G1 X161.589 Y141.605 E74.74985
G1 X160.301 Y142.709 E74.90413
G1 X158.933 Y143.795 E75.06295
G1 X157.689 Y144.713 E75.20359
G1 X156.582 Y145.479 E75.32598
G1 X155.285 Y146.319 E75.46657
G1 X153.787 Y147.217 E75.62541
G1 X152.610 Y147.871 E75.74786
G1 X151.237 Y148.580 E75.88835
G1 X149.841 Y149.244 E76.02898
G1 X148.238 Y149.939 E76.18786
G1 X146.987 Y150.433 E76.31020
G1 X145.586 Y150.938 E76.44561
G1 X145.468 Y151.095 E76.46344
G1 X145.444 Y151.452 E76.49600
G1 X145.236 Y153.034 E76.64117
G1 X144.821 Y154.584 E76.78706
G1 X144.058 Y156.427 E76.96845
G1 X143.254 Y157.819 E77.11463
G1 X142.038 Y159.404 E77.29632
G1 X140.902 Y160.539 E77.44237
G1 X139.319 Y161.754 E77.62387
G1 X137.927 Y162.557 E77.76999
G1 X136.083 Y163.321 E77.95156
G1 X134.531 Y163.737 E78.09768
G1 X132.554 Y163.997 E78.27901
G1 X130.950 Y163.997 E78.42489
G1 X128.966 Y163.736 E78.60687
G1 X127.414 Y163.320 E78.75305
G1 X125.424 Y162.497 E78.94889
G1 X74.576 Y162.497 E83.57323
G1 X72.585 Y163.320 E83.76921
G1 X71.034 Y163.736 E83.91529
G1 X69.051 Y163.997 E84.09716
G1 X67.446 Y163.997 E84.24307
G1 X65.469 Y163.737 E84.42449
G1 X63.917 Y163.321 E84.57063
G1 X62.073 Y162.557 E84.75206
G1 X60.682 Y161.754 E84.89817
G1 X59.099 Y160.540 E85.07964
G1 X57.962 Y159.403 E85.22585
G1 X56.746 Y157.819 E85.40744
G1 X55.943 Y156.428 E85.55354
G1 X55.179 Y154.583 E85.73513
G1 X54.764 Y153.033 E85.88110
G1 X54.555 Y151.451 E86.02624
G1 X54.532 Y151.095 E86.05868
G1 X54.414 Y150.938 E86.07652
G1 X53.014 Y150.433 E86.21190
G1 X51.762 Y149.939 E86.33432
G1 X50.343 Y149.327 E86.47486
G1 X48.943 Y148.669 E86.61553
G1 X47.566 Y147.965 E86.75614
G1 X46.214 Y147.218 E86.89667
G1 X44.886 Y146.425 E87.03733
G1 X43.584 Y145.590 E87.17795
G1 X42.149 Y144.596 E87.33674
G1 X40.908 Y143.673 E87.47740
G1 X39.854 Y142.836 E87.59982
G1 X38.673 Y141.838 E87.74038
G1 X37.526 Y140.803 E87.88096
G1 X36.412 Y139.729 E88.02164
G1 X35.335 Y138.621 E88.16223
G1 X34.162 Y137.327 E88.32103
G1 X33.164 Y136.146 E88.46166
G1 X32.205 Y134.933 E88.60229
G1 X31.287 Y133.689 E88.74287
G1 X30.410 Y132.416 E88.88347
G1 X29.575 Y131.115 E89.02408
G1 X28.783 Y129.787 E89.16473
G1 X28.035 Y128.434 E89.30530
G1 X27.420 Y127.237 E89.42770
G1 X26.756 Y125.840 E89.56833
G1 X26.138 Y124.423 E89.70892
G1 X25.566 Y122.986 E89.84956
G1 X25.043 Y121.532 E89.99014
G1 X24.566 Y120.061 E90.13078
G1 X24.139 Y118.575 E90.27137
G1 X23.760 Y117.076 E90.41200
G1 X23.391 Y115.369 E90.57081
G1 X23.118 Y113.848 E90.71139
G1 X22.894 Y112.317 E90.85206
G1 X22.721 Y110.781 E90.99264
G1 X22.598 Y109.240 E91.13328
G1 X22.525 Y107.696 E91.27388
G1 X22.505 Y106.000 E91.42813
G1 X22.532 Y104.604 E91.55505
G1 X22.598 Y103.260 E91.67744
G1 X22.721 Y101.719 E91.81809
G1 X22.894 Y100.183 E91.95864
G1 X23.603 Y95.375 E92.40062
G1 X23.778 Y95.224 E92.42162
G1 X23.832 Y95.138 E92.43085
G1 X24.139 Y93.924 E92.54469
G1 X24.508 Y92.631 E92.66706
G1 X24.978 Y91.158 E92.80765
G1 X25.496 Y89.701 E92.94829
G1 X26.138 Y88.077 E93.10711
G1 X26.756 Y86.659 E93.24773
G1 X27.331 Y85.443 E93.37011
G1 X28.035 Y84.066 E93.51071
G1 X28.883 Y82.540 E93.66952
G1 X29.681 Y81.215 E93.81019
G1 X30.521 Y79.917 E93.95078
G1 X31.287 Y78.811 E94.07314
G1 X32.205 Y77.567 E94.21374
G1 X33.164 Y76.354 E94.35438
G1 X34.294 Y75.023 E94.51318
G1 X35.439 Y73.771 E94.66746
G1 X36.412 Y72.770 E94.79441
G1 X37.379 Y71.835 E94.91679
G1 X38.523 Y70.794 E95.05742
G1 X39.854 Y69.664 E95.21626
G1 X41.067 Y68.705 E95.35687
G1 X42.148 Y67.904 E95.47925
G1 X43.417 Y67.021 E95.61983
G1 X44.715 Y66.181 E95.76048
G1 X46.213 Y65.283 E95.91930
G1 X47.566 Y64.535 E96.05991
G1 X48.763 Y63.920 E96.18230
G1 X50.160 Y63.256 E96.32292
G1 X51.762 Y62.561 E96.48172
G1 X53.327 Y61.951 E96.63449
G1 X54.008 Y62.371 F10200.000
G1 F1800
G1 X54.128 Y62.201 E96.65340
G1 X54.128 Y55.066 E97.30227
G1 X57.373 Y49.588 E97.88137
G1 X84.224 Y34.875 E100.66591
G1 X95.622 Y41.626 E101.87070
G1 X95.622 Y69.115 E104.37072
G1 X95.672 Y69.236 E104.38259
G1 X96.014 Y69.578 E104.42659
G1 X96.135 Y69.628 E104.43846
G1 X103.865 Y69.628 E105.14154
G1 X103.986 Y69.578 E105.15341
G1 X104.328 Y69.236 E105.19741
G1 X104.378 Y69.115 E105.20928
G1 X104.378 Y41.626 E107.70929
G1 X115.776 Y34.875 E108.91409
G1 X142.627 Y49.588 E111.69863
G1 X145.872 Y55.066 E112.27772
G1 X145.872 Y62.201 E112.92659
G1 X145.992 Y62.371 E112.94550
G1 X146.762 Y62.650 E113.01998
G1 X148.179 Y63.213 E113.15872
G1 X149.405 Y63.745 E113.28019
G1 X150.785 Y64.394 E113.41895
G1 X152.144 Y65.088 E113.55768
G1 X153.479 Y65.827 E113.69641
G1 X154.950 Y66.709 E113.85248
G1 X158.417 Y68.944 E114.22760
G1 X158.589 Y69.229 E114.25791
G1 X159.900 Y70.271 E114.41021
G1 X161.061 Y71.260 E114.54895
G1 X162.190 Y72.287 E114.68772
G1 X163.284 Y73.350 E114.82644
G1 X164.213 Y74.310 E114.94793
G1 X165.240 Y75.438 E115.08667
G1 X166.440 Y76.860 E115.25588
G1 X167.296 Y77.944 E115.38148
G1 X168.201 Y79.170 E115.52013
G1 X169.068 Y80.427 E115.65894
G1 X169.791 Y81.550 E115.78044
G1 X170.578 Y82.857 E115.91916
G1 X171.322 Y84.188 E116.05788
G1 X172.106 Y85.715 E116.21397
G1 X172.756 Y87.096 E116.35276
G1 X173.359 Y88.496 E116.49145
G1 X173.917 Y89.917 E116.63022
G1 X174.367 Y91.174 E116.75169
G1 X174.892 Y92.807 E116.90769
G1 X175.259 Y94.091 E117.02914
G1 X175.632 Y95.571 E117.16790
G1 X175.995 Y97.248 E117.32400
G1 X176.265 Y98.750 E117.46272
G1 X176.485 Y100.258 E117.60141
G1 X176.638 Y101.586 E117.72293
G1 X176.766 Y103.106 E117.86166
G1 X176.850 Y104.820 E118.01774
G1 X176.872 Y106.345 E118.15641
G1 X176.844 Y107.870 E118.29514
G1 X176.778 Y109.205 E118.41668
G1 X176.657 Y110.725 E118.55544
G1 X176.461 Y112.430 E118.71146
G1 X176.234 Y113.938 E118.85018
G1 X175.958 Y115.438 E118.98891
G1 X175.632 Y116.929 E119.12770
G1 X175.308 Y118.225 E119.24919
G1 X174.837 Y119.875 E119.40520
G1 X174.428 Y121.146 E119.52664
G1 X173.917 Y122.583 E119.66538
G1 X173.229 Y124.312 E119.83461
G1 X172.677 Y125.578 E119.96021
G1 X172.022 Y126.956 E120.09898
G1 X171.412 Y128.143 E120.22039
G1 X170.673 Y129.479 E120.35918
G1 X169.791 Y130.950 E120.51519
G1 X169.068 Y132.073 E120.63665
G1 X168.202 Y133.329 E120.77542
G1 X167.180 Y134.707 E120.93147
G1 X166.135 Y136.011 E121.08338
G1 X165.240 Y137.061 E121.20890
G1 X164.343 Y138.051 E121.33040
G1 X163.149 Y139.284 E121.48643
G1 X162.190 Y140.213 E121.60790
G1 X161.061 Y141.240 E121.74668
G1 X159.753 Y142.350 E121.90268
G1 X158.556 Y143.296 E122.04143
G1 X157.483 Y144.091 E122.16292
G1 X156.231 Y144.962 E122.30167
G1 X154.789 Y145.892 E122.45769
G1 X153.478 Y146.673 E122.59645
G1 X152.311 Y147.322 E122.71796
G1 X150.785 Y148.106 E122.87394
G1 X149.405 Y148.755 E123.01266
G1 X148.179 Y149.287 E123.13415
G1 X146.584 Y149.917 E123.29017
G1 X144.996 Y150.477 E123.44327
G1 X144.872 Y150.636 E123.46164
G1 X144.822 Y151.390 E123.53043
G1 X144.622 Y152.912 E123.67001
G1 X144.227 Y154.382 E123.80845
G1 X143.496 Y156.150 E123.98240
G1 X142.733 Y157.471 E124.12112
G1 X141.567 Y158.991 E124.29536
