; generated by Slic3r 1.3.0 on 2023-06-20 at 17:48:46

; external perimeters extrusion width = 0.44mm (2.38mm^3/s)
; perimeters extrusion width = 0.56mm (6.20mm^3/s)
; infill extrusion width = 0.50mm (8.23mm^3/s)
; solid infill extrusion width = 0.56mm (2.07mm^3/s)
; top infill extrusion width = 0.56mm (1.55mm^3/s)
; support material extrusion width = 0.44mm (4.76mm^3/s)

M190 S100 ; set bed temperature and wait for it to be reached
M104 S240 ; set temperature
G28 ; home all axes
G29 ; auto-bed-level
G1 Z5 F5000 ; lift nozzle

; Filament gcode

M109 S240 ; set temperature and wait for it to be reached
G21 ; set units to millimeters
G90 ; use absolute coordinates
M82 ; use absolute distances for extrusion
G92 E0
G1 Z0.350 F10200.000
G1 E-2.00000 F2400.00000
G92 E0
G1 X72.794 Y75.712 F10200.000
G1 E2.00000 F2400.00000
G1 F1800
G1 X72.946 Y75.529 E2.02163
G1 X72.946 Y66.970 E2.80007
G1 X76.541 Y60.902 E3.44145
G1 X92.843 Y51.969 E5.13207
G1 X92.935 Y51.814 E5.14842
G1 X92.935 Y43.007 E5.94938
G1 X105.558 Y35.530 E7.28376
G1 X123.459 Y45.338 E9.14016
G1 X127.054 Y51.406 E9.78154
G1 X127.054 Y59.966 E10.55998
G1 X127.206 Y60.148 E10.58161
G1 X129.011 Y60.526 E10.74937
G1 X130.046 Y60.785 E10.84637
G1 X131.272 Y61.132 E10.96220
G1 X132.687 Y61.586 E11.09742
G1 X133.690 Y61.945 E11.19432
G1 X134.877 Y62.411 E11.31021
G1 X136.242 Y63.002 E11.44554
G1 X137.393 Y63.551 E11.56153
G1 X138.526 Y64.137 E11.67752
G1 X139.459 Y64.655 E11.77455
G1 X140.553 Y65.307 E11.89041
G1 X141.803 Y66.113 E12.02564
G1 X142.679 Y66.719 E12.12252
G1 X143.705 Y67.475 E12.23844
G1 X144.870 Y68.400 E12.37370
G1 X145.683 Y69.090 E12.47065
G1 X146.630 Y69.943 E12.58661
G1 X147.549 Y70.829 E12.70273
G1 X148.438 Y71.742 E12.81859
G1 X149.437 Y72.844 E12.95384
G1 X150.258 Y73.818 E13.06973
G1 X151.049 Y74.819 E13.18572
G1 X151.684 Y75.675 E13.28266
G1 X152.412 Y76.722 E13.39869
G1 X153.218 Y77.972 E13.53389
G1 X153.870 Y79.066 E13.64975
G1 X154.488 Y80.185 E13.76599
G1 X155.067 Y81.320 E13.88194
G1 X155.609 Y82.474 E13.99784
G1 X156.033 Y83.452 E14.09483
G1 X156.505 Y84.638 E14.21085
G1 X156.938 Y85.837 E14.32683
G1 X157.332 Y87.051 E14.44284
G1 X157.686 Y88.277 E14.55896
G1 X157.999 Y89.513 E14.67490
G1 X158.272 Y90.761 E14.79104
G1 X158.503 Y92.013 E14.90687
G1 X158.722 Y93.488 E15.04246
G1 X158.864 Y94.754 E15.15833
G1 X158.965 Y96.025 E15.27430
G1 X159.017 Y97.088 E15.37106
G1 X159.041 Y98.364 E15.48712
G1 X159.024 Y99.639 E15.60313
G1 X158.964 Y100.914 E15.71916
G1 X158.864 Y102.185 E15.83518
G1 X158.721 Y103.453 E15.95123
G1 X158.538 Y104.714 E16.06707
G1 X158.312 Y105.971 E16.18327
G1 X158.047 Y107.217 E16.29911
G1 X157.740 Y108.457 E16.41524
G1 X157.393 Y109.684 E16.53125
G1 X157.006 Y110.899 E16.64720
G1 X156.580 Y112.102 E16.76328
G1 X156.114 Y113.290 E16.87933
G1 X155.609 Y114.462 E16.99539
G1 X155.067 Y115.617 E17.11139
G1 X154.387 Y116.940 E17.24666
G1 X153.704 Y118.154 E17.37341
G1 X153.106 Y119.145 E17.47866
G1 X152.529 Y120.040 E17.57545
G1 X151.683 Y121.262 E17.71070
G1 X150.919 Y122.286 E17.82685
G1 X150.127 Y123.279 E17.94242
G1 X149.436 Y124.093 E18.03951
G1 X148.438 Y125.194 E18.17465
G1 X147.697 Y125.960 E18.27154
G1 X146.783 Y126.850 E18.38757
G1 X145.683 Y127.847 E18.52262
G1 X144.709 Y128.669 E18.63851
G1 X143.872 Y129.333 E18.73567
G1 X142.677 Y130.219 E18.87099
G1 X141.802 Y130.825 E18.96779
G1 X140.732 Y131.519 E19.08374
G1 X140.682 Y131.569 E19.09023
G1 X140.442 Y131.948 E19.13096
G1 X136.020 Y134.035 E19.57568
G1 X135.917 Y134.184 E19.59220
G1 X135.873 Y134.843 E19.65220
G1 X135.657 Y136.486 E19.80293
G1 X135.221 Y138.115 E19.95636
G1 X134.424 Y140.038 E20.14568
G1 X133.581 Y141.498 E20.29900
G1 X132.313 Y143.149 E20.48827
G1 X131.122 Y144.341 E20.64155
G1 X129.467 Y145.609 E20.83112
G1 X128.010 Y146.450 E20.98411
G1 X126.089 Y147.245 E21.17319
G1 X124.461 Y147.681 E21.32650
G1 X122.387 Y147.953 E21.51678
G1 X120.708 Y147.952 E21.66943
G1 X118.651 Y147.681 E21.85813
G1 X117.021 Y147.245 E22.01156
G1 X115.080 Y146.453 E22.20228
G1 X107.258 Y146.453 E22.91366
G1 X107.065 Y146.645 E22.93838
G1 X107.065 Y154.476 E23.65057
G1 X99.525 Y162.016 E24.62037
G1 X84.920 Y162.016 E25.94864
G1 X82.979 Y162.808 E26.13931
G1 X81.349 Y163.245 E26.29275
G1 X79.291 Y163.516 E26.48153
G1 X77.611 Y163.517 E26.63430
G1 X75.539 Y163.245 E26.82443
G1 X73.909 Y162.808 E26.97781
G1 X71.989 Y162.013 E27.16685
G1 X70.530 Y161.171 E27.32002
G1 X68.879 Y159.904 E27.50934
G1 X67.687 Y158.714 E27.66250
G1 X66.420 Y157.062 E27.85183
G1 X65.577 Y155.603 E28.00513
G1 X64.779 Y153.679 E28.19454
G1 X64.343 Y152.049 E28.34797
G1 X64.126 Y150.404 E28.49889
G1 X64.083 Y149.748 E28.55870
G1 X63.980 Y149.598 E28.57521
G1 X62.796 Y149.043 E28.69416
G1 X61.657 Y148.462 E28.81043
G1 X60.540 Y147.844 E28.92655
G1 X59.447 Y147.193 E29.04225
G1 X58.198 Y146.388 E29.17736
G1 X57.151 Y145.659 E29.29341
G1 X56.128 Y144.896 E29.40947
G1 X55.130 Y144.100 E29.52559
G1 X54.160 Y143.272 E29.64156
G1 X53.370 Y142.556 E29.73847
G1 X52.453 Y141.674 E29.85426
G1 X51.562 Y140.758 E29.97048
G1 X50.703 Y139.815 E30.08648
G1 X49.874 Y138.843 E30.20262
G1 X48.951 Y137.681 E30.33758
G1 X48.194 Y136.654 E30.45364
G1 X47.471 Y135.603 E30.56965
G1 X46.782 Y134.529 E30.68569
G1 X46.129 Y133.432 E30.80176
G1 X45.612 Y132.503 E30.89851
G1 X45.081 Y131.475 E31.00374
G1 X44.478 Y130.218 E31.13052
G1 X43.967 Y129.048 E31.24667
G1 X43.495 Y127.862 E31.36269
G1 X43.061 Y126.662 E31.47876
G1 X42.607 Y125.248 E31.61386
G1 X42.260 Y124.020 E31.72991
G1 X41.953 Y122.782 E31.84589
G1 X41.688 Y121.534 E31.96192
G1 X41.497 Y120.485 E32.05893
G1 X41.306 Y119.225 E32.17480
G1 X41.157 Y117.958 E32.29078
G1 X41.049 Y116.686 E32.40689
G1 X40.983 Y115.412 E32.52292
G1 X40.959 Y113.926 E32.65808
G1 X40.976 Y112.861 E32.75497
G1 X41.030 Y111.706 E32.86009
G1 X41.136 Y110.315 E32.98702
G1 X41.306 Y108.838 E33.12216
G1 X41.497 Y107.577 E33.23815
G1 X41.687 Y106.530 E33.33499
G1 X41.953 Y105.282 E33.45104
G1 X42.315 Y103.840 E33.58623
G1 X42.607 Y102.816 E33.68311
G1 X42.957 Y101.714 E33.78823
G1 X43.420 Y100.398 E33.91511
G1 X43.967 Y99.016 E34.05028
G1 X44.477 Y97.847 E34.16631
G1 X45.026 Y96.694 E34.28240
G1 X45.612 Y95.562 E34.39832
G1 X46.129 Y94.630 E34.49526
G1 X46.893 Y93.356 E34.63041
G1 X47.471 Y92.461 E34.72727
G1 X48.126 Y91.508 E34.83239
G1 X48.952 Y90.382 E34.95943
G1 X49.875 Y89.219 E35.09450
G1 X50.564 Y88.406 E35.19136
G1 X51.338 Y87.548 E35.29648
G1 X52.303 Y86.540 E35.42338
G1 X53.370 Y85.507 E35.55848
G1 X54.317 Y84.653 E35.67445
G1 X55.130 Y83.963 E35.77141
G1 X56.128 Y83.167 E35.88749
G1 X57.321 Y82.282 E36.02262
G1 X58.472 Y81.494 E36.14944
G1 X59.447 Y80.870 E36.25471
G1 X60.360 Y80.323 E36.35151
G1 X61.474 Y79.700 E36.46757
G1 X62.796 Y79.021 E36.60279
G1 X63.950 Y78.479 E36.71871
G1 X64.928 Y78.055 E36.81564
G1 X66.310 Y77.509 E36.95078
G1 X67.513 Y77.082 E37.06692
G1 X68.526 Y76.756 E37.16371
G1 X69.752 Y76.403 E37.27970
G1 X71.194 Y76.042 E37.41489
G1 X72.735 Y75.722 E37.55804
G1 X73.419 Y76.233 F10200.000
G1 F1800
G1 X73.571 Y76.050 E37.57967
G1 X73.571 Y67.141 E38.38997
G1 X76.991 Y61.368 E39.00021
G1 X93.468 Y52.339 E40.70892
G1 X93.560 Y52.184 E40.72527
G1 X93.560 Y43.363 E41.52751
G1 X105.570 Y36.249 E42.79709
G1 X123.009 Y45.804 E44.60553
G1 X126.429 Y51.577 E45.21577
G1 X126.429 Y60.487 E46.02607
G1 X126.581 Y60.670 E46.04770
G1 X127.639 Y60.865 E46.14552
G1 X128.865 Y61.134 E46.25965
G1 X129.889 Y61.390 E46.35571
G1 X131.095 Y61.731 E46.46969
G1 X132.481 Y62.177 E46.60212
G1 X133.475 Y62.532 E46.69809
G1 X134.642 Y62.990 E46.81213
G1 X135.979 Y63.570 E46.94466
G1 X137.112 Y64.109 E47.05879
G1 X138.227 Y64.685 E47.17292
G1 X139.151 Y65.199 E47.26902
G1 X140.228 Y65.840 E47.38302
G1 X141.452 Y66.629 E47.51546
G1 X142.319 Y67.230 E47.61141
G1 X143.328 Y67.974 E47.72547
G1 X144.469 Y68.880 E47.85793
G1 X145.274 Y69.563 E47.95396
G1 X146.206 Y70.403 E48.06806
G1 X147.111 Y71.274 E48.18231
G1 X147.985 Y72.173 E48.29632
G1 X148.963 Y73.252 E48.42877
G1 X149.772 Y74.210 E48.54282
G1 X150.550 Y75.195 E48.65694
G1 X151.295 Y76.206 E48.77118
G1 X151.896 Y77.074 E48.86712
G1 X152.685 Y78.297 E48.99953
G1 X153.326 Y79.374 E49.11353
G1 X153.934 Y80.475 E49.22790
G1 X154.504 Y81.592 E49.34200
G1 X155.038 Y82.727 E49.45605
G1 X155.458 Y83.696 E49.55210
G1 X155.922 Y84.862 E49.66625
G1 X156.348 Y86.043 E49.78038
G1 X156.735 Y87.237 E49.89453
G1 X157.083 Y88.444 E50.00879
G1 X157.391 Y89.660 E50.12287
G1 X157.660 Y90.887 E50.23714
G1 X157.887 Y92.120 E50.35112
G1 X158.101 Y93.564 E50.48390
G1 X158.241 Y94.810 E50.59792
G1 X158.341 Y96.061 E50.71203
G1 X158.392 Y97.113 E50.80787
G1 X158.416 Y98.369 E50.92206
G1 X158.399 Y99.624 E51.03622
G1 X158.340 Y100.878 E51.15039
G1 X158.241 Y102.129 E51.26454
G1 X158.101 Y103.377 E51.37874
G1 X157.920 Y104.617 E51.49272
G1 X157.698 Y105.854 E51.60705
G1 X157.437 Y107.080 E51.72104
G1 X157.135 Y108.300 E51.83530
G1 X156.793 Y109.508 E51.94945
G1 X156.413 Y110.703 E52.06355
G1 X155.993 Y111.887 E52.17776
G1 X155.534 Y113.056 E52.29196
G1 X155.038 Y114.209 E52.40616
G1 X154.504 Y115.345 E52.52030
G1 X153.839 Y116.640 E52.65277
G1 X153.168 Y117.833 E52.77723
G1 X152.578 Y118.811 E52.88105
G1 X152.007 Y119.697 E52.97691
G1 X151.178 Y120.894 E53.10937
G1 X150.427 Y121.901 E53.22366
G1 X149.647 Y122.879 E53.33739
G1 X148.963 Y123.685 E53.43354
G1 X147.985 Y124.763 E53.56589
G1 X147.252 Y125.522 E53.66185
G1 X146.352 Y126.397 E53.77602
G1 X145.274 Y127.374 E53.90828
G1 X144.316 Y128.182 E54.02232
G1 X143.487 Y128.840 E54.11854
G1 X142.317 Y129.708 E54.25106
G1 X141.282 Y130.420 E54.36533
G1 X140.283 Y131.062 E54.47332
G1 X140.230 Y131.114 E54.48006
G1 X140.011 Y131.460 E54.51730
G1 X135.979 Y133.367 E54.92291
G1 X135.411 Y133.617 E54.97937
G1 X135.304 Y133.781 E54.99721
G1 X135.251 Y134.781 E55.08831
G1 X135.043 Y136.364 E55.23345
G1 X134.627 Y137.914 E55.37942
G1 X133.862 Y139.761 E55.56128
G1 X133.060 Y141.150 E55.70715
G1 X131.843 Y142.736 E55.88896
G1 X130.709 Y143.870 E56.03480
G1 X129.120 Y145.088 E56.21690
G1 X127.733 Y145.888 E56.36246
G1 X125.888 Y146.652 E56.54409
G1 X124.339 Y147.067 E56.68996
G1 X122.346 Y147.328 E56.87273
G1 X120.749 Y147.327 E57.01796
G1 X118.773 Y147.067 E57.19923
G1 X117.223 Y146.651 E57.34521
G1 X115.229 Y145.828 E57.54137
G1 X106.633 Y145.828 E58.32321
G1 X106.440 Y146.020 E58.34794
G1 X106.440 Y154.217 E59.09342
G1 X99.266 Y161.391 E60.01613
G1 X84.771 Y161.391 E61.33445
G1 X82.777 Y162.215 E61.53059
G1 X81.227 Y162.630 E61.67658
G1 X79.250 Y162.891 E61.85792
G1 X77.652 Y162.892 E62.00327
G1 X75.661 Y162.630 E62.18590
G1 X74.111 Y162.215 E62.33183
G1 X72.266 Y161.451 E62.51342
G1 X70.878 Y160.650 E62.65916
G1 X69.291 Y159.433 E62.84102
G1 X68.158 Y158.300 E62.98674
G1 X66.941 Y156.714 E63.16860
G1 X66.138 Y155.325 E63.31446
G1 X65.373 Y153.477 E63.49640
G1 X64.957 Y151.927 E63.64238
G1 X64.749 Y150.343 E63.78771
G1 X64.696 Y149.344 E63.87862
G1 X64.589 Y149.180 E63.89646
G1 X63.068 Y148.480 E64.04874
G1 X61.947 Y147.908 E64.16314
G1 X60.848 Y147.301 E64.27740
G1 X59.772 Y146.660 E64.39125
G1 X58.550 Y145.871 E64.52358
G1 X57.519 Y145.154 E64.63777
G1 X56.512 Y144.403 E64.75196
G1 X55.530 Y143.620 E64.86622
G1 X54.726 Y142.937 E64.96220
G1 X53.879 Y142.174 E65.06584
G1 X52.891 Y141.228 E65.19024
G1 X52.014 Y140.327 E65.30460
G1 X51.169 Y139.399 E65.41874
G1 X50.354 Y138.443 E65.53301
G1 X49.450 Y137.305 E65.66520
G1 X48.705 Y136.294 E65.77939
G1 X47.993 Y135.260 E65.89354
G1 X47.316 Y134.203 E66.00772
G1 X46.673 Y133.124 E66.12193
G1 X46.161 Y132.203 E66.21775
G1 X45.637 Y131.189 E66.32158
G1 X45.045 Y129.955 E66.44604
G1 X44.542 Y128.804 E66.56033
G1 X44.078 Y127.637 E66.67449
G1 X43.652 Y126.456 E66.78869
G1 X43.207 Y125.071 E66.92101
G1 X42.865 Y123.863 E67.03520
G1 X42.563 Y122.645 E67.14932
G1 X42.301 Y121.417 E67.26349
G1 X42.112 Y120.378 E67.35957
G1 X41.925 Y119.138 E67.47358
G1 X41.779 Y117.892 E67.58770
G1 X41.673 Y116.640 E67.70195
G1 X41.608 Y115.387 E67.81611
G1 X41.584 Y113.931 E67.94849
G1 X41.601 Y112.876 E68.04445
G1 X41.654 Y111.736 E68.14824
G1 X41.759 Y110.371 E68.27278
G1 X41.925 Y108.925 E68.40513
G1 X42.113 Y107.684 E68.51926
G1 X42.301 Y106.647 E68.61517
G1 X42.563 Y105.419 E68.72936
G1 X42.917 Y104.007 E68.86176
G1 X43.207 Y102.992 E68.95771
G1 X43.552 Y101.905 E69.06143
G1 X44.007 Y100.613 E69.18599
G1 X44.542 Y99.260 E69.31837
G1 X45.044 Y98.109 E69.43254
G1 X45.584 Y96.975 E69.54676
G1 X46.160 Y95.861 E69.66083
G1 X46.673 Y94.938 E69.75683
G1 X47.421 Y93.690 E69.88920
G1 X47.993 Y92.804 E69.98512
G1 X48.639 Y91.864 E70.08885
G1 X49.451 Y90.758 E70.21356
G1 X50.355 Y89.619 E70.34584
G1 X51.037 Y88.815 E70.44177
G1 X51.801 Y87.967 E70.54550
G1 X52.748 Y86.978 E70.67008
G1 X53.794 Y85.966 E70.80239
G1 X54.726 Y85.126 E70.91651
G1 X55.531 Y84.443 E71.01253
G1 X56.512 Y83.660 E71.12675
G1 X57.681 Y82.793 E71.25909
G1 X58.811 Y82.020 E71.38358
G1 X59.772 Y81.404 E71.48746
G1 X60.677 Y80.862 E71.58333
G1 X61.773 Y80.249 E71.69753
G1 X63.068 Y79.583 E71.82995
G1 X64.203 Y79.050 E71.94402
G1 X65.172 Y78.630 E72.04001
G1 X66.525 Y78.096 E72.17236
G1 X67.709 Y77.675 E72.28665
G1 X68.713 Y77.353 E72.38250
G1 X69.919 Y77.005 E72.49664
G1 X71.331 Y76.651 E72.62904
G1 X72.361 Y76.429 E72.72492
G1 X73.360 Y76.244 E72.81730
G1 X74.037 Y76.764 F10200.000
G1 F1800
G1 X74.196 Y76.579 E72.83949
G1 X74.196 Y67.312 E73.68231
G1 X77.442 Y61.833 E74.26140
G1 X94.093 Y52.709 E75.98821
G1 X94.185 Y52.555 E76.00456
G1 X94.185 Y43.720 E76.80808
G1 X105.582 Y36.968 E78.01287
G1 X122.558 Y46.270 E79.77334
G1 X125.804 Y51.749 E80.35243
G1 X125.804 Y61.016 E81.19525
G1 X125.963 Y61.201 E81.21744
G1 X127.512 Y61.477 E81.36052
G1 X128.718 Y61.741 E81.47280
G1 X129.732 Y61.995 E81.56792
G1 X130.919 Y62.331 E81.68005
G1 X132.095 Y62.705 E81.79231
G1 X133.438 Y63.186 E81.92202
G1 X134.584 Y63.642 E82.03428
G1 X135.545 Y64.059 E82.12947
G1 X136.661 Y64.583 E82.24161
G1 X137.760 Y65.144 E82.35383
G1 X139.007 Y65.837 E82.48356
G1 X140.063 Y66.474 E82.59579
G1 X140.943 Y67.041 E82.69093
G1 X142.114 Y67.852 E82.82044
G1 X143.103 Y68.589 E82.93267
G1 X143.922 Y69.239 E83.02779
G1 X144.866 Y70.036 E83.14013
G1 X145.701 Y70.789 E83.24240
G1 X146.807 Y71.854 E83.38198
G1 X147.662 Y72.742 E83.49415
G1 X148.364 Y73.517 E83.58923
G1 X149.165 Y74.456 E83.70152
G1 X149.935 Y75.421 E83.81378
G1 X150.784 Y76.566 E83.94340
G1 X151.484 Y77.583 E84.05563
G1 X152.051 Y78.461 E84.15073
G1 X152.688 Y79.518 E84.26297
G1 X153.291 Y80.597 E84.37534
G1 X153.942 Y81.864 E84.50492
G1 X154.466 Y82.981 E84.61711
G1 X154.955 Y84.117 E84.72958
G1 X155.406 Y85.265 E84.84182
G1 X155.819 Y86.428 E84.95401
G1 X156.193 Y87.604 E85.06629
G1 X156.481 Y88.611 E85.16147
G1 X156.784 Y89.807 E85.27370
G1 X157.048 Y91.014 E85.38611
G1 X157.271 Y92.227 E85.49823
G1 X157.456 Y93.450 E85.61074
G1 X157.600 Y94.676 E85.72297
G1 X157.704 Y95.905 E85.83521
G1 X157.768 Y97.139 E85.94754
G1 X157.791 Y98.374 E86.05987
G1 X157.774 Y99.608 E86.17216
G1 X157.716 Y100.842 E86.28447
G1 X157.619 Y102.073 E86.39677
G1 X157.481 Y103.300 E86.50910
G1 X157.252 Y104.815 E86.64839
G1 X157.047 Y105.925 E86.75103
G1 X156.784 Y107.128 E86.86310
G1 X156.481 Y108.327 E86.97553
G1 X156.139 Y109.513 E87.08778
G1 X155.759 Y110.686 E87.19991
G1 X155.339 Y111.849 E87.31239
G1 X154.882 Y112.997 E87.42481
G1 X154.388 Y114.129 E87.53711
G1 X153.941 Y115.073 E87.63206
G1 X153.380 Y116.173 E87.74435
G1 X152.688 Y117.418 E87.87390
G1 X152.151 Y118.314 E87.96897
G1 X151.484 Y119.354 E88.08124
G1 X150.784 Y120.371 E88.19355
G1 X149.934 Y121.517 E88.32332
G1 X149.167 Y122.479 E88.43522
G1 X148.490 Y123.277 E88.53042
G1 X147.533 Y124.332 E88.65999
G1 X146.671 Y125.218 E88.77234
G1 X145.783 Y126.074 E88.88456
G1 X145.009 Y126.776 E88.97957
G1 X143.924 Y127.696 E89.10899
G1 X142.952 Y128.463 E89.22158
G1 X141.957 Y129.197 E89.33398
G1 X140.939 Y129.898 E89.44639
G1 X139.835 Y130.603 E89.56551
G1 X139.780 Y130.657 E89.57250
G1 X139.580 Y130.973 E89.60654
G1 X135.717 Y132.800 E89.99519
G1 X134.786 Y133.207 E90.08757
G1 X134.679 Y133.371 E90.10541
G1 X134.679 Y133.961 E90.15910
G1 X134.629 Y134.720 E90.22827
